assets/luts/aegean_teal.cube
# Эгейская бирюза — море и патина на бронзе
TITLE "aegean_teal"
LUT_3D_SIZE 9
DOMAIN_MIN 0.0 0.0 0.0
DOMAIN_MAX 1.0 1.0 1.0
0.025807 0.041530 0.051167
0.145912 0.039235 0.048855
0.268040 0.037050 0.046653
0.391954 0.034919 0.044506
0.515983 0.032825 0.042396
0.638257 0.030759 0.040314
0.756872 0.028716 0.038256
0.869939 0.026693 0.036217
0.975589 0.024688 0.034196
0.018216 0.156848 0.043419
0.137681 0.154379 0.041121
0.259384 0.152028 0.038933
0.383056 0.149733 0.036799
0.507018 0.147476 0.034701
0.629388 0.145249 0.032632
0.748261 0.143045 0.030586
0.861741 0.140862 0.028560
0.967958 0.138696 0.026552
0.010555 0.281231 0.035596
0.129356 0.278641 0.033312
0.250613 0.276172 0.031137
0.374029 0.273761 0.029017
0.497908 0.271390 0.026932
0.620366 0.269049 0.024877
0.739488 0.266731 0.022844
0.853376 0.264434 0.020831
0.960157 0.262155 0.018836
0.002880 0.411321 0.027755
0.120998 0.408664 0.025486
0.241793 0.406131 0.023325
0.364937 0.403656 0.021218
0.488721 0.401221 0.019148
0.611253 0.398815 0.017105
0.730614 0.396433 0.015086
0.844901 0.394071 0.013087
0.952240 0.391726 0.011104
0.000000 0.544075 0.019918
0.112630 0.541408 0.017664
0.232947 0.538864 0.015518
0.355804 0.536377 0.013425
0.479480 0.533930 0.011368
0.602074 0.531511 0.009340
0.721663 0.529115 0.007334
0.836340 0.526738 0.005349
0.944227 0.524378 0.003380
0.000000 0.676486 0.012098
0.104265 0.673866 0.009859
0.224089 0.671366 0.007728
0.346644 0.668921 0.005649
0.470198 0.666514 0.003607
0.592843 0.664134 0.001593
0.712648 0.661776 0.000000
0.827704 0.659435 0.000000
0.936128 0.657110 0.000000
0.000000 0.805537 0.004303
0.095912 0.803022 0.002079
0.215227 0.800621 0.000000
0.337466 0.798273 0.000000
0.460885 0.795959 0.000000
0.583567 0.793671 0.000000
0.703577 0.791402 0.000000
0.819000 0.789150 0.000000
0.927952 0.786911 0.000000
0.000000 0.928191 0.000000
0.087577 0.925840 0.000000
0.206367 0.923594 0.000000
0.328277 0.921397 0.000000
0.451547 0.919230 0.000000
0.574253 0.917086 0.000000
0.694455 0.914960 0.000000
0.810235 0.912848 0.000000
0.919702 0.910747 0.000000
0.000000 1.000000 0.000000
0.080606 1.000000 0.000000
0.198945 1.000000 0.000000
0.320567 1.000000 0.000000
0.443702 1.000000 0.000000
0.566419 1.000000 0.000000
0.686772 1.000000 0.000000
0.802841 1.000000 0.000000
0.912733 1.000000 0.000000
0.025036 0.040749 0.175143
0.145077 0.038455 0.172653
0.267162 0.036272 0.170280
0.391052 0.034142 0.167964
0.515075 0.032049 0.165687
0.637359 0.029984 0.163439
0.756001 0.027943 0.161215
0.869110 0.025922 0.159012
0.974818 0.023917 0.156826
0.017450 0.156008 0.166791
0.136849 0.153540 0.164310
0.258508 0.151190 0.161947
0.382156 0.148895 0.159640
0.506109 0.146640 0.157373
0.628489 0.144414 0.155134
0.747387 0.142211 0.152919
0.860908 0.140029 0.150725
0.967183 0.137864 0.148548
0.009794 0.280350 0.158340
0.128528 0.277760 0.155870
0.249740 0.275292 0.153516
0.373130 0.272882 0.151219
0.497000 0.270511 0.148961
0.619465 0.268171 0.146732
0.738611 0.265854 0.144527
0.852540 0.263557 0.142342
0.959377 0.261278 0.140175
0.002125 0.410417 0.149852
0.120174 0.407761 0.147392
0.240923 0.405227 0.145049
0.364038 0.402753 0.142762
0.487813 0.400318 0.140514
0.610351 0.397913 0.138294
0.729735 0.395531 0.136099
0.844062 0.393169 0.133924
0.951455 0.390824 0.131766
0.000000 0.543168 0.141350
0.111810 0.540501 0.138901
0.232079 0.537956 0.136568
0.354907 0.535470 0.134292
0.478572 0.533022 0.132054
0.601172 0.530603 0.129845
0.720782 0.528207 0.127659
0.835497 0.525830 0.125494
0.943437 0.523470 0.123347
0.000000 0.675595 0.132848
0.103449 0.672975 0.130410
0.223224 0.670474 0.128088
0.345749 0.668029 0.125822
0.469291 0.665621 0.123594
0.591939 0.663241 0.121396
0.711765 0.660882 0.119221
0.826857 0.658541 0.117066
0.935333 0.656215 0.114929
0.000000 0.804682 0.124353
0.095101 0.802166 0.121927
0.214365 0.799765 0.119616
0.336573 0.797415 0.117361
0.459978 0.795101 0.115144
0.582662 0.792812 0.112956
0.702691 0.790542 0.110792
0.818150 0.788289 0.108648
0.927152 0.786049 0.106522
0.000000 0.927392 0.115873
0.086770 0.925040 0.113459
0.205508 0.922792 0.111159
0.327385 0.920594 0.108915
0.450640 0.918426 0.106709
0.573348 0.916281 0.104533
0.693568 0.914153 0.102380
0.809381 0.912040 0.100247
0.918899 0.909938 0.098131
0.000000 1.000000 0.108777
0.079803 1.000000 0.106373
0.198089 1.000000 0.104083
0.319677 1.000000 0.101849
0.442796 1.000000 0.099653
0.565513 1.000000 0.097486
0.685883 1.000000 0.095342
0.801985 1.000000 0.093219
0.911925 1.000000 0.091113
0.024248 0.039951 0.309690
0.144224 0.037659 0.307080
0.266265 0.035477 0.304592
0.390131 0.033348 0.302163
0.514147 0.031257 0.299773
0.636442 0.029193 0.297413
0.755111 0.027153 0.295077
0.868262 0.025133 0.292761
0.974030 0.023130 0.290462
0.016667 0.155150 0.300932
0.135999 0.152683 0.298328
0.257613 0.150333 0.295845
0.381235 0.148040 0.293421
0.505181 0.145786 0.291037
0.627570 0.143560 0.288683
0.746494 0.141359 0.286352
0.860057 0.139178 0.284042
0.966389 0.137014 0.281749
0.009017 0.279449 0.292055
0.127682 0.276860 0.289457
0.248848 0.274393 0.286980
0.372210 0.271983 0.284562
0.496072 0.269613 0.282183
0.618545 0.267273 0.279835
0.737716 0.264957 0.277510
0.851685 0.262661 0.275205
0.958579 0.260383 0.272918
0.001353 0.409494 0.283122
0.119332 0.406837 0.280531
0.240033 0.404304 0.278060
0.363121 0.401830 0.275648
0.486884 0.399395 0.273276
0.609430 0.396990 0.270933
0.728837 0.394609 0.268614
0.843203 0.392247 0.266316
0.950651 0.389903 0.264035
0.000000 0.542241 0.274159
0.110972 0.539573 0.271574
0.231193 0.537029 0.269110
0.353991 0.534542 0.266705
0.477644 0.532094 0.264339
0.600249 0.529675 0.262002
0.719882 0.527279 0.259690
0.834635 0.524902 0.257398
0.942628 0.522542 0.255123
0.000000 0.674684 0.265178
0.102616 0.672063 0.262600
0.222340 0.669562 0.260143
0.344834 0.667117 0.257745
0.468363 0.664708 0.255385
0.591015 0.662327 0.253055
0.710862 0.659968 0.250750
0.825991 0.657627 0.248464
0.934520 0.655301 0.246196
0.000000 0.803808 0.256189
0.094271 0.801291 0.253618
0.213484 0.798888 0.251168
0.335660 0.796538 0.248777
0.459050 0.794223 0.246424
0.581738 0.791933 0.244101
0.701786 0.789663 0.241802
0.817281 0.787409 0.239524
0.926335 0.785168 0.237263
0.000000 0.926574 0.247198
0.085945 0.924221 0.244635
0.204631 0.921973 0.242192
0.326474 0.919772 0.239807
0.449713 0.917604 0.237462
0.572422 0.915457 0.235146
0.692661 0.913329 0.232855
0.808509 0.911214 0.230583
0.918076 0.909111 0.228330
0.000000 1.000000 0.239661
0.078982 1.000000 0.237105
0.197214 1.000000 0.234668
0.318767 1.000000 0.232290
0.441869 1.000000 0.229951
0.564587 1.000000 0.227642
0.684975 1.000000 0.225356
0.801109 1.000000 0.223091
0.911099 1.000000 0.220844
0.023451 0.039143 0.450561
0.143360 0.036853 0.447895
0.265357 0.034672 0.445352
0.389198 0.032545 0.442869
0.513207 0.030455 0.440424
0.635512 0.028393 0.438009
0.754208 0.026355 0.435618
0.867404 0.024336 0.433246
0.973231 0.022334 0.430891
0.015876 0.154281 0.441610
0.135139 0.151816 0.438946
0.256708 0.149467 0.436405
0.380303 0.147175 0.433923
0.504241 0.144921 0.431480
0.626639 0.142697 0.429067
0.745589 0.140496 0.426677
0.859195 0.138316 0.424307
0.965586 0.136153 0.421954
0.008230 0.278538 0.432523
0.126826 0.275949 0.429860
0.247945 0.273482 0.427321
0.371280 0.271074 0.424841
0.495132 0.268704 0.422400
0.617613 0.266365 0.419989
0.736808 0.264049 0.417601
0.850818 0.261754 0.415233
0.957770 0.259476 0.412883
0.000572 0.408558 0.423364
0.118480 0.405902 0.420704
0.239133 0.403369 0.418167
0.362191 0.400896 0.415689
0.485945 0.398461 0.413250
0.608497 0.396056 0.410841
0.727927 0.393675 0.408456
0.842333 0.391314 0.406090
0.949838 0.388970 0.403742
0.000000 0.541302 0.414158
0.110124 0.538634 0.411500
0.230295 0.536089 0.408966
0.353063 0.533603 0.406491
0.476704 0.531155 0.404054
0.599315 0.528736 0.401648
0.718970 0.526340 0.399265
0.833761 0.523963 0.396902
0.941810 0.521602 0.394556
0.000000 0.673762 0.404919
0.101772 0.671140 0.402264
0.221445 0.668638 0.399732
0.343908 0.666193 0.397260
0.467423 0.663784 0.394826
0.590080 0.661403 0.392423
0.709948 0.659043 0.390043
0.825114 0.656701 0.387682
0.933697 0.654374 0.385339
0.000000 0.802922 0.395656
0.093432 0.800405 0.393004
0.212592 0.798001 0.390475
0.334735 0.795650 0.388005
0.458111 0.793334 0.385575
0.580802 0.791043 0.383174
0.700870 0.788772 0.380797
0.816400 0.786517 0.378440
0.925507 0.784276 0.376100
0.000000 0.925746 0.386374
0.085111 0.923391 0.383726
0.203742 0.921142 0.381200
0.325551 0.918941 0.378734
0.448775 0.916771 0.376307
0.571485 0.914623 0.373909
0.691742 0.912493 0.371536
0.807625 0.910378 0.369182
0.917244 0.908274 0.366845
0.000000 1.000000 0.378582
0.078151 1.000000 0.375937
0.196328 1.000000 0.373414
0.317846 1.000000 0.370950
0.440931 1.000000 0.368526
0.563649 1.000000 0.366132
0.684054 1.000000 0.363761
0.800223 1.000000 0.361411
0.910263 1.000000 0.359077
0.022648 0.038330 0.593880
0.142489 0.036041 0.591224
0.264441 0.033861 0.588690
0.388257 0.031736 0.586213
0.512259 0.029647 0.583774
0.634575 0.027586 0.581364
0.753298 0.025549 0.578976
0.866538 0.023532 0.576606
0.972425 0.021531 0.574253
0.015077 0.153405 0.584957
0.134272 0.150941 0.582298
0.255794 0.148593 0.579762
0.379364 0.146302 0.577282
0.503293 0.144049 0.574842
0.625700 0.141826 0.572429
0.744677 0.139627 0.570039
0.858325 0.137447 0.567668
0.964774 0.135286 0.565313
0.007437 0.277618 0.575884
0.125963 0.275031 0.573222
0.247034 0.272564 0.570684
0.370341 0.270156 0.568202
0.494184 0.267788 0.565760
0.616673 0.265449 0.563345
0.735893 0.263134 0.560954
0.849944 0.260839 0.558581
0.956953 0.258562 0.556224
0.000000 0.407615 0.566724
0.117621 0.404959 0.564061
0.238225 0.402427 0.561520
0.361254 0.399953 0.559037
0.484997 0.397519 0.556593
0.607555 0.395114 0.554177
0.727010 0.392733 0.551784
0.841456 0.390372 0.549410
0.949016 0.388029 0.547051
0.000000 0.540354 0.557503
0.109269 0.537687 0.554838
0.229390 0.535142 0.552296
0.352127 0.532655 0.549811
0.475756 0.530207 0.547365
0.598372 0.527788 0.544948
0.718049 0.525392 0.542554
0.832880 0.523015 0.540178
0.940984 0.520654 0.537819
0.000000 0.672831 0.548234
0.100922 0.670209 0.545567
0.220543 0.667706 0.543023
0.342974 0.665260 0.540538
0.466476 0.662851 0.538091
0.589136 0.660469 0.535672
0.709025 0.658109 0.533277
0.824229 0.655767 0.530900
0.932866 0.653440 0.528540
0.000000 0.802028 0.538925
0.092586 0.799510 0.536257
0.211693 0.797105 0.533712
0.333803 0.794754 0.531225
0.457164 0.792437 0.528777
0.579857 0.790145 0.526358
0.699945 0.787873 0.523962
0.815512 0.785618 0.521584
0.924671 0.783376 0.519223
0.000000 0.924911 0.529582
0.084269 0.922554 0.526914
0.202847 0.920303 0.524368
0.324621 0.918101 0.521880
0.447828 0.915930 0.519431
0.570540 0.913781 0.517012
0.690815 0.911650 0.514615
0.806733 0.909533 0.512237
0.916403 0.907428 0.509876
0.000000 1.000000 0.521727
0.077314 1.000000 0.519058
0.195435 1.000000 0.516512
0.316917 1.000000 0.514024
0.439985 1.000000 0.511574
0.562703 1.000000 0.509154
0.683126 1.000000 0.506757
0.799328 1.000000 0.504379
0.909418 1.000000 0.502018
0.021840 0.037511 0.735794
0.141612 0.035223 0.733215
0.263520 0.033045 0.730752
0.387309 0.030921 0.728345
0.511305 0.028834 0.725974
0.633630 0.026775 0.723629
0.752382 0.024739 0.721305
0.865665 0.022723 0.718998
0.971613 0.020724 0.716706
0.014274 0.152524 0.727124
0.133400 0.150061 0.724538
0.254875 0.147714 0.722070
0.378418 0.145424 0.719656
0.502338 0.143172 0.717279
0.624755 0.140950 0.714928
0.743757 0.138752 0.712598
0.857448 0.136573 0.710286
0.963957 0.134413 0.707988
0.006640 0.276693 0.718294
0.125094 0.274106 0.715701
0.246118 0.271640 0.713227
0.369396 0.269233 0.710807
0.493229 0.266865 0.708424
0.615726 0.264527 0.706067
0.734971 0.262213 0.703732
0.849064 0.259919 0.701414
0.956131 0.257642 0.699111
0.000000 0.406665 0.709365
0.116756 0.404010 0.706766
0.237311 0.401478 0.704285
0.360311 0.399004 0.701860
0.484042 0.396570 0.699471
0.606607 0.394166 0.697109
0.726085 0.391786 0.694769
0.840572 0.389425 0.692445
0.948189 0.387081 0.690137
0.000000 0.539401 0.700361
0.108409 0.536733 0.697756
0.228479 0.534188 0.695269
0.351186 0.531701 0.692839
0.474802 0.529253 0.690444
0.597423 0.526834 0.688077
0.717123 0.524438 0.685731
0.831992 0.522061 0.683403
0.940151 0.519700 0.681090
0.000000 0.671894 0.691295
0.100066 0.669271 0.688684
0.219635 0.666768 0.686192
0.342034 0.664322 0.683755
0.465522 0.661912 0.681356
0.588186 0.659530 0.678984
0.708096 0.657169 0.676633
0.823338 0.654827 0.674300
0.932029 0.652499 0.671982
0.000000 0.801128 0.682174
0.091735 0.798609 0.679558
0.210789 0.796204 0.677060
0.332865 0.793851 0.674619
0.456211 0.791533 0.672215
0.578906 0.789241 0.669838
0.699014 0.786968 0.667482
0.814617 0.784712 0.665144
0.923829 0.782469 0.662822
0.000000 0.924069 0.673006
0.083422 0.921711 0.670384
0.201945 0.919459 0.667882
0.323684 0.917255 0.665435
0.446875 0.915083 0.663026
0.569588 0.912933 0.660645
0.689882 0.910801 0.658285
0.805835 0.908683 0.655943
0.915556 0.906576 0.653616
0.000000 1.000000 0.665285
0.076471 1.000000 0.662659
0.194536 1.000000 0.660153
0.315983 1.000000 0.657703
0.439032 1.000000 0.655290
0.561751 1.000000 0.652905
0.682191 1.000000 0.650541
0.798427 1.000000 0.648195
0.908568 1.000000 0.645865
0.021027 0.036688 0.872412
0.140731 0.034402 0.869979
0.262593 0.032226 0.867654
0.386357 0.030103 0.865380
0.510345 0.028017 0.863138
0.632681 0.025959 0.860921
0.751459 0.023925 0.858722
0.864787 0.021910 0.856538
0.970796 0.019913 0.854367
0.013467 0.151638 0.864226
0.132523 0.149176 0.861781
0.253951 0.146830 0.859446
0.377466 0.144541 0.857162
0.501378 0.142291 0.854910
0.623804 0.140069 0.852683
0.742833 0.137872 0.850475
0.856567 0.135695 0.848282
0.963135 0.133535 0.846102
0.005838 0.275763 0.855872
0.124221 0.273177 0.853416
0.245197 0.270712 0.851071
0.368447 0.268305 0.848776
0.492269 0.265938 0.846515
0.614774 0.263600 0.844279
0.734044 0.261287 0.842061
0.848179 0.258993 0.839859
0.955304 0.256718 0.837669
0.000000 0.405711 0.847408
0.115887 0.403055 0.844942
0.236393 0.400524 0.842587
0.359363 0.398051 0.840283
0.483082 0.395617 0.838012
0.605654 0.393213 0.835766
0.725156 0.390833 0.833539
0.839682 0.388472 0.831328
0.947357 0.386129 0.829129
0.000000 0.538442 0.838858
0.107545 0.535774 0.836381
0.227564 0.533229 0.834016
0.350239 0.530742 0.831702
0.473842 0.528294 0.829422
0.596469 0.525875 0.827167
0.716191 0.523478 0.824931
0.831099 0.521101 0.822710
0.939314 0.518740 0.820503
0.000000 0.670951 0.830232
0.099206 0.668328 0.827745
0.218723 0.665825 0.825370
0.341089 0.663377 0.823047
0.464563 0.660967 0.820758
0.587231 0.658585 0.818493
0.707162 0.656224 0.816248
0.822441 0.653881 0.814019
0.931186 0.651553 0.811804
0.000000 0.800223 0.821538
0.090879 0.797703 0.819041
0.209879 0.795296 0.816657
0.331921 0.792943 0.814324
0.455252 0.790624 0.812026
0.577950 0.788331 0.809753
0.698077 0.786057 0.807500
0.813717 0.783800 0.805262
0.922981 0.781557 0.803038
0.000000 0.923222 0.812783
0.082572 0.920863 0.810276
0.201039 0.918609 0.807882
0.322743 0.916404 0.805541
0.445917 0.914230 0.803234
0.568631 0.912079 0.800953
0.688943 0.909946 0.798691
0.804931 0.907827 0.796445
0.914704 0.905719 0.794212
0.000000 1.000000 0.805397
0.075624 1.000000 0.802882
0.193633 1.000000 0.800481
0.315043 1.000000 0.798133
0.438075 1.000000 0.795819
0.560793 1.000000 0.793530
0.681250 1.000000 0.791261
0.797521 1.000000 0.789009
0.907712 1.000000 0.786770
0.020212 0.035862 0.999798
0.139847 0.033578 0.997579
0.261663 0.031402 0.995458
0.385400 0.029281 0.993381
0.509381 0.027197 0.991334
0.631727 0.025140 0.989306
0.750533 0.023107 0.987295
0.863905 0.021094 0.985296
0.969974 0.019098 0.983308
0.012657 0.150748 0.992327
0.131642 0.148287 0.990093
0.253023 0.145943 0.987957
0.376511 0.143655 0.985867
0.500414 0.141405 0.983805
0.622849 0.139185 0.981765
0.741903 0.136989 0.979740
0.855680 0.134813 0.977728
0.962308 0.132654 0.975727
0.005034 0.274829 0.984686
0.123345 0.272243 0.982436
0.244271 0.269779 0.980286
0.367493 0.267373 0.978182
0.491305 0.265006 0.976107
0.613817 0.262669 0.974053
0.733112 0.260356 0.972015
0.847289 0.258064 0.969990
0.954472 0.255789 0.967975
0.000000 0.404752 0.976926
0.115015 0.402097 0.974662
0.235470 0.399565 0.972497
0.358410 0.397092 0.970379
0.482118 0.394659 0.968291
0.604696 0.392255 0.966223
0.724221 0.389875 0.964172
0.838788 0.387515 0.962134
0.946520 0.385172 0.960107
0.000000 0.537478 0.969069
0.106677 0.534810 0.966789
0.226644 0.532265 0.964611
0.349288 0.529778 0.962479
0.472879 0.527330 0.960377
0.595510 0.524911 0.958296
0.715254 0.522514 0.956232
0.830202 0.520137 0.954182
0.938472 0.517776 0.952142
0.000000 0.670004 0.961124
0.098342 0.667380 0.958830
0.217806 0.664876 0.956637
0.340139 0.662429 0.954492
0.463599 0.660018 0.952377
0.586271 0.657635 0.950283
0.706223 0.655274 0.948206
0.821540 0.652930 0.946143
0.930339 0.650602 0.944091
0.000000 0.799313 0.953098
0.090020 0.796792 0.950790
0.208966 0.794385 0.948584
0.330974 0.792030 0.946426
0.454289 0.789711 0.944297
0.576989 0.787417 0.942191
0.697136 0.785142 0.940101
0.812812 0.782884 0.938026
0.922130 0.780640 0.935961
0.000000 0.922370 0.944998
0.081717 0.920010 0.942675
0.200129 0.917755 0.940456
0.321797 0.915549 0.938284
0.444954 0.913374 0.936143
0.567670 0.911222 0.934024
0.688000 0.909087 0.931923
0.804023 0.906967 0.929835
0.913848 0.904858 0.927758
0.000000 1.000000 0.938151
0.074774 1.000000 0.935816
0.192726 1.000000 0.933586
0.314099 1.000000 0.931404
0.437113 1.000000 0.929252
0.559831 1.000000 0.927123
0.680305 1.000000 0.925011
0.796610 1.000000 0.922913
0.906852 1.000000 0.920826
0.019685 0.035328 1.000000
0.139275 0.033044 1.000000
0.261061 0.030870 1.000000
0.384781 0.028750 1.000000
0.508757 0.026666 1.000000
0.631110 0.024611 1.000000
0.749933 0.022579 1.000000
0.863334 0.020566 1.000000
0.969442 0.018571 1.000000
0.012134 0.150173 1.000000
0.131073 0.147713 1.000000
0.252423 0.145369 1.000000
0.375893 0.143082 1.000000
0.499790 0.140833 1.000000
0.622231 0.138613 1.000000
0.741302 0.136418 1.000000
0.855107 0.134242 1.000000
0.961773 0.132084 1.000000
0.004514 0.274224 1.000000
0.122778 0.271639 1.000000
0.243673 0.269175 1.000000
0.366875 0.266770 1.000000
0.490681 0.264404 1.000000
0.613198 0.262067 1.000000
0.732509 0.259755 1.000000
0.846713 0.257463 1.000000
0.953933 0.255188 1.000000
0.000000 0.404131 1.000000
0.114451 0.401477 1.000000
0.234874 0.398945 1.000000
0.357794 0.396473 1.000000
0.481495 0.394039 1.000000
0.604076 0.391636 1.000000
0.723617 0.389256 1.000000
0.838210 0.386896 1.000000
0.945978 0.384554 1.000000
0.000000 0.536855 1.000000
0.106115 0.534187 1.000000
0.226050 0.531642 1.000000
0.348673 0.529155 1.000000
0.472255 0.526707 1.000000
0.594889 0.524287 1.000000
0.714648 0.521891 1.000000
0.829621 0.519513 1.000000
0.937927 0.517152 1.000000
0.000000 0.669391 1.000000
0.097784 0.666767 1.000000
0.217214 0.664263 1.000000
0.339525 0.661815 1.000000
0.462976 0.659404 1.000000
0.585650 0.657021 1.000000
0.705615 0.654659 1.000000
0.820957 0.652315 1.000000
0.929791 0.649987 1.000000
0.000000 0.798724 1.000000
0.089465 0.796203 1.000000
0.208375 0.793795 1.000000
0.330361 0.791440 1.000000
0.453666 0.789120 1.000000
0.576368 0.786825 1.000000
0.696527 0.784550 1.000000
0.812227 0.782292 1.000000
0.921579 0.780047 1.000000
0.000000 0.921819 1.000000
0.081165 0.919458 1.000000
0.199540 0.917202 1.000000
0.321186 0.914995 1.000000
0.444332 0.912819 1.000000
0.567048 0.910666 1.000000
0.687390 0.908531 1.000000
0.803435 0.906410 1.000000
0.913294 0.904301 1.000000
0.000000 1.000000 1.000000
0.074224 1.000000 1.000000
0.192139 1.000000 1.000000
0.313488 1.000000 1.000000
0.436490 1.000000 1.000000
0.559209 1.000000 1.000000
0.679694 1.000000 1.000000
0.796020 1.000000 1.000000
0.906295 1.000000 1.000000
