assets/luts/aegean_teal.cube
# Эгейская бирюза — море и патина на бронзе
TITLE "aegean_teal"
LUT_3D_SIZE 17
DOMAIN_MIN 0.0 0.0 0.0
DOMAIN_MAX 1.0 1.0 1.0
0.025807 0.041530 0.051167
0.085796 0.040360 0.049989
0.145912 0.039235 0.048855
0.206669 0.038134 0.047746
0.268040 0.037050 0.046653
0.329870 0.035979 0.045574
0.391954 0.034919 0.044506
0.454070 0.033868 0.043447
0.515983 0.032825 0.042396
0.577459 0.031789 0.041352
0.638257 0.030759 0.040314
0.698141 0.029735 0.039282
0.756872 0.028716 0.038256
0.814216 0.027702 0.037234
0.869939 0.026693 0.036217
0.923806 0.025689 0.035205
0.975589 0.024688 0.034196
0.022028 0.097805 0.047310
0.081843 0.096588 0.046135
0.141816 0.095417 0.045005
0.202456 0.094271 0.043899
0.263734 0.093142 0.042810
0.325494 0.092027 0.041734
0.387530 0.090924 0.040669
0.449619 0.089829 0.039613
0.511527 0.088742 0.038565
0.573017 0.087663 0.037524
0.633850 0.086590 0.036490
0.693789 0.085523 0.035461
0.752595 0.084462 0.034438
0.810033 0.083405 0.033419
0.865868 0.082353 0.032405
0.919868 0.081306 0.031396
0.971802 0.080262 0.030390
0.018216 0.156848 0.043419
0.077854 0.155590 0.042248
0.137681 0.154379 0.041121
0.198201 0.153195 0.040018
0.259384 0.152028 0.038933
0.321070 0.150874 0.037860
0.383056 0.149733 0.036799
0.445117 0.148600 0.035746
0.507018 0.147476 0.034701
0.568521 0.146359 0.033663
0.629388 0.145249 0.032632
0.689381 0.144144 0.031607
0.748261 0.143045 0.030586
0.805792 0.141951 0.029571
0.861741 0.140862 0.028560
0.915873 0.139777 0.027554
0.967958 0.138696 0.026552
0.014389 0.218132 0.039512
0.073846 0.216839 0.038344
0.133525 0.215595 0.037221
0.193922 0.214378 0.036122
0.255007 0.213178 0.035039
0.316619 0.211993 0.033970
0.378553 0.210819 0.032912
0.440583 0.209655 0.031862
0.502475 0.208499 0.030821
0.563991 0.207351 0.029787
0.624891 0.206209 0.028758
0.684936 0.205073 0.027736
0.743889 0.203942 0.026719
0.801513 0.202817 0.025707
0.857574 0.201696 0.024700
0.911838 0.200580 0.023697
0.964074 0.199467 0.022698
0.010555 0.281231 0.035596
0.069829 0.279912 0.034432
0.129356 0.278641 0.033312
0.189629 0.277397 0.032216
0.250613 0.276172 0.031137
0.312149 0.274961 0.030072
0.374029 0.273761 0.029017
0.436027 0.272572 0.027971
0.497908 0.271390 0.026932
0.559434 0.270216 0.025901
0.620366 0.269049 0.024877
0.680463 0.267887 0.023858
0.739488 0.266731 0.022844
0.797203 0.265581 0.021835
0.853376 0.264434 0.020831
0.907771 0.263292 0.019831
0.960157 0.262155 0.018836
0.006718 0.345755 0.031676
0.065806 0.344415 0.030516
0.125179 0.343124 0.029399
0.185325 0.341861 0.028307
0.246208 0.340616 0.027232
0.307665 0.339386 0.026169
0.369489 0.338167 0.025118
0.431453 0.336958 0.024075
0.493323 0.335758 0.023040
0.554858 0.334564 0.022013
0.615819 0.333378 0.020991
0.675966 0.332197 0.019976
0.735061 0.331022 0.018965
0.792868 0.329852 0.017960
0.849150 0.328686 0.016959
0.903675 0.327525 0.015963
0.956212 0.326367 0.014970
0.002880 0.411321 0.027755
0.061781 0.409968 0.026598
0.120998 0.408664 0.025486
0.181015 0.407388 0.024397
0.241793 0.406131 0.023325
0.303170 0.404888 0.022266
0.364937 0.403656 0.021218
0.426866 0.402434 0.020179
0.488721 0.401221 0.019148
0.550263 0.400015 0.018123
0.611253 0.398815 0.017105
0.671449 0.397621 0.016093
0.730614 0.396433 0.015086
0.788510 0.395250 0.014084
0.844901 0.394071 0.013087
0.899555 0.392896 0.012093
0.952240 0.391726 0.011104
0.000000 0.477553 0.023835
0.057755 0.476193 0.022682
0.116814 0.474884 0.021573
0.176700 0.473602 0.020488
0.237372 0.472338 0.019420
0.298667 0.471089 0.018364
0.360374 0.469851 0.017320
0.422266 0.468623 0.016284
0.484106 0.467403 0.015256
0.545655 0.466191 0.014235
0.606671 0.464984 0.013221
0.666915 0.463784 0.012212
0.726147 0.462589 0.011209
0.784131 0.461399 0.010210
0.840631 0.460213 0.009216
0.895413 0.459032 0.008226
0.948244 0.457854 0.007241
0.000000 0.544075 0.019918
0.053731 0.542717 0.018769
0.112630 0.541408 0.017664
0.172383 0.540127 0.016582
0.232947 0.538864 0.015518
0.294158 0.537615 0.014466
0.355804 0.536377 0.013425
0.417657 0.535150 0.012393
0.479480 0.533930 0.011368
0.541033 0.532717 0.010351
0.602074 0.531511 0.009340
0.662364 0.530311 0.008334
0.721663 0.529115 0.007334
0.779734 0.527925 0.006339
0.836340 0.526738 0.005349
0.891248 0.525556 0.004362
0.944227 0.524378 0.003380
0.000000 0.610512 0.016005
0.049710 0.609161 0.014860
0.108446 0.607861 0.013759
0.168064 0.606587 0.012681
0.228519 0.605332 0.011620
0.289643 0.604090 0.010572
0.351227 0.602860 0.009534
0.413039 0.601639 0.008505
0.474843 0.600426 0.007485
0.536399 0.599219 0.006471
0.597464 0.598020 0.005463
0.657799 0.596825 0.004462
0.717163 0.595636 0.003465
0.775319 0.594451 0.002473
0.832031 0.593271 0.001486
0.887064 0.592094 0.000504
0.940187 0.590922 0.000000
0.000000 0.676486 0.012098
0.045694 0.675152 0.010957
0.104265 0.673866 0.009859
0.163746 0.672607 0.008785
0.224089 0.671366 0.007728
0.285125 0.670138 0.006683
0.346644 0.668921 0.005649
0.408414 0.667714 0.004624
0.470198 0.666514 0.003607
0.531755 0.665321 0.002597
0.592843 0.664134 0.001593
0.653220 0.662953 0.000594
0.712648 0.661776 0.000000
0.770888 0.660604 0.000000
0.827704 0.659435 0.000000
0.882861 0.658271 0.000000
0.936128 0.657110 0.000000
0.000000 0.741621 0.008197
0.041682 0.740310 0.007060
0.100087 0.739046 0.005966
0.159429 0.737809 0.004895
0.219658 0.736589 0.003842
0.280605 0.735382 0.002801
0.342057 0.734186 0.001771
0.403783 0.732998 0.000749
0.465545 0.731818 0.000000
0.527101 0.730645 0.000000
0.588210 0.729477 0.000000
0.648629 0.728315 0.000000
0.708119 0.727157 0.000000
0.766441 0.726004 0.000000
0.823360 0.724854 0.000000
0.878640 0.723709 0.000000
0.932049 0.722566 0.000000
0.000000 0.805537 0.004303
0.037676 0.804256 0.003170
0.095912 0.803022 0.002079
0.155113 0.801813 0.001013
0.215227 0.800621 0.000000
0.276082 0.799442 0.000000
0.337466 0.798273 0.000000
0.399147 0.797113 0.000000
0.460885 0.795959 0.000000
0.522439 0.794812 0.000000
0.583567 0.793671 0.000000
0.644026 0.792534 0.000000
0.703577 0.791402 0.000000
0.761980 0.790274 0.000000
0.819000 0.789150 0.000000
0.874401 0.788029 0.000000
0.927952 0.786911 0.000000
0.000000 0.867854 0.000416
0.033676 0.866612 0.000000
0.091742 0.865414 0.000000
0.150800 0.864241 0.000000
0.210796 0.863084 0.000000
0.271559 0.861939 0.000000
0.332873 0.860804 0.000000
0.394506 0.859677 0.000000
0.456219 0.858557 0.000000
0.517769 0.857443 0.000000
0.578914 0.856334 0.000000
0.639412 0.855230 0.000000
0.699022 0.854130 0.000000
0.757505 0.853034 0.000000
0.814625 0.851941 0.000000
0.870146 0.850852 0.000000
0.923836 0.849765 0.000000
0.000000 0.928191 0.000000
0.029684 0.926994 0.000000
0.087577 0.925840 0.000000
0.146490 0.924709 0.000000
0.206367 0.923594 0.000000
0.267035 0.922491 0.000000
0.328277 0.921397 0.000000
0.389861 0.920310 0.000000
0.451547 0.919230 0.000000
0.513092 0.918156 0.000000
0.574253 0.917086 0.000000
0.634788 0.916021 0.000000
0.694455 0.914960 0.000000
0.753016 0.913902 0.000000
0.810235 0.912848 0.000000
0.865874 0.911796 0.000000
0.919702 0.910747 0.000000
0.000000 0.986163 0.000000
0.025699 0.985019 0.000000
0.083418 0.983917 0.000000
0.142185 0.982836 0.000000
0.201940 0.981769 0.000000
0.262511 0.980714 0.000000
0.323680 0.979668 0.000000
0.385213 0.978628 0.000000
0.446870 0.977595 0.000000
0.508408 0.976567 0.000000
0.569584 0.975544 0.000000
0.630154 0.974524 0.000000
0.689877 0.973508 0.000000
0.748515 0.972496 0.000000
0.805830 0.971486 0.000000
0.861587 0.970479 0.000000
0.915552 0.969474 0.000000
0.000000 1.000000 0.000000
0.023007 1.000000 0.000000
0.080606 1.000000 0.000000
0.139272 1.000000 0.000000
0.198945 1.000000 0.000000
0.259449 1.000000 0.000000
0.320567 1.000000 0.000000
0.382065 1.000000 0.000000
0.443702 1.000000 0.000000
0.505234 1.000000 0.000000
0.566419 1.000000 0.000000
0.627012 1.000000 0.000000
0.686772 1.000000 0.000000
0.745461 1.000000 0.000000
0.802841 1.000000 0.000000
0.858676 1.000000 0.000000
0.912733 1.000000 0.000000
0.025425 0.041142 0.111519
0.085396 0.039973 0.110292
0.145498 0.038848 0.109111
0.206243 0.037747 0.107955
0.267605 0.036664 0.106817
0.329427 0.035593 0.105693
0.391507 0.034533 0.104579
0.453620 0.033483 0.103475
0.515533 0.032440 0.102379
0.577010 0.031404 0.101291
0.637812 0.030375 0.100208
0.697701 0.029351 0.099132
0.756440 0.028333 0.098061
0.813794 0.027319 0.096995
0.869528 0.026310 0.095934
0.923409 0.025306 0.094877
0.975207 0.024306 0.093824
0.021646 0.097401 0.107501
0.081444 0.096185 0.106277
0.141403 0.095014 0.105099
0.202031 0.093869 0.103946
0.263300 0.092740 0.102811
0.325052 0.091626 0.101689
0.387083 0.090522 0.100578
0.449169 0.089428 0.099477
0.511076 0.088342 0.098384
0.572568 0.087263 0.097298
0.633405 0.086190 0.096218
0.693349 0.085123 0.095145
0.752162 0.084062 0.094076
0.809610 0.083006 0.093013
0.865456 0.081954 0.091955
0.919470 0.080907 0.090900
0.971419 0.079864 0.089850
0.017836 0.156431 0.103446
0.077456 0.155174 0.102225
0.137268 0.153963 0.101050
0.197776 0.152779 0.099900
0.258949 0.151612 0.098767
0.320629 0.150459 0.097648
0.382610 0.149317 0.096541
0.444667 0.148185 0.095442
0.506567 0.147061 0.094352
0.568072 0.145944 0.093268
0.628942 0.144834 0.092192
0.688940 0.143730 0.091121
0.747828 0.142631 0.090055
0.805368 0.141538 0.088995
0.861328 0.140449 0.087939
0.915473 0.139364 0.086887
0.967574 0.138284 0.085840
0.014011 0.217703 0.099371
0.073449 0.216411 0.098153
0.133113 0.215168 0.096981
0.193498 0.213950 0.095834
0.254573 0.212751 0.094705
0.316178 0.211566 0.093589
0.378107 0.210392 0.092483
0.440134 0.209228 0.091388
0.502025 0.208073 0.090300
0.563541 0.206924 0.089220
0.624444 0.205783 0.088146
0.684495 0.204647 0.087078
0.743455 0.203516 0.086015
0.801088 0.202391 0.084957
0.857160 0.201271 0.083904
0.911437 0.200154 0.082856
0.963688 0.199042 0.081811
0.010177 0.280794 0.095286
0.069433 0.279475 0.094071
0.128945 0.278204 0.092901
0.189206 0.276961 0.091757
0.250180 0.275735 0.090631
0.311708 0.274525 0.089518
0.373583 0.273325 0.088415
0.435578 0.272136 0.087323
0.497458 0.270954 0.086238
0.558985 0.269780 0.085160
0.619919 0.268613 0.084089
0.680021 0.267452 0.083024
0.739053 0.266296 0.081964
0.796778 0.265145 0.080909
0.852961 0.263999 0.079859
0.907369 0.262858 0.078813
0.959770 0.261720 0.077772
0.006341 0.345311 0.091193
0.065411 0.343971 0.089981
0.124769 0.342681 0.088815
0.184903 0.341417 0.087674
0.245775 0.340173 0.086551
0.307224 0.338943 0.085440
0.369043 0.337724 0.084341
0.431004 0.336515 0.083251
0.492872 0.335315 0.082170
0.554408 0.334121 0.081095
0.615372 0.332935 0.080027
0.675524 0.331754 0.078964
0.734626 0.330579 0.077907
0.792442 0.329409 0.076856
0.848735 0.328244 0.075808
0.903273 0.327082 0.074765
0.955823 0.325925 0.073727
0.002505 0.410873 0.087097
0.061387 0.409519 0.085889
0.120589 0.408216 0.084726
0.180593 0.406940 0.083588
0.241361 0.405683 0.082467
0.302730 0.404440 0.081360
0.364491 0.403208 0.080264
0.426416 0.401986 0.079177
0.488270 0.400773 0.078098
0.549814 0.399567 0.077026
0.610806 0.398367 0.075961
0.671007 0.397174 0.074902
0.730178 0.395986 0.073848
0.788083 0.394802 0.072799
0.844485 0.393624 0.071754
0.899151 0.392449 0.070714
0.951851 0.391279 0.069679
0.000000 0.477103 0.083000
0.057363 0.475743 0.081795
0.116406 0.474434 0.080635
0.176279 0.473151 0.079500
0.236941 0.471888 0.078383
0.298228 0.470639 0.077279
0.359929 0.469401 0.076186
0.421817 0.468173 0.075102
0.483656 0.466953 0.074026
0.545205 0.465740 0.072957
0.606223 0.464534 0.071895
0.666472 0.463334 0.070839
0.725711 0.462139 0.069788
0.783703 0.460949 0.068742
0.840213 0.459763 0.067700
0.895008 0.458582 0.066663
0.947854 0.457404 0.065630
0.000000 0.543625 0.078904
0.053340 0.542267 0.077702
0.112223 0.540958 0.076546
0.171963 0.539676 0.075414
0.232517 0.538414 0.074300
0.293719 0.537165 0.073199
0.355359 0.535927 0.072108
0.417208 0.534699 0.071028
0.479029 0.533480 0.069955
0.540582 0.532267 0.068889
0.601626 0.531061 0.067830
0.661921 0.529860 0.066777
0.721226 0.528665 0.065729
0.779305 0.527474 0.064686
0.835922 0.526288 0.063647
0.890842 0.525106 0.062613
0.943835 0.523927 0.061583
0.000000 0.610064 0.074810
0.049320 0.608714 0.073611
0.108041 0.607414 0.072458
0.167645 0.606140 0.071330
0.228089 0.604884 0.070218
0.289205 0.603642 0.069121
0.350782 0.602412 0.068034
0.412591 0.601191 0.066956
0.474393 0.599978 0.065886
0.535949 0.598772 0.064823
0.597016 0.597572 0.063767
0.657355 0.596377 0.062717
0.716725 0.595188 0.061672
0.774890 0.594003 0.060632
0.831612 0.592823 0.059597
0.886657 0.591646 0.058566
0.939794 0.590473 0.057539
0.000000 0.676044 0.070719
0.045305 0.674710 0.069524
0.103860 0.673424 0.068374
0.163328 0.672165 0.067249
0.223660 0.670923 0.066141
0.284688 0.669696 0.065046
0.346200 0.668479 0.063962
0.407966 0.667271 0.062887
0.469748 0.666071 0.061821
0.531305 0.664878 0.060761
0.592394 0.663691 0.059708
0.652776 0.662509 0.058661
0.712210 0.661333 0.057619
0.770458 0.660160 0.056582
0.827284 0.658992 0.055550
0.882453 0.657827 0.054522
0.935734 0.656666 0.053498
0.000000 0.741187 0.066632
0.041294 0.739875 0.065441
0.099683 0.738612 0.064294
0.159011 0.737374 0.063172
0.219229 0.736154 0.062067
0.280168 0.734947 0.060975
0.341613 0.733750 0.059895
0.403335 0.732563 0.058823
0.465095 0.731383 0.057760
0.526651 0.730209 0.056704
0.587761 0.729042 0.055654
0.648184 0.727879 0.054610
0.707680 0.726721 0.053571
0.766011 0.725568 0.052537
0.822939 0.724418 0.051508
0.878231 0.723272 0.050483
0.931654 0.722129 0.049462
0.000000 0.805113 0.062550
0.037289 0.803832 0.061362
0.095510 0.802598 0.060219
0.154697 0.801389 0.059100
0.214799 0.800196 0.057999
0.275646 0.799017 0.056910
0.337023 0.797848 0.055833
0.398699 0.796687 0.054765
0.460435 0.795534 0.053704
0.521989 0.794386 0.052651
0.583118 0.793245 0.051604
0.643581 0.792108 0.050563
0.703138 0.790976 0.049528
0.761549 0.789847 0.048497
0.818578 0.788723 0.047471
0.873991 0.787602 0.046450
0.927555 0.786484 0.045432
0.000000 0.867443 0.058474
0.033291 0.866200 0.057289
0.091341 0.865002 0.056149
0.150385 0.863829 0.055034
0.210370 0.862671 0.053936
0.271123 0.861526 0.052851
0.332430 0.860391 0.051777
0.394059 0.859264 0.050712
0.455769 0.858144 0.049655
0.517319 0.857029 0.048605
0.578466 0.855920 0.047561
0.638967 0.854816 0.046523
0.698582 0.853716 0.045491
0.757073 0.852619 0.044464
0.814202 0.851526 0.043441
0.869735 0.850437 0.042422
0.923438 0.849350 0.041408
0.000000 0.927795 0.054404
0.029300 0.926597 0.053223
0.087177 0.925443 0.052087
0.146076 0.924312 0.050975
0.205941 0.923197 0.049880
0.266599 0.922093 0.048798
0.327835 0.920998 0.047727
0.389414 0.919912 0.046665
0.451097 0.918831 0.045612
0.512642 0.917757 0.044565
0.573804 0.916687 0.043525
0.634342 0.915621 0.042490
0.694015 0.914560 0.041461
0.752584 0.913502 0.040437
0.809811 0.912447 0.039417
0.865462 0.911395 0.038402
0.919304 0.910346 0.037391
0.000000 0.985785 0.050341
0.025317 0.984640 0.049163
0.083019 0.983537 0.048030
0.141771 0.982456 0.046922
0.201515 0.981389 0.045830
0.262076 0.980334 0.044752
0.323238 0.979287 0.043685
0.384766 0.978247 0.042626
0.446420 0.977214 0.041576
0.507958 0.976185 0.040532
0.569134 0.975161 0.039495
0.629708 0.974142 0.038464
0.689437 0.973125 0.037438
0.748082 0.972112 0.036417
0.805406 0.971102 0.035401
0.861174 0.970095 0.034389
0.915152 0.969090 0.033381
0.000000 1.000000 0.047595
0.022625 1.000000 0.046420
0.080208 1.000000 0.045289
0.138859 1.000000 0.044183
0.198520 1.000000 0.043094
0.259015 1.000000 0.042018
0.320126 1.000000 0.040953
0.381618 1.000000 0.039896
0.443252 1.000000 0.038848
0.504784 1.000000 0.037807
0.565969 1.000000 0.036772
0.626565 1.000000 0.035743
0.686331 1.000000 0.034720
0.745027 1.000000 0.033701
0.802416 1.000000 0.032687
0.858262 1.000000 0.031677
0.912332 1.000000 0.030671
0.025036 0.040749 0.175143
0.084989 0.039580 0.173874
0.145077 0.038455 0.172653
0.205810 0.037355 0.171457
0.267162 0.036272 0.170280
0.328978 0.035201 0.169116
0.391052 0.034142 0.167964
0.453162 0.033091 0.166821
0.515075 0.032049 0.165687
0.576554 0.031014 0.164560
0.637359 0.029984 0.163439
0.697254 0.028961 0.162325
0.756001 0.027943 0.161215
0.813365 0.026930 0.160111
0.869110 0.025922 0.159012
0.923005 0.024917 0.157917
0.974818 0.023917 0.156826
0.021259 0.096992 0.170987
0.081038 0.095776 0.169721
0.140983 0.094605 0.168502
0.201599 0.093460 0.167309
0.262858 0.092332 0.166134
0.324602 0.091218 0.164972
0.386629 0.090114 0.163822
0.448712 0.089020 0.162682
0.510619 0.087935 0.161550
0.572112 0.086856 0.160425
0.632952 0.085783 0.159307
0.692901 0.084717 0.158194
0.751723 0.083656 0.157087
0.809180 0.082600 0.155986
0.865038 0.081549 0.154888
0.919064 0.080502 0.153796
0.971029 0.079459 0.152707
0.017450 0.156008 0.166791
0.077051 0.154751 0.165527
0.136849 0.153540 0.164310
0.197345 0.152356 0.163120
0.258508 0.151190 0.161947
0.320180 0.150037 0.160788
0.382156 0.148895 0.159640
0.444210 0.147764 0.158502
0.506109 0.146640 0.157373
0.567615 0.145523 0.156250
0.628489 0.144414 0.155134
0.688493 0.143310 0.154024
0.747387 0.142211 0.152919
0.804937 0.141118 0.151820
0.860908 0.140029 0.150725
0.915067 0.138944 0.149635
0.967183 0.137864 0.148548
0.013626 0.217268 0.162573
0.073046 0.215977 0.161311
0.132695 0.214733 0.160097
0.193068 0.213516 0.158909
0.254133 0.212317 0.157738
0.315730 0.211132 0.156582
0.377653 0.209959 0.155437
0.439677 0.208795 0.154301
0.501567 0.207639 0.153173
0.563085 0.206491 0.152053
0.623991 0.205350 0.150940
0.684047 0.204214 0.149832
0.743014 0.203084 0.148730
0.800657 0.201959 0.147633
0.856740 0.200839 0.146540
0.911030 0.199723 0.145452
0.963296 0.198611 0.144368
0.009794 0.280350 0.158340
0.069031 0.279031 0.157081
0.128528 0.277760 0.155870
0.188776 0.276517 0.154684
0.249740 0.275292 0.153516
0.311260 0.274081 0.152362
0.373130 0.272882 0.151219
0.435121 0.271693 0.150086
0.497000 0.270511 0.148961
0.558528 0.269338 0.147843
0.619465 0.268171 0.146732
0.679572 0.267010 0.145627
0.738611 0.265854 0.144527
0.796345 0.264703 0.143432
0.852540 0.263557 0.142342
0.906960 0.262416 0.141256
0.959377 0.261278 0.140175
0.005959 0.344860 0.154099
0.065010 0.343520 0.152843
0.124353 0.342230 0.151634
0.184474 0.340967 0.150451
0.245336 0.339722 0.149285
0.306777 0.338492 0.148134
0.368590 0.337274 0.146993
0.430548 0.336065 0.145862
0.492414 0.334864 0.144740
0.553951 0.333671 0.143625
0.614918 0.332485 0.142516
0.675075 0.331305 0.141413
0.734184 0.330130 0.140316
0.792008 0.328960 0.139223
0.848313 0.327794 0.138135
0.902863 0.326633 0.137052
0.955429 0.325476 0.135973
0.002125 0.410417 0.149852
0.060987 0.409064 0.148599
0.120174 0.407761 0.147392
0.180165 0.406485 0.146212
0.240923 0.405227 0.145049
0.302283 0.403984 0.143900
0.364038 0.402753 0.142762
0.425960 0.401531 0.141634
0.487813 0.400318 0.140514
0.549357 0.399112 0.139401
0.610351 0.397913 0.138294
0.670557 0.396719 0.137194
0.729735 0.395531 0.136099
0.787649 0.394348 0.135009
0.844062 0.393169 0.133924
0.898741 0.391995 0.132843
0.951455 0.390824 0.131766
0.000000 0.476645 0.145602
0.056964 0.475286 0.144351
0.115992 0.473976 0.143148
0.175852 0.472694 0.141969
0.236503 0.471430 0.140809
0.297781 0.470181 0.139663
0.359477 0.468943 0.138528
0.421361 0.467715 0.137402
0.483198 0.466496 0.136284
0.544747 0.465283 0.135174
0.605769 0.464077 0.134070
0.666022 0.462877 0.132972
0.725267 0.461682 0.131880
0.783269 0.460492 0.130792
0.839789 0.459306 0.129710
0.894596 0.458124 0.128631
0.947457 0.456947 0.127557
0.000000 0.543168 0.141350
0.052943 0.541809 0.140102
0.111810 0.540501 0.138901
0.171536 0.539219 0.137726
0.232079 0.537956 0.136568
0.293273 0.536707 0.135425
0.354907 0.535470 0.134292
0.416752 0.534242 0.133169
0.478572 0.533022 0.132054
0.540125 0.531810 0.130946
0.601172 0.530603 0.129845
0.661470 0.529403 0.128749
0.720782 0.528207 0.127659
0.778870 0.527017 0.126575
0.835497 0.525830 0.125494
0.890430 0.524648 0.124419
0.943437 0.523470 0.123347
0.000000 0.609610 0.137099
0.048924 0.608260 0.135854
0.107628 0.606959 0.134655
0.167220 0.605685 0.133483
0.227653 0.604429 0.132328
0.288760 0.603188 0.131186
0.350331 0.601957 0.130056
0.412135 0.600736 0.128936
0.473936 0.599523 0.127823
0.535491 0.598317 0.126718
0.596561 0.597117 0.125620
0.656904 0.595922 0.124527
0.716281 0.594733 0.123440
0.774454 0.593548 0.122357
0.831186 0.592367 0.121280
0.886244 0.591191 0.120207
0.939395 0.590018 0.119137
0.000000 0.675595 0.132848
0.044910 0.674260 0.131606
0.103449 0.672975 0.130410
0.162903 0.671715 0.129240
0.223224 0.670474 0.128088
0.284243 0.669246 0.126949
0.345749 0.668029 0.125822
0.407511 0.666821 0.124704
0.469291 0.665621 0.123594
0.530847 0.664428 0.122492
0.591939 0.663241 0.121396
0.652325 0.662059 0.120306
0.711765 0.660882 0.119221
0.770021 0.659710 0.118141
0.826857 0.658541 0.117066
0.882039 0.657376 0.115996
0.935333 0.656215 0.114929
0.000000 0.740745 0.128599
0.040901 0.739434 0.127360
0.099273 0.738170 0.126167
0.158587 0.736932 0.125000
0.218794 0.735712 0.123851
0.279724 0.734504 0.122715
0.341163 0.733308 0.121590
0.402880 0.732120 0.120475
0.464638 0.730940 0.119368
0.526194 0.729766 0.118268
0.587306 0.728599 0.117174
0.647733 0.727436 0.116087
0.707235 0.726278 0.115005
0.765573 0.725124 0.113928
0.822512 0.723974 0.112856
0.877815 0.722828 0.111788
0.931252 0.721685 0.110724
0.000000 0.804682 0.124353
0.036897 0.803401 0.123117
0.095101 0.802166 0.121927
0.154274 0.800957 0.120763
0.214365 0.799765 0.119616
0.275202 0.798585 0.118483
0.336573 0.797415 0.117361
0.398244 0.796255 0.116249
0.459978 0.795101 0.115144
0.521531 0.793953 0.114047
0.582662 0.792812 0.112956
0.643129 0.791675 0.111872
0.702691 0.790542 0.110792
0.761111 0.789414 0.109718
0.818150 0.788289 0.108648
0.873575 0.787168 0.107583
0.927152 0.786049 0.106522
0.000000 0.867025 0.120111
0.032900 0.865782 0.118878
0.090933 0.864584 0.117691
0.149963 0.863410 0.116529
0.209936 0.862252 0.115385
0.270680 0.861107 0.114255
0.331980 0.859971 0.113136
0.393604 0.858844 0.112026
0.455312 0.857723 0.110925
0.516861 0.856609 0.109830
0.578010 0.855500 0.108742
0.638514 0.854395 0.107660
0.698136 0.853294 0.106584
0.756634 0.852198 0.105512
0.813773 0.851105 0.104445
0.869317 0.850015 0.103383
0.923034 0.848927 0.102324
0.000000 0.927392 0.115873
0.028910 0.926194 0.114643
0.086770 0.925040 0.113459
0.145655 0.923908 0.112300
0.205508 0.922792 0.111159
0.266157 0.921688 0.110032
0.327385 0.920594 0.108915
0.388960 0.919507 0.107808
0.450640 0.918426 0.106709
0.512184 0.917351 0.105618
0.573348 0.916281 0.104533
0.633889 0.915215 0.103453
0.693568 0.914153 0.102380
0.752144 0.913095 0.101311
0.809381 0.912040 0.100247
0.865044 0.910988 0.099187
0.918899 0.909938 0.098131
0.000000 0.985400 0.111640
0.024928 0.984255 0.110413
0.082613 0.983151 0.109231
0.141351 0.982070 0.108076
0.201083 0.981003 0.106938
0.261635 0.979947 0.105813
0.322789 0.978900 0.104699
0.384312 0.977860 0.103595
0.445964 0.976826 0.102499
0.507500 0.975797 0.101411
0.568678 0.974773 0.100328
0.629255 0.973753 0.099252
0.688989 0.972736 0.098181
0.747641 0.971723 0.097115
0.804975 0.970712 0.096053
0.860754 0.969705 0.094996
0.914746 0.968699 0.093944
0.000000 1.000000 0.108777
0.022238 1.000000 0.107552
0.079803 1.000000 0.106373
0.138440 1.000000 0.105220
0.198089 1.000000 0.104083
0.258574 1.000000 0.102961
0.319677 1.000000 0.101849
0.381165 1.000000 0.100747
0.442796 1.000000 0.099653
0.504326 1.000000 0.098566
0.565513 1.000000 0.097486
0.626112 1.000000 0.096411
0.685883 1.000000 0.095342
0.744587 1.000000 0.094278
0.801985 1.000000 0.093219
0.857842 1.000000 0.092163
0.911925 1.000000 0.091113
0.024644 0.040351 0.241378
0.084579 0.039183 0.240075
0.144652 0.038058 0.238820
0.205373 0.036959 0.237592
0.266716 0.035876 0.236383
0.328524 0.034806 0.235187
0.390593 0.033746 0.234003
0.452701 0.032696 0.232829
0.514613 0.031654 0.231662
0.576093 0.030619 0.230504
0.636902 0.029590 0.229352
0.696803 0.028567 0.228205
0.755558 0.027550 0.227065
0.812931 0.026537 0.225929
0.868688 0.025529 0.224798
0.922596 0.024525 0.223672
0.974426 0.023525 0.222549
