assets/luts/aegean_teal.cube
# Эгейская бирюза — море и патина на бронзе
TITLE "aegean_teal"
LUT_3D_SIZE 5
DOMAIN_MIN 0.0 0.0 0.0
DOMAIN_MAX 1.0 1.0 1.0
0.025807 0.041530 0.051167
0.268040 0.037050 0.046653
0.515983 0.032825 0.042396
0.756872 0.028716 0.038256
0.975589 0.024688 0.034196
0.010555 0.281231 0.035596
0.250613 0.276172 0.031137
0.497908 0.271390 0.026932
0.739488 0.266731 0.022844
0.960157 0.262155 0.018836
0.000000 0.544075 0.019918
0.232947 0.538864 0.015518
0.479480 0.533930 0.011368
0.721663 0.529115 0.007334
0.944227 0.524378 0.003380
0.000000 0.805537 0.004303
0.215227 0.800621 0.000000
0.460885 0.795959 0.000000
0.703577 0.791402 0.000000
0.927952 0.786911 0.000000
0.000000 1.000000 0.000000
0.198945 1.000000 0.000000
0.443702 1.000000 0.000000
0.686772 1.000000 0.000000
0.912733 1.000000 0.000000
0.024248 0.039951 0.309690
0.266265 0.035477 0.304592
0.514147 0.031257 0.299773
0.755111 0.027153 0.295077
0.974030 0.023130 0.290462
0.009017 0.279449 0.292055
0.248848 0.274393 0.286980
0.496072 0.269613 0.282183
0.737716 0.264957 0.277510
0.958579 0.260383 0.272918
0.000000 0.542241 0.274159
0.231193 0.537029 0.269110
0.477644 0.532094 0.264339
0.719882 0.527279 0.259690
0.942628 0.522542 0.255123
0.000000 0.803808 0.256189
0.213484 0.798888 0.251168
0.459050 0.794223 0.246424
0.701786 0.789663 0.241802
0.926335 0.785168 0.237263
0.000000 1.000000 0.239661
0.197214 1.000000 0.234668
0.441869 1.000000 0.229951
0.684975 1.000000 0.225356
0.911099 1.000000 0.220844
0.022648 0.038330 0.593880
0.264441 0.033861 0.588690
0.512259 0.029647 0.583774
0.753298 0.025549 0.578976
0.972425 0.021531 0.574253
0.007437 0.277618 0.575884
0.247034 0.272564 0.570684
0.494184 0.267788 0.565760
0.735893 0.263134 0.560954
0.956953 0.258562 0.556224
0.000000 0.540354 0.557503
0.229390 0.535142 0.552296
0.475756 0.530207 0.547365
0.718049 0.525392 0.542554
0.940984 0.520654 0.537819
0.000000 0.802028 0.538925
0.211693 0.797105 0.533712
0.457164 0.792437 0.528777
0.699945 0.787873 0.523962
0.924671 0.783376 0.519223
0.000000 1.000000 0.521727
0.195435 1.000000 0.516512
0.439985 1.000000 0.511574
0.683126 1.000000 0.506757
0.909418 1.000000 0.502018
0.021027 0.036688 0.872412
0.262593 0.032226 0.867654
0.510345 0.028017 0.863138
0.751459 0.023925 0.858722
0.970796 0.019913 0.854367
0.005838 0.275763 0.855872
0.245197 0.270712 0.851071
0.492269 0.265938 0.846515
0.734044 0.261287 0.842061
0.955304 0.256718 0.837669
0.000000 0.538442 0.838858
0.227564 0.533229 0.834016
0.473842 0.528294 0.829422
0.716191 0.523478 0.824931
0.939314 0.518740 0.820503
0.000000 0.800223 0.821538
0.209879 0.795296 0.816657
0.455252 0.790624 0.812026
0.698077 0.786057 0.807500
0.922981 0.781557 0.803038
0.000000 1.000000 0.805397
0.193633 1.000000 0.800481
0.438075 1.000000 0.795819
0.681250 1.000000 0.791261
0.907712 1.000000 0.786770
0.019685 0.035328 1.000000
0.261061 0.030870 1.000000
0.508757 0.026666 1.000000
0.749933 0.022579 1.000000
0.969442 0.018571 1.000000
0.004514 0.274224 1.000000
0.243673 0.269175 1.000000
0.490681 0.264404 1.000000
0.732509 0.259755 1.000000
0.953933 0.255188 1.000000
0.000000 0.536855 1.000000
0.226050 0.531642 1.000000
0.472255 0.526707 1.000000
0.714648 0.521891 1.000000
0.937927 0.517152 1.000000
0.000000 0.798724 1.000000
0.208375 0.793795 1.000000
0.453666 0.789120 1.000000
0.696527 0.784550 1.000000
0.921579 0.780047 1.000000
0.000000 1.000000 1.000000
0.192139 1.000000 1.000000
0.436490 1.000000 1.000000
0.679694 1.000000 1.000000
0.906295 1.000000 1.000000
