assets/luts/archive_stone.cube
# Архивный камень — гравюры, литографии, каталоги
TITLE "archive_stone"
LUT_3D_SIZE 9
DOMAIN_MIN 0.0 0.0 0.0
DOMAIN_MAX 1.0 1.0 1.0
0.072788 0.074313 0.074395
0.118736 0.090391 0.090474
0.165710 0.106514 0.106598
0.213671 0.122731 0.122816
0.262491 0.139057 0.139144
0.312019 0.155499 0.155586
0.362094 0.172056 0.172144
0.412548 0.188725 0.188813
0.463215 0.205502 0.205591
0.127408 0.159600 0.129081
0.175094 0.176622 0.145798
0.223561 0.193636 0.162525
0.272778 0.210695 0.179315
0.322626 0.227817 0.196184
0.372955 0.245009 0.213138
0.423607 0.262271 0.230178
0.474417 0.279601 0.247301
0.525218 0.296995 0.264505
0.184238 0.249567 0.185966
0.233390 0.267303 0.203226
0.283078 0.284979 0.220461
0.333284 0.302653 0.237727
0.383890 0.320344 0.255043
0.434751 0.338060 0.272414
0.485712 0.355801 0.289842
0.536608 0.373567 0.307326
0.587276 0.391354 0.324861
0.242894 0.342924 0.244669
0.293237 0.361140 0.262373
0.343873 0.379248 0.280019
0.394794 0.397307 0.297667
0.445887 0.415338 0.315333
0.497010 0.433349 0.333027
0.548008 0.451342 0.350748
0.598720 0.469316 0.368496
0.648983 0.487269 0.386268
0.303023 0.438416 0.304835
0.354279 0.456878 0.322885
0.405589 0.475185 0.340846
0.456951 0.493397 0.358777
0.508257 0.511538 0.376698
0.559368 0.529615 0.394618
0.610132 0.547631 0.412536
0.660388 0.565585 0.430454
0.709974 0.583474 0.448367
0.364279 0.534795 0.366118
0.416169 0.553267 0.384416
0.467875 0.571539 0.402593
0.519403 0.589673 0.420711
0.570649 0.607692 0.438791
0.621475 0.625605 0.456839
0.671731 0.643413 0.474859
0.721258 0.661118 0.492849
0.769895 0.678716 0.510807
0.426320 0.630813 0.428174
0.478563 0.649059 0.446622
0.530388 0.667062 0.464918
0.581806 0.684886 0.483125
0.632716 0.702551 0.501265
0.682982 0.720068 0.519346
0.732456 0.737439 0.537370
0.780981 0.754664 0.555337
0.828397 0.771740 0.573245
0.488802 0.725222 0.490663
0.541118 0.743006 0.509160
0.592785 0.760506 0.527477
0.643816 0.777785 0.545676
0.694114 0.794865 0.563779
0.743546 0.811754 0.581796
0.791964 0.828456 0.599728
0.839212 0.844971 0.617575
0.885132 0.861296 0.635335
0.551384 0.816773 0.553243
0.603493 0.833856 0.571690
0.654722 0.850618 0.589929
0.705089 0.867119 0.608021
0.754499 0.883380 0.625991
0.802821 0.899411 0.643845
0.849907 0.915213 0.661588
0.895605 0.930786 0.679218
0.939755 0.946129 0.696734
0.078322 0.079853 0.110195
0.124461 0.096002 0.126706
0.171602 0.112191 0.143238
0.219705 0.128471 0.159843
0.268644 0.144859 0.176538
0.318267 0.161358 0.193329
0.368414 0.177968 0.210215
0.418918 0.194688 0.227194
0.469611 0.211514 0.244263
0.133167 0.165472 0.166252
0.181016 0.182549 0.183336
0.229621 0.199614 0.200408
0.278953 0.216722 0.217522
0.328891 0.233889 0.234695
0.379288 0.251123 0.251934
0.429984 0.268423 0.269240
0.480815 0.285789 0.286611
0.531615 0.303217 0.304043
0.190188 0.255691 0.224296
0.239475 0.273466 0.241858
0.289274 0.291178 0.259374
0.339565 0.308885 0.276901
0.390234 0.326606 0.294458
0.441135 0.344348 0.312051
0.492112 0.362114 0.329683
0.543002 0.379900 0.347351
0.593640 0.397705 0.365052
0.249002 0.349219 0.283942
0.299452 0.367460 0.301884
0.350170 0.385587 0.319748
0.401149 0.403664 0.337592
0.452276 0.421709 0.355436
0.503411 0.439732 0.373288
0.554397 0.457734 0.391150
0.605075 0.475713 0.409020
0.655281 0.493669 0.426895
0.309256 0.444802 0.344834
0.360589 0.463272 0.363058
0.411953 0.481583 0.381172
0.463344 0.499798 0.399236
0.514657 0.517938 0.417272
0.565752 0.536011 0.435287
0.616476 0.554020 0.453282
0.666670 0.571964 0.471258
0.716171 0.589842 0.489212
0.370602 0.541189 0.406626
0.422541 0.559654 0.425033
0.474272 0.577915 0.443299
0.525802 0.596036 0.461486
0.577025 0.614039 0.479616
0.627807 0.631932 0.497697
0.677995 0.649719 0.515731
0.727432 0.667398 0.533717
0.775957 0.684969 0.551653
0.432698 0.637134 0.468973
0.484962 0.655357 0.487464
0.536784 0.673334 0.505784
0.588175 0.691129 0.523997
0.639035 0.708763 0.542124
0.689229 0.726245 0.560174
0.738607 0.743579 0.578149
0.787014 0.760764 0.596049
0.834289 0.777798 0.613871
0.495202 0.731388 0.531532
0.547510 0.749133 0.550008
0.599145 0.766591 0.568285
0.650121 0.783826 0.586426
0.700341 0.800859 0.604453
0.749672 0.817699 0.622374
0.797966 0.834348 0.640194
0.845069 0.850808 0.657910
0.890820 0.867075 0.675522
0.557772 0.822702 0.593963
0.609844 0.839730 0.612324
0.661012 0.856435 0.630459
0.711295 0.872877 0.648429
0.760599 0.889076 0.666258
0.808792 0.905041 0.683955
0.855727 0.920775 0.701522
0.901251 0.936278 0.718958
0.945204 0.951548 0.736263
0.083880 0.085418 0.146923
0.130209 0.101636 0.163822
0.177514 0.117891 0.180721
0.225756 0.134234 0.197672
0.274810 0.150680 0.214693
0.324526 0.167235 0.231790
0.374742 0.183899 0.248964
0.425292 0.200670 0.266212
0.476008 0.217543 0.283531
0.138947 0.171363 0.204209
0.186957 0.188494 0.221618
0.235697 0.205610 0.238993
0.285141 0.222764 0.256389
0.335166 0.239976 0.273825
0.385627 0.257250 0.291308
0.436365 0.274589 0.308838
0.487215 0.291990 0.326415
0.538011 0.309450 0.344035
0.196156 0.261829 0.263269
0.245576 0.279643 0.281091
0.295481 0.297389 0.298846
0.345856 0.315128 0.316592
0.396584 0.332878 0.334349
0.447522 0.350646 0.352123
0.498512 0.368434 0.369916
0.549393 0.386240 0.387727
0.600000 0.404063 0.405553
0.255125 0.355524 0.323716
0.305678 0.373786 0.341853
0.356475 0.391933 0.359892
0.407509 0.410026 0.377891
0.458668 0.428085 0.395872
0.509811 0.446118 0.413841
0.560783 0.464127 0.431802
0.611424 0.482112 0.449752
0.661570 0.500070 0.467689
0.315500 0.451191 0.385192
0.366908 0.469668 0.403546
0.418321 0.487983 0.421771
0.469740 0.506198 0.439927
0.521056 0.524336 0.458035
0.572131 0.542405 0.476104
0.622813 0.560406 0.494135
0.672942 0.578340 0.512129
0.722356 0.596204 0.530082
0.376933 0.547581 0.447349
0.428917 0.566037 0.465822
0.480671 0.584287 0.484134
0.532199 0.602393 0.502350
0.583398 0.620379 0.520489
0.634132 0.638252 0.538560
0.684250 0.656016 0.556566
0.733594 0.673670 0.574507
0.782003 0.691212 0.592379
0.439081 0.643448 0.509842
0.491362 0.661646 0.528334
0.543178 0.679596 0.546638
0.594539 0.697361 0.564814
0.645346 0.714962 0.582887
0.695464 0.732409 0.600864
0.744744 0.749705 0.618749
0.793030 0.766849 0.636540
0.840162 0.783839 0.654235
0.501603 0.737541 0.572329
0.553900 0.755246 0.590742
0.605499 0.772662 0.608936
0.656417 0.789851 0.626977
0.706556 0.806836 0.644886
0.755783 0.823625 0.662672
0.803951 0.840221 0.680337
0.850905 0.856624 0.697882
0.896485 0.872833 0.715304
0.564156 0.828612 0.634467
0.616188 0.845585 0.652700
0.667293 0.862232 0.670688
0.717490 0.878612 0.688495
0.766684 0.894748 0.706143
0.814745 0.910647 0.723640
0.861526 0.926312 0.740989
0.906873 0.941744 0.758191
0.950628 0.956940 0.775243
0.089463 0.091007 0.184485
0.135978 0.107294 0.201731
0.183443 0.123613 0.218954
0.231822 0.140018 0.236210
0.280989 0.156522 0.253515
0.330794 0.173133 0.270877
0.381076 0.189849 0.288296
0.431670 0.206668 0.305772
0.482407 0.223588 0.323300
0.144747 0.177274 0.242858
0.192916 0.194458 0.260549
0.241788 0.211622 0.278185
0.291340 0.228823 0.295822
0.341451 0.246077 0.313479
0.391974 0.263392 0.331164
0.442749 0.280768 0.348878
0.493615 0.298203 0.366620
0.544404 0.315694 0.384386
0.202142 0.267981 0.302792
0.251691 0.285831 0.320832
0.301701 0.303612 0.338784
0.352156 0.321381 0.356707
0.402941 0.339159 0.374621
0.453912 0.356952 0.392534
0.504913 0.374762 0.410448
0.555782 0.392587 0.428361
0.606353 0.410425 0.446271
0.261262 0.361836 0.363896
0.311915 0.380120 0.382187
0.362789 0.398286 0.400359
0.413875 0.416394 0.418472
0.465062 0.434465 0.436547
0.516211 0.452508 0.454592
0.567166 0.470523 0.472610
0.617767 0.488512 0.490599
0.667850 0.506470 0.508558
0.321754 0.457582 0.425813
0.373234 0.476065 0.444256
0.424695 0.494383 0.462549
0.476137 0.512599 0.480755
0.527454 0.530734 0.498895
0.578507 0.548796 0.516976
0.629144 0.566789 0.535002
0.679205 0.584712 0.552972
0.728528 0.602562 0.570883
0.383270 0.553970 0.488192
0.435298 0.572417 0.506689
0.487070 0.590654 0.525006
0.538594 0.608745 0.543208
0.589765 0.626712 0.561314
0.640449 0.644564 0.579335
0.690494 0.662304 0.597273
0.739742 0.679931 0.615126
0.788033 0.697444 0.632894
0.445467 0.649753 0.550689
0.497763 0.667926 0.569140
0.549569 0.685848 0.587384
0.600898 0.703582 0.605483
0.651649 0.721149 0.623460
0.701688 0.738560 0.641323
0.750867 0.755816 0.659075
0.799030 0.772918 0.676716
0.846015 0.789864 0.694244
0.508003 0.743681 0.612960
0.560286 0.761344 0.631266
0.611848 0.778716 0.649338
0.662705 0.795859 0.667237
0.712760 0.812795 0.684986
0.761880 0.829532 0.702594
0.809919 0.846074 0.720064
0.856721 0.862420 0.737396
0.902127 0.878568 0.754588
0.570537 0.834504 0.674662
0.622526 0.851420 0.692724
0.673564 0.868007 0.710525
0.723672 0.884326 0.728126
0.772755 0.900397 0.745550
0.820681 0.916229 0.762806
0.867304 0.931825 0.779897
0.912471 0.947184 0.796823
0.956024 0.962304 0.813581
0.095069 0.096621 0.222787
0.141768 0.112974 0.240338
0.189391 0.129358 0.257844
0.237904 0.145822 0.275362
0.287181 0.162384 0.292910
0.337072 0.179049 0.310495
0.387418 0.195816 0.328119
0.438052 0.212684 0.345781
0.488807 0.229648 0.363476
0.150569 0.183203 0.282105
0.198892 0.200438 0.300037
0.247894 0.217651 0.317891
0.297552 0.234897 0.335727
0.347744 0.252193 0.353564
0.398326 0.269547 0.371410
0.449137 0.286959 0.389266
0.500016 0.304427 0.407131
0.550794 0.321949 0.425002
0.208145 0.274146 0.342771
0.257820 0.292032 0.360986
0.307931 0.309846 0.379093
0.358463 0.327645 0.397152
0.409303 0.345449 0.415183
0.460305 0.363266 0.433193
0.511313 0.381096 0.451186
0.562167 0.398940 0.469160
0.612701 0.416793 0.487113
0.267413 0.368156 0.404390
0.318164 0.386460 0.422792
0.369110 0.404643 0.441054
0.420245 0.422766 0.459239
0.471459 0.440849 0.477367
0.522610 0.458900 0.495447
0.573545 0.476921 0.513481
0.624103 0.494912 0.531469
0.674121 0.512870 0.549407
0.328018 0.463976 0.466604
0.379567 0.482464 0.485093
0.431073 0.500784 0.503414
0.482536 0.518998 0.521628
0.533851 0.537129 0.539757
0.584878 0.555185 0.557809
0.635467 0.573168 0.575788
0.685457 0.591078 0.593693
0.734688 0.608913 0.611521
0.389613 0.560357 0.529062
0.441682 0.578792 0.547541
0.493470 0.597016 0.565821
0.544987 0.615090 0.583967
0.596128 0.633038 0.601999
0.646758 0.650868 0.619928
0.696727 0.668583 0.637755
0.745877 0.686182 0.655481
0.794047 0.703665 0.673103
0.451856 0.656050 0.591419
0.504163 0.674197 0.609787
0.555957 0.692089 0.627929
0.607250 0.709791 0.645909
0.657943 0.727324 0.663748
0.707901 0.744697 0.681456
0.756976 0.761913 0.699035
0.805012 0.778972 0.716485
0.851848 0.795872 0.733804
0.514403 0.749806 0.653331
0.566669 0.767428 0.671489
0.618190 0.784755 0.689395
0.668983 0.801851 0.707111
0.718951 0.818736 0.724659
0.767963 0.835421 0.742048
0.815869 0.851907 0.759282
0.862517 0.868195 0.776359
0.907746 0.884282 0.793279
0.576914 0.840376 0.714454
0.628856 0.857234 0.732303
0.679826 0.873761 0.749873
0.729842 0.890017 0.767227
0.778809 0.906023 0.784386
0.826597 0.921787 0.801360
0.873061 0.937312 0.818151
0.918046 0.952597 0.834760
0.961393 0.967642 0.851183
0.100700 0.102258 0.261737
0.147579 0.118677 0.279550
0.195357 0.135123 0.297296
0.244000 0.151647 0.315034
0.293384 0.168266 0.332784
0.343360 0.184983 0.350551
0.393766 0.201801 0.368339
0.444437 0.218716 0.386145
0.495207 0.235724 0.403967
0.156410 0.189150 0.321858
0.204885 0.206436 0.339987
0.254015 0.223696 0.358018
0.303775 0.240986 0.376012
0.354046 0.258324 0.393987
0.404684 0.275715 0.411952
0.455528 0.293162 0.429908
0.506416 0.310662 0.447856
0.557182 0.328213 0.465791
0.214164 0.280323 0.383112
0.263962 0.298245 0.401461
0.314172 0.316090 0.419681
0.364779 0.333918 0.437833
0.415670 0.351748 0.455938
0.466699 0.369587 0.474005
0.517713 0.387438 0.492036
0.568549 0.405298 0.510030
0.619042 0.423166 0.527983
0.273576 0.374483 0.445103
0.324422 0.392807 0.463574
0.375439 0.411007 0.481885
0.426620 0.429142 0.500100
0.477857 0.447235 0.518240
0.529008 0.465294 0.536313
0.579919 0.483320 0.554321
0.630432 0.501313 0.572265
0.680382 0.519270 0.590142
0.334292 0.470372 0.507472
0.385907 0.488864 0.525965
0.437454 0.507184 0.544270
0.488936 0.525397 0.562451
0.540245 0.543523 0.580528
0.591245 0.561571 0.598510
0.641782 0.579543 0.616401
0.691699 0.597440 0.634199
0.740833 0.615258 0.651903
0.395963 0.566740 0.569866
0.448069 0.585163 0.588284
0.499871 0.603372 0.606485
0.551377 0.621429 0.624533
0.602485 0.639357 0.642450
0.653059 0.657163 0.660245
0.702949 0.674852 0.677921
0.751997 0.692423 0.695477
0.800043 0.709874 0.712912
0.458248 0.662338 0.631940
0.510564 0.680457 0.650182
0.562343 0.698320 0.668181
0.613597 0.715989 0.685999
0.664228 0.733486 0.703659
0.714102 0.750820 0.721170
0.763070 0.767995 0.738534
0.810977 0.785010 0.755752
0.857661 0.801863 0.772821
0.520803 0.755918 0.693349
0.573048 0.773496 0.711317
0.624526 0.790778 0.729014
0.675252 0.807825 0.746505
0.725131 0.824659 0.763810
0.774029 0.841290 0.780939
0.821801 0.857720 0.797895
0.868291 0.873948 0.814677
0.913341 0.889974 0.831284
0.583286 0.846228 0.753749
0.635180 0.863028 0.771343
0.686077 0.879494 0.788641
0.735998 0.895686 0.805706
0.784848 0.911625 0.822558
0.832496 0.927320 0.839208
0.878796 0.942773 0.855658
0.923595 0.957984 0.871908
0.966735 0.972951 0.887955
0.106353 0.107918 0.301240
0.153410 0.124403 0.319272
0.201340 0.140910 0.337217
0.250111 0.157493 0.355134
0.299600 0.174166 0.373043
0.349656 0.190936 0.390952
0.400120 0.207802 0.408861
0.450826 0.224764 0.426771
0.501608 0.241816 0.444679
0.162272 0.195115 0.362021
0.210896 0.212451 0.380306
0.260149 0.229757 0.398472
0.310009 0.247090 0.416581
0.360357 0.264468 0.434653
0.411047 0.281896 0.452695
0.461921 0.299377 0.470711
0.512816 0.316908 0.488700
0.563567 0.334487 0.506658
0.220200 0.286513 0.423721
0.270119 0.304469 0.442161
0.320424 0.322345 0.460452
0.371103 0.340201 0.478656
0.422041 0.358055 0.496795
0.473096 0.375916 0.514877
0.524112 0.393786 0.532904
0.574927 0.411662 0.550876
0.625377 0.429543 0.568790
0.279753 0.380818 0.485942
0.330690 0.399160 0.504439
0.381774 0.417375 0.522758
0.432999 0.435523 0.540961
0.484256 0.453625 0.559070
0.535404 0.471690 0.577095
0.586290 0.489720 0.595037
0.636754 0.507713 0.612897
0.686632 0.525668 0.630671
0.340575 0.476769 0.548322
0.392253 0.495264 0.566777
0.443840 0.513584 0.585025
0.495336 0.531794 0.603130
0.546638 0.549914 0.621114
0.597606 0.567953 0.638984
0.648090 0.585914 0.656745
0.697930 0.603796 0.674396
0.746966 0.621597 0.691935
0.402319 0.573119 0.610510
0.454459 0.591530 0.628824
0.506272 0.609722 0.646904
0.557765 0.627761 0.664813
0.608837 0.645667 0.682573
0.659351 0.663450 0.700193
0.709159 0.681112 0.717676
0.758103 0.698653 0.735022
0.806022 0.716071 0.752228
0.464642 0.668617 0.672157
0.516963 0.686708 0.690231
0.568724 0.704539 0.708045
0.619938 0.722174 0.725660
0.670505 0.739634 0.743099
0.720291 0.756929 0.760371
0.769150 0.774062 0.777480
0.816924 0.791032 0.794424
0.863453 0.807837 0.811202
0.527201 0.762015 0.732920
0.579423 0.779548 0.750655
0.630854 0.796783 0.768103
0.681511 0.813781 0.785326
0.731297 0.830564 0.802347
0.780081 0.847140 0.819175
0.827715 0.863512 0.835811
0.874044 0.879680 0.852257
0.918911 0.895643 0.868509
0.589654 0.852061 0.792454
0.641496 0.868800 0.809750
0.692318 0.885204 0.826734
0.742141 0.901331 0.843468
0.790870 0.917203 0.859972
0.838374 0.932827 0.876257
0.884509 0.948208 0.892324
0.929120 0.963343 0.908174
0.972049 0.978232 0.923805
0.112030 0.113601 0.341203
0.159261 0.130150 0.359412
0.207341 0.146718 0.377514
0.256237 0.163358 0.395568
0.305826 0.180085 0.413595
0.355960 0.196906 0.431603
0.406479 0.213821 0.449593
0.457217 0.230827 0.467566
0.508008 0.247922 0.485517
0.168153 0.201098 0.402503
0.216923 0.218482 0.420900
0.266297 0.235834 0.439159
0.316254 0.253209 0.457342
0.366675 0.270625 0.475468
0.417415 0.288089 0.493548
0.468316 0.305603 0.511582
0.519216 0.323165 0.529570
0.569948 0.340771 0.547510
0.226252 0.292716 0.464506
0.276288 0.310705 0.482994
0.326686 0.328611 0.501314
0.377434 0.346493 0.519529
0.428417 0.364371 0.537659
0.479494 0.382253 0.555714
0.530509 0.400140 0.573697
0.581301 0.418031 0.591606
0.631704 0.435923 0.609439
0.285942 0.387159 0.526814
0.336968 0.405519 0.545294
0.388116 0.423748 0.563578
0.439382 0.441907 0.581727
0.490656 0.460018 0.599765
0.541798 0.478088 0.617700
0.592655 0.496120 0.635535
0.643068 0.514114 0.653268
0.692872 0.532065 0.670899
0.346867 0.483168 0.589062
0.398606 0.501665 0.607436
0.450228 0.519984 0.625585
0.501737 0.538189 0.643573
0.553028 0.556302 0.661421
0.603962 0.574331 0.679139
0.654389 0.592279 0.696729
0.704150 0.610146 0.714191
0.753084 0.627929 0.731524
0.408680 0.579494 0.650899
0.460852 0.597891 0.669068
0.512672 0.616067 0.686984
0.564149 0.634086 0.704712
0.615182 0.651970 0.722274
0.665635 0.669727 0.739677
0.715358 0.687361 0.756927
0.764195 0.704872 0.774021
0.811984 0.722256 0.790958
0.471038 0.674886 0.711977
0.523362 0.692947 0.729841
0.575102 0.710746 0.747426
0.626271 0.728346 0.764797
0.676771 0.745769 0.781974
0.726468 0.763024 0.798967
0.775213 0.780113 0.815778
0.822852 0.797037 0.832407
0.869224 0.813794 0.848853
0.533597 0.768096 0.771951
0.585794 0.785585 0.789410
0.637175 0.802772 0.806566
0.687760 0.819720 0.823481
0.737450 0.836449 0.840176
0.786116 0.852969 0.856660
0.833609 0.869283 0.872936
0.879776 0.885390 0.889004
0.924457 0.901288 0.904861
0.596017 0.857873 0.830475
0.647804 0.874552 0.847430
0.698548 0.890892 0.864058
0.748270 0.906953 0.880419
0.796875 0.922756 0.896535
0.844234 0.938310 0.912413
0.890200 0.953616 0.928056
0.934620 0.968675 0.943465
0.977335 0.983485 0.958637
0.117481 0.119058 0.379773
0.164877 0.135667 0.398112
0.213096 0.152293 0.416324
0.262109 0.168986 0.434470
0.311793 0.185765 0.452571
0.361999 0.202634 0.470635
0.412567 0.219593 0.488664
0.463333 0.236642 0.506658
0.514130 0.253776 0.524613
0.173796 0.206836 0.441436
0.222703 0.224266 0.459902
0.272190 0.241660 0.478210
0.322237 0.259074 0.496424
0.372726 0.276527 0.514565
0.423511 0.294025 0.532640
0.474435 0.311569 0.550653
0.525336 0.329159 0.568602
0.576048 0.346790 0.586486
0.232055 0.298660 0.503596
0.282201 0.316679 0.522091
0.332685 0.334612 0.540400
0.383496 0.352519 0.558585
0.434520 0.370419 0.576668
0.485615 0.388319 0.594659
0.536627 0.406223 0.612560
0.587393 0.424127 0.630370
0.637750 0.442030 0.648088
0.291873 0.393230 0.565853
0.342982 0.411606 0.584278
0.394189 0.429848 0.602489
0.445490 0.448017 0.620549
0.496778 0.466135 0.638479
0.547912 0.484209 0.656289
0.598739 0.502243 0.673982
0.649100 0.520235 0.691557
0.698831 0.538183 0.709012
0.352894 0.489290 0.627842
0.404687 0.507787 0.646099
0.456341 0.526104 0.664114
0.507859 0.544304 0.681950
0.559137 0.562410 0.699630
0.610036 0.580429 0.717163
0.660406 0.598364 0.734551
0.710089 0.616214 0.751794
0.758922 0.633979 0.768890
0.414770 0.585588 0.689210
0.466969 0.603970 0.707199
0.518793 0.622129 0.724920
0.570253 0.640129 0.742436
0.621245 0.657990 0.759769
0.671636 0.675723 0.776927
0.721276 0.693329 0.793913
0.770008 0.710809 0.810728
0.817670 0.728160 0.827369
0.477158 0.680874 0.749609
0.529482 0.698906 0.767231
0.581199 0.716673 0.784560
0.632323 0.734239 0.801658
0.682756 0.751624 0.818545
0.732364 0.768839 0.835231
0.780999 0.785886 0.851719
0.828506 0.802765 0.868009
0.874725 0.819474 0.884098
0.539714 0.773900 0.808693
0.591883 0.791344 0.825849
0.643215 0.808484 0.842687
0.693727 0.825383 0.859268
0.743323 0.842060 0.875612
0.791873 0.858526 0.891729
0.839229 0.874783 0.907621
0.885237 0.890830 0.923289
0.929738 0.906666 0.938730
0.602098 0.863413 0.866117
0.653830 0.880032 0.882707
0.704497 0.896311 0.898955
0.754120 0.912309 0.914921
0.802604 0.928045 0.930625
0.849820 0.943529 0.946075
0.895622 0.958764 0.961274
0.939856 0.973749 0.976223
0.982365 0.988482 0.990918
