assets/luts/archive_cyanotype.cube
# Архивная цианотипия — синий отпечаток обмеров и планов
TITLE "archive_cyanotype"
LUT_3D_SIZE 17
DOMAIN_MIN 0.0 0.0 0.0
DOMAIN_MAX 1.0 1.0 1.0
0.051181 0.057592 0.074749
0.079595 0.063421 0.080692
0.107890 0.069089 0.086468
0.136322 0.074672 0.092155
0.164968 0.080201 0.097785
0.193847 0.085693 0.103375
0.222951 0.091159 0.108937
0.252262 0.096608 0.114479
0.281753 0.102043 0.120006
0.311394 0.107471 0.125522
0.341153 0.112892 0.131031
0.370993 0.118310 0.136534
0.400881 0.123727 0.142035
0.430779 0.129143 0.147533
0.460653 0.134561 0.153031
0.490464 0.139981 0.158530
0.520176 0.145404 0.164030
0.070590 0.100030 0.094674
0.099621 0.106127 0.100739
0.128466 0.112050 0.106633
0.157394 0.117878 0.112432
0.186487 0.123645 0.118171
0.215767 0.129368 0.123867
0.245229 0.135060 0.129532
0.274856 0.140728 0.135175
0.304623 0.146378 0.140800
0.334500 0.152015 0.146412
0.364456 0.157641 0.152015
0.394456 0.163260 0.157610
0.424466 0.168873 0.163200
0.454451 0.174481 0.168786
0.484375 0.180087 0.174370
0.514201 0.185691 0.179953
0.543893 0.191294 0.185535
0.090334 0.144074 0.114904
0.119945 0.150407 0.121085
0.149307 0.156554 0.127088
0.178699 0.162598 0.132993
0.208207 0.168572 0.138834
0.237856 0.174497 0.144630
0.267645 0.180385 0.150392
0.297557 0.186245 0.156128
0.327569 0.192081 0.161845
0.357652 0.197899 0.167547
0.387776 0.203703 0.173237
0.417908 0.209494 0.178918
0.448012 0.215275 0.184591
0.478055 0.221049 0.190259
0.508000 0.226815 0.195923
0.537813 0.232576 0.201583
0.567458 0.238332 0.207242
0.110415 0.189555 0.135444
0.140573 0.196093 0.141733
0.170420 0.202434 0.147840
0.200243 0.208663 0.153844
0.230135 0.214817 0.159780
0.260123 0.220916 0.165669
0.290208 0.226972 0.171521
0.320376 0.232994 0.177346
0.350604 0.238989 0.183148
0.380864 0.244961 0.188934
0.411128 0.250914 0.194705
0.441361 0.256851 0.200465
0.471531 0.262774 0.206216
0.501604 0.268684 0.211959
0.531544 0.274584 0.217697
0.561316 0.280475 0.223429
0.590885 0.286358 0.229158
0.130824 0.236281 0.156284
0.161497 0.242993 0.162676
0.191796 0.249498 0.168879
0.222019 0.255884 0.174975
0.252264 0.262189 0.181001
0.282561 0.268433 0.186976
0.312913 0.274629 0.192913
0.343307 0.280787 0.198819
0.373722 0.286912 0.204701
0.404131 0.293011 0.210564
0.434505 0.299087 0.216411
0.464812 0.305142 0.222244
0.495020 0.311180 0.228067
0.525095 0.317201 0.233880
0.555001 0.323209 0.239685
0.584706 0.329203 0.245484
0.614172 0.335186 0.251277
0.151548 0.284052 0.177412
0.182702 0.290908 0.183898
0.213422 0.297548 0.190191
0.244014 0.304063 0.196374
0.274582 0.310490 0.202483
0.305159 0.316851 0.208539
0.335748 0.323159 0.214553
0.366339 0.329425 0.220535
0.396912 0.335655 0.226491
0.427441 0.341853 0.232425
0.457897 0.348024 0.238341
0.488251 0.354172 0.244242
0.518468 0.360297 0.250130
0.548517 0.366404 0.256007
0.578363 0.372492 0.261874
0.607972 0.378564 0.267733
0.637309 0.384620 0.273585
0.172569 0.332667 0.198809
0.204172 0.339636 0.205384
0.235281 0.346382 0.211761
0.266213 0.352996 0.218024
0.297074 0.359517 0.224210
0.327900 0.365968 0.230340
0.358697 0.372362 0.236426
0.389457 0.378708 0.242478
0.420159 0.385015 0.248501
0.450779 0.391286 0.254500
0.481290 0.397526 0.260480
0.511662 0.403739 0.266443
0.541862 0.409927 0.272391
0.571858 0.416091 0.278326
0.601616 0.422234 0.284249
0.631102 0.428358 0.290163
0.660283 0.434462 0.296068
0.193869 0.381922 0.220459
0.225889 0.388974 0.227116
0.257357 0.395797 0.233570
0.288597 0.402482 0.239907
0.319721 0.409070 0.246164
0.350768 0.415582 0.252362
0.381744 0.422033 0.258514
0.412643 0.428434 0.264629
0.443446 0.434790 0.270714
0.474130 0.441108 0.276773
0.504668 0.447391 0.282811
0.535030 0.453642 0.288829
0.565184 0.459866 0.294831
0.595100 0.466062 0.300819
0.624743 0.472234 0.306793
0.654080 0.478383 0.312755
0.683077 0.484510 0.318707
0.215429 0.431612 0.242343
0.247835 0.438718 0.249075
0.279630 0.445589 0.255600
0.311149 0.452317 0.262004
0.342507 0.458943 0.268326
0.373744 0.465489 0.274586
0.404871 0.471971 0.280798
0.435881 0.478398 0.286971
0.466757 0.484778 0.293112
0.497477 0.491115 0.299225
0.528013 0.497414 0.305314
0.558337 0.503679 0.311383
0.588419 0.509911 0.317433
0.618227 0.516114 0.323467
0.647727 0.522289 0.329486
0.676888 0.528438 0.335492
0.705675 0.534562 0.341486
0.237231 0.481534 0.264442
0.269990 0.488664 0.271243
0.302082 0.495553 0.277832
0.333850 0.502296 0.284297
0.365411 0.508933 0.290678
0.396811 0.515487 0.296994
0.428060 0.521972 0.303260
0.459152 0.528399 0.309485
0.490073 0.534775 0.315676
0.520800 0.541105 0.321837
0.551307 0.547394 0.327972
0.581566 0.553645 0.334085
0.611548 0.559862 0.340178
0.641221 0.566045 0.346253
0.670552 0.572197 0.352311
0.699509 0.578320 0.358355
0.728059 0.584415 0.364384
0.259255 0.531484 0.286736
0.292335 0.538608 0.293599
0.324693 0.545488 0.300246
0.356680 0.552217 0.306767
0.388416 0.558837 0.313200
0.419949 0.565370 0.319566
0.451291 0.571832 0.325880
0.482437 0.578232 0.332151
0.513374 0.584578 0.338386
0.544081 0.590875 0.344589
0.574531 0.597128 0.350765
0.604699 0.603340 0.356917
0.634553 0.609513 0.363047
0.664064 0.615651 0.369157
0.693199 0.621755 0.375249
0.721926 0.627826 0.381324
0.750212 0.633867 0.387384
0.281480 0.581259 0.309206
0.314850 0.588347 0.316124
0.347444 0.595188 0.322823
0.379620 0.601876 0.329393
0.411501 0.608451 0.335872
0.443138 0.614937 0.342283
0.474545 0.621348 0.348639
0.505718 0.627695 0.354950
0.536643 0.633984 0.361223
0.567301 0.640222 0.367463
0.597668 0.646412 0.373673
0.627715 0.652558 0.379858
0.657415 0.658664 0.386019
0.686737 0.664730 0.392159
0.715648 0.670760 0.398279
0.744119 0.676754 0.404381
0.772115 0.682715 0.410465
0.303887 0.630655 0.331831
0.337515 0.637678 0.338798
0.370315 0.644452 0.345543
0.402650 0.651071 0.352155
0.434648 0.657574 0.358675
0.466360 0.663985 0.365124
0.497803 0.670319 0.371517
0.528974 0.676585 0.377862
0.559860 0.682791 0.384168
0.590442 0.688943 0.390438
0.620697 0.695045 0.396678
0.650597 0.701100 0.402889
0.680115 0.707111 0.409076
0.709221 0.713080 0.415240
0.737882 0.719010 0.421382
0.766069 0.724902 0.427505
0.793748 0.730758 0.433609
0.326456 0.679470 0.354592
0.360311 0.686398 0.361602
0.393286 0.693077 0.368386
0.425751 0.699598 0.375035
0.457836 0.706001 0.381589
0.489595 0.712311 0.388071
0.521045 0.718540 0.394494
0.552186 0.724700 0.400868
0.583005 0.730796 0.407200
0.613484 0.736836 0.413495
0.643599 0.742823 0.419758
0.673325 0.748761 0.425991
0.702634 0.754652 0.432198
0.731497 0.760499 0.438380
0.759881 0.766304 0.444539
0.787758 0.772068 0.450677
0.815093 0.777793 0.456795
0.349166 0.727500 0.377468
0.383217 0.734305 0.384515
0.416338 0.740859 0.391332
0.448902 0.747255 0.398012
0.481046 0.753532 0.404594
0.512823 0.759713 0.411102
0.544253 0.765811 0.417550
0.575335 0.771837 0.423946
0.606059 0.777798 0.430299
0.636406 0.783700 0.436614
0.666355 0.789546 0.442894
0.695880 0.795340 0.449143
0.724953 0.801086 0.455364
0.753545 0.806785 0.461559
0.781626 0.812439 0.467730
0.809166 0.818050 0.473877
0.836131 0.823619 0.480003
0.371998 0.774545 0.400441
0.406214 0.781196 0.407517
0.439449 0.787598 0.414361
0.472085 0.793841 0.421065
0.504257 0.799964 0.427670
0.536024 0.805988 0.434199
0.567405 0.811929 0.440665
0.598401 0.817795 0.447078
0.629002 0.823594 0.453446
0.659191 0.829332 0.459774
0.688946 0.835011 0.466066
0.718242 0.840637 0.472326
0.747052 0.846211 0.478556
0.775347 0.851736 0.484758
0.803098 0.857214 0.490934
0.830274 0.862647 0.497086
0.856843 0.868035 0.503214
0.394932 0.820402 0.423488
0.429281 0.826870 0.430588
0.462601 0.833092 0.437452
0.495278 0.839154 0.444175
0.527451 0.845095 0.450797
0.559178 0.850937 0.457340
0.590482 0.856693 0.463819
0.621364 0.862373 0.470243
0.651814 0.867984 0.476621
0.681817 0.873531 0.482956
0.711351 0.879018 0.489255
0.740391 0.884449 0.495519
0.768911 0.889826 0.501752
0.796883 0.895152 0.507956
0.824276 0.900429 0.514132
0.851062 0.905657 0.520283
0.877208 0.910839 0.526408
0.053172 0.059598 0.100288
0.081652 0.065441 0.106386
0.110005 0.071122 0.112311
0.138490 0.076718 0.118141
0.167184 0.082258 0.123909
0.196105 0.087762 0.129633
0.225248 0.093240 0.135326
0.254593 0.098700 0.140995
0.284114 0.104147 0.146647
0.313781 0.109585 0.152285
0.343561 0.115017 0.157912
0.373420 0.120445 0.163532
0.403321 0.125872 0.169146
0.433230 0.131298 0.174756
0.463110 0.136726 0.180362
0.492924 0.142155 0.185967
0.522635 0.147588 0.191572
0.072627 0.102130 0.120722
0.101719 0.108238 0.126935
0.130620 0.114173 0.132968
0.159598 0.120013 0.138902
0.188735 0.125790 0.144771
0.218055 0.131523 0.150593
0.247552 0.137225 0.156382
0.277210 0.142903 0.162144
0.307004 0.148563 0.167886
0.336904 0.154210 0.173612
0.366878 0.159845 0.179326
0.396894 0.165473 0.185030
0.426915 0.171094 0.190726
0.456908 0.176712 0.196416
0.486835 0.182326 0.202101
0.516661 0.187938 0.207783
0.546349 0.193549 0.213462
0.092413 0.146256 0.141430
0.122083 0.152599 0.147750
0.151497 0.158756 0.153885
0.180935 0.164810 0.159917
0.210485 0.170794 0.165880
0.240171 0.176728 0.171794
0.269992 0.182625 0.177671
0.299932 0.188492 0.183520
0.329968 0.194337 0.189346
0.360071 0.200164 0.195154
0.390211 0.205975 0.200948
0.420354 0.211774 0.206730
0.450467 0.217563 0.212502
0.480514 0.223343 0.218266
0.510461 0.229117 0.224024
0.540270 0.234884 0.229776
0.569908 0.240647 0.235524
0.112534 0.191807 0.162419
0.142749 0.198354 0.168838
0.172644 0.204704 0.175068
0.202510 0.210942 0.181191
0.232440 0.217104 0.187242
0.262462 0.223210 0.193241
0.292577 0.229274 0.199201
0.322770 0.235303 0.205130
0.353018 0.241305 0.211034
0.383296 0.247284 0.216918
0.413572 0.253244 0.222786
0.443814 0.259187 0.228639
0.473990 0.265116 0.234482
0.504064 0.271033 0.240314
0.534002 0.276938 0.246138
0.563768 0.282835 0.251955
0.593328 0.288723 0.257765
0.132982 0.238594 0.183679
0.163707 0.245313 0.190192
0.194051 0.251826 0.196510
0.224315 0.258219 0.202717
0.254595 0.264531 0.208850
0.284923 0.270781 0.214928
0.315301 0.276983 0.220964
0.345717 0.283147 0.226967
0.376150 0.289278 0.232943
0.406573 0.295382 0.238897
0.436957 0.301463 0.244833
0.467270 0.307524 0.250752
0.497480 0.313566 0.256659
0.527554 0.319593 0.262553
0.557455 0.325605 0.268438
0.587151 0.331603 0.274313
0.616605 0.337590 0.280181
0.153741 0.286415 0.205197
0.184945 0.293277 0.211797
0.215706 0.299924 0.218197
0.246336 0.306443 0.224482
0.276936 0.312876 0.230690
0.307540 0.319242 0.236841
0.338153 0.325555 0.242947
0.368763 0.331825 0.249018
0.399351 0.338059 0.255060
0.429891 0.344262 0.261078
0.460354 0.350438 0.267076
0.490711 0.356589 0.273055
0.520928 0.362718 0.279020
0.550972 0.368828 0.284971
0.580811 0.374919 0.290910
0.610408 0.380994 0.296839
0.639730 0.387054 0.302758
0.174796 0.335070 0.226957
0.206445 0.342044 0.233637
0.237593 0.348794 0.240112
0.268559 0.355412 0.246470
0.299448 0.361937 0.252747
0.330299 0.368392 0.258964
0.361117 0.374789 0.265135
0.391892 0.381139 0.271268
0.422606 0.387448 0.277370
0.453235 0.393722 0.283446
0.483750 0.399966 0.289499
0.514122 0.406181 0.295533
0.544318 0.412371 0.301550
0.574307 0.418537 0.307552
0.604054 0.424683 0.313540
0.633526 0.430808 0.319516
0.662689 0.436914 0.325481
0.196127 0.384354 0.248941
0.228190 0.391410 0.255695
0.259693 0.398235 0.262239
0.290965 0.404923 0.268662
0.322114 0.411513 0.275002
0.353182 0.418028 0.281280
0.384176 0.424482 0.287509
0.415088 0.430884 0.293698
0.445900 0.437242 0.299854
0.476589 0.443561 0.305982
0.507128 0.449845 0.312086
0.537487 0.456098 0.318169
0.567636 0.462323 0.324232
0.597541 0.468520 0.330279
0.627170 0.474693 0.336311
0.656490 0.480843 0.342328
0.685466 0.486970 0.348333
0.217717 0.434063 0.271132
0.250161 0.441171 0.277952
0.281989 0.448043 0.284559
0.313536 0.454772 0.291042
0.344916 0.461400 0.297438
0.376172 0.467947 0.303771
0.407313 0.474430 0.310052
0.438333 0.480858 0.316291
0.469215 0.487238 0.322496
0.499937 0.493575 0.328670
0.530471 0.499874 0.334818
0.560790 0.506139 0.340943
0.590863 0.512371 0.347048
0.620657 0.518574 0.353134
0.650142 0.524749 0.359203
0.679282 0.530897 0.365257
0.708045 0.537019 0.371296
0.239545 0.483994 0.293509
0.272339 0.491124 0.300389
0.304461 0.498014 0.307053
0.336253 0.504756 0.313589
0.367835 0.511393 0.320036
0.399250 0.517946 0.326417
0.430510 0.524431 0.332744
0.461609 0.530857 0.339028
0.492533 0.537232 0.345275
0.523259 0.543562 0.351490
0.553761 0.549850 0.357677
0.584013 0.556100 0.363839
0.613982 0.562314 0.369979
0.643639 0.568496 0.376098
0.672951 0.574646 0.382200
0.701885 0.580767 0.388283
0.730408 0.586860 0.394351
0.261593 0.533942 0.316054
0.294705 0.541065 0.322988
0.327090 0.547944 0.329701
0.359098 0.554671 0.336284
0.390851 0.561290 0.342777
0.422396 0.567821 0.349200
0.453746 0.574281 0.355568
0.484897 0.580679 0.361890
0.515834 0.587023 0.368173
0.546537 0.593318 0.374423
0.576980 0.599568 0.380643
0.607136 0.605777 0.386836
0.636975 0.611948 0.393005
0.666467 0.618083 0.399153
0.695580 0.624184 0.405280
0.724281 0.630252 0.411389
0.752538 0.636289 0.417480
0.283841 0.583705 0.338746
0.317239 0.590791 0.345727
0.349857 0.597630 0.352484
0.382051 0.604315 0.359109
0.413946 0.610887 0.365640
0.445592 0.617370 0.372099
0.477004 0.623778 0.378502
0.508178 0.630121 0.384856
0.539101 0.636407 0.391170
0.569752 0.642641 0.397449
0.600108 0.648827 0.403696
0.630141 0.654970 0.409915
0.659823 0.661071 0.416109
0.689123 0.667133 0.422278
0.718010 0.673158 0.428427
0.746451 0.679148 0.434554
0.774415 0.685104 0.440663
0.306268 0.633079 0.361567
0.339921 0.640098 0.368589
0.372741 0.646869 0.375383
0.405091 0.653483 0.382042
0.437100 0.659982 0.388606
0.468818 0.666388 0.395096
0.500263 0.672718 0.401527
0.531432 0.678979 0.407909
0.562312 0.685181 0.414248
0.592885 0.691328 0.420549
0.623126 0.697424 0.426818
0.653010 0.703474 0.433057
0.682507 0.709480 0.439269
0.711588 0.715444 0.445455
0.740221 0.721368 0.451619
0.768376 0.727254 0.457760
0.796020 0.733104 0.463881
0.328854 0.681862 0.384496
0.362732 0.688785 0.391552
0.395724 0.695458 0.398378
0.428200 0.701973 0.405066
0.460293 0.708372 0.411656
0.492055 0.714675 0.418171
0.523505 0.720899 0.424624
0.554640 0.727052 0.431027
0.585451 0.733143 0.437385
0.615917 0.739176 0.443704
0.646016 0.745157 0.449989
0.675722 0.751088 0.456242
0.705007 0.756973 0.462466
0.733842 0.762813 0.468664
0.762196 0.768611 0.474837
0.790038 0.774368 0.480986
0.817336 0.780086 0.487113
0.351580 0.729850 0.407513
0.385650 0.736647 0.414597
0.418784 0.743195 0.421448
0.451358 0.749584 0.428158
0.483506 0.755854 0.434769
0.515283 0.762028 0.441303
0.546709 0.768119 0.447773
0.577783 0.774137 0.454191
0.608495 0.780091 0.460562
0.638827 0.785985 0.466893
0.668757 0.791824 0.473188
0.698259 0.797611 0.479450
0.727305 0.803348 0.485681
0.755867 0.809039 0.491884
0.783915 0.814685 0.498061
0.811417 0.820288 0.504213
0.838342 0.825849 0.510341
0.374425 0.776842 0.430598
0.408657 0.783485 0.437703
0.441902 0.789879 0.444573
0.474544 0.796113 0.451300
0.506718 0.802228 0.457926
0.538481 0.808244 0.464472
0.569855 0.814176 0.470954
0.600840 0.820034 0.477380
0.631427 0.825824 0.483760
0.661597 0.831553 0.490097
0.691330 0.837223 0.496396
0.720600 0.842840 0.502661
0.749381 0.848405 0.508893
0.777643 0.853921 0.515096
0.805358 0.859390 0.521272
0.832493 0.864812 0.527421
0.859019 0.870191 0.533545
0.397370 0.822637 0.453731
0.431731 0.829095 0.460852
0.465059 0.835307 0.467734
0.497738 0.841360 0.474472
0.529909 0.847291 0.481106
0.561631 0.853123 0.487659
0.592925 0.858869 0.494146
0.623793 0.864539 0.500576
0.654226 0.870140 0.506958
0.684207 0.875677 0.513295
0.713716 0.881154 0.519593
0.742727 0.886575 0.525855
0.771215 0.891942 0.532083
0.799151 0.897257 0.538281
0.826505 0.902523 0.544449
0.853248 0.907741 0.550589
0.879348 0.912912 0.556703
0.055208 0.061650 0.127004
0.083754 0.067506 0.133249
0.112166 0.073201 0.139314
0.140705 0.078809 0.145279
0.169447 0.084362 0.151177
0.198412 0.089878 0.157028
0.227594 0.095368 0.162844
0.256973 0.100839 0.168633
0.286525 0.106297 0.174402
0.316218 0.111745 0.180154
0.346020 0.117188 0.185893
0.375896 0.122627 0.191621
0.405812 0.128064 0.197341
0.435731 0.133500 0.203054
0.465617 0.138938 0.208762
0.495433 0.144377 0.214466
0.525144 0.149819 0.220166
0.074709 0.104275 0.147919
0.103864 0.110396 0.154270
0.132820 0.116343 0.160436
0.161849 0.122194 0.166496
0.191032 0.127982 0.172487
0.220392 0.133726 0.178428
0.249925 0.139438 0.184332
0.279614 0.145126 0.190206
0.309435 0.150796 0.196057
0.339358 0.156452 0.201890
0.369351 0.162097 0.207707
0.399382 0.167733 0.213512
0.429414 0.173364 0.219306
0.459414 0.178990 0.225092
0.489344 0.184613 0.230871
0.519170 0.190233 0.236644
0.548854 0.195853 0.242412
0.094538 0.148484 0.169078
0.124268 0.154838 0.175527
0.153735 0.161006 0.181786
0.183220 0.167069 0.187936
0.212812 0.173063 0.194013
0.242535 0.179006 0.200038
0.272389 0.184912 0.206022
0.302357 0.190788 0.211975
0.332417 0.196642 0.217903
0.362540 0.202476 0.223809
0.392696 0.208296 0.229699
0.422851 0.214102 0.235574
0.452972 0.219899 0.241437
0.483023 0.225687 0.247290
0.512970 0.231467 0.253133
0.542776 0.237242 0.258969
0.572407 0.243012 0.264798
0.114701 0.194108 0.190486
0.144971 0.200664 0.197028
0.174916 0.207023 0.203372
0.204826 0.213269 0.209605
0.234795 0.219439 0.215762
0.264851 0.225553 0.221864
0.294995 0.231624 0.227923
0.325213 0.237661 0.233949
0.355483 0.243670 0.239946
0.385777 0.249656 0.245921
0.416066 0.255622 0.251877
0.446318 0.261572 0.257817
0.476498 0.267507 0.263742
0.506573 0.273430 0.269655
0.536509 0.279342 0.275558
0.566269 0.285244 0.281451
0.595819 0.291138 0.287335
0.135187 0.240956 0.212137
0.165965 0.247683 0.218763
0.196355 0.254204 0.225188
0.226660 0.260604 0.231497
0.256975 0.266922 0.237728
0.287334 0.273178 0.243900
0.317739 0.279387 0.250028
0.348177 0.285556 0.256120
0.378628 0.291694 0.262182
0.409064 0.297803 0.268219
0.439458 0.303890 0.274235
0.469778 0.309955 0.280233
0.499990 0.316003 0.286215
0.530061 0.322034 0.292183
0.559958 0.328050 0.298138
0.589644 0.334053 0.304083
0.619085 0.340044 0.310017
0.155983 0.288828 0.234017
0.187235 0.295696 0.240721
0.218040 0.302348 0.247219
0.248707 0.308874 0.253599
0.279340 0.315311 0.259897
0.309972 0.321682 0.266134
0.340608 0.328001 0.272324
0.371237 0.334276 0.278476
0.401839 0.340514 0.284596
0.432390 0.346721 0.290689
0.462861 0.352900 0.296760
0.493220 0.359055 0.302810
0.523436 0.365188 0.308843
0.553476 0.371301 0.314860
0.583306 0.377396 0.320862
0.612891 0.383474 0.326852
0.642197 0.389537 0.332831
0.177071 0.337522 0.256110
0.208766 0.344501 0.262885
0.239954 0.351256 0.269451
0.270954 0.357878 0.275894
0.301873 0.364407 0.282253
0.332748 0.370865 0.288549
0.363586 0.377266 0.294795
0.394378 0.383619 0.301002
0.425104 0.389932 0.307174
0.455740 0.396209 0.313318
0.486259 0.402455 0.319437
0.516631 0.408672 0.325534
0.546823 0.414865 0.331611
0.576804 0.421033 0.337671
0.606540 0.427181 0.343716
0.635997 0.433308 0.349745
0.665141 0.439416 0.355762
0.198434 0.386836 0.278398
0.230539 0.393895 0.285238
0.262079 0.400724 0.291865
0.293381 0.407414 0.298365
0.324557 0.414007 0.304779
0.355647 0.420524 0.311128
0.386658 0.426979 0.317425
0.417583 0.433384 0.323679
0.448404 0.439743 0.329898
0.479098 0.446064 0.336086
0.509638 0.452350 0.342248
0.539994 0.458604 0.348386
0.570135 0.464829 0.354503
0.600030 0.471028 0.360600
0.629645 0.477201 0.366680
0.658946 0.483351 0.372744
0.687901 0.489479 0.378794
0.220053 0.436564 0.300864
0.252536 0.443674 0.307762
0.284397 0.450547 0.314443
0.315972 0.457278 0.320995
0.347375 0.463906 0.327458
0.378650 0.470455 0.333853
0.409805 0.476938 0.340195
0.440835 0.483367 0.346491
0.471723 0.489747 0.352751
0.502446 0.496085 0.358978
0.532979 0.502384 0.365176
0.563292 0.508648 0.371349
0.593355 0.514881 0.377499
0.623136 0.521083 0.383629
0.652603 0.527257 0.389739
0.681722 0.533404 0.395832
0.710461 0.539526 0.401908
0.241909 0.486503 0.323488
0.274738 0.493634 0.330438
0.306890 0.500523 0.337167
0.338707 0.507266 0.343764
0.370308 0.513902 0.350270
0.401738 0.520455 0.356706
0.433009 0.526939 0.363086
0.464116 0.533365 0.369419
0.495042 0.539739 0.375713
0.525767 0.546067 0.381973
0.556265 0.552354 0.388202
0.586507 0.558602 0.394405
0.616464 0.564815 0.400583
0.646104 0.570995 0.406738
0.675396 0.577144 0.412873
0.704306 0.583263 0.418989
0.732802 0.589353 0.425086
0.263981 0.536449 0.346252
0.297126 0.543571 0.353247
0.329537 0.550448 0.360017
0.361566 0.557174 0.366654
0.393336 0.563791 0.373196
0.424893 0.570321 0.379666
0.456252 0.576779 0.386079
0.487406 0.583175 0.392443
0.518343 0.589516 0.398766
0.549042 0.595809 0.405053
0.579477 0.602056 0.411308
0.609621 0.608263 0.417534
0.639444 0.614431 0.423734
0.668917 0.620563 0.429910
0.698006 0.626660 0.436064
0.726681 0.632725 0.442197
0.754908 0.638759 0.448310
0.286251 0.586200 0.369135
0.319678 0.593283 0.376169
0.352319 0.600119 0.382975
0.384531 0.606801 0.389644
0.416440 0.613370 0.396217
0.448096 0.619850 0.402716
0.479512 0.626254 0.409155
0.510687 0.632594 0.415544
0.541607 0.638876 0.421890
0.572251 0.645106 0.428198
0.602596 0.651289 0.434473
0.632614 0.657427 0.440717
0.662278 0.663524 0.446933
0.691555 0.669582 0.453124
0.720416 0.675603 0.459291
0.748828 0.681589 0.465436
0.776758 0.687540 0.471560
0.308698 0.635551 0.392118
0.342377 0.642566 0.399184
0.375217 0.649332 0.406019
0.407582 0.655941 0.412715
0.439601 0.662436 0.419313
0.471326 0.668838 0.425835
0.502773 0.675163 0.432295
0.533939 0.681420 0.438703
0.564814 0.687616 0.445066
0.595376 0.693758 0.451390
0.625603 0.699849 0.457678
0.655469 0.705894 0.463935
0.684944 0.711894 0.470162
0.714000 0.717852 0.476362
0.742605 0.723771 0.482537
0.770727 0.729651 0.488688
0.798335 0.735495 0.494816
0.331302 0.684300 0.415181
0.365202 0.691217 0.422273
0.398211 0.697885 0.429131
0.430699 0.704394 0.435848
0.462799 0.710787 0.442464
0.494565 0.717084 0.449003
0.526013 0.723302 0.455478
0.557143 0.729449 0.461899
0.587944 0.735534 0.468274
0.618397 0.741561 0.474607
0.648480 0.747535 0.480904
0.678165 0.753460 0.487167
0.707426 0.759337 0.493400
0.736232 0.765171 0.499603
0.764555 0.770962 0.505780
0.792361 0.776712 0.511932
0.819620 0.782422 0.518060
0.354044 0.732244 0.438305
0.388133 0.739035 0.445416
0.421280 0.745575 0.452291
0.453863 0.751957 0.459022
0.486015 0.758220 0.465651
0.517792 0.764386 0.472200
0.549213 0.770470 0.478684
0.580280 0.776481 0.485113
0.610979 0.782427 0.491494
0.641295 0.788314 0.497831
0.671205 0.794144 0.504131
0.700683 0.799923 0.510395
0.729702 0.805653 0.516627
0.758233 0.811336 0.522829
0.786246 0.816973 0.529002
0.813709 0.822567 0.535149
0.840593 0.828119 0.541270
0.376902 0.779183 0.461469
0.411149 0.785816 0.468593
0.444405 0.792202 0.475478
0.477052 0.798428 0.482218
0.509227 0.804534 0.488854
0.540988 0.810541 0.495408
0.572354 0.816465 0.501895
0.603328 0.822314 0.508325
0.633899 0.828095 0.514706
0.664051 0.833814 0.521042
0.693761 0.839476 0.527339
0.723004 0.845083 0.533598
0.751754 0.850639 0.539824
0.779983 0.856146 0.546018
0.807659 0.861604 0.552183
0.834753 0.867018 0.558319
0.861234 0.872386 0.564429
0.399858 0.824913 0.484653
0.434231 0.831361 0.491783
0.467566 0.837563 0.498673
0.500248 0.843605 0.505416
0.532417 0.849527 0.512052
0.564132 0.855349 0.518605
0.595416 0.861085 0.525090
0.626269 0.866745 0.531516
0.656684 0.872336 0.537891
0.686643 0.877862 0.544220
0.716126 0.883329 0.550507
0.745108 0.888739 0.556757
0.773563 0.894095 0.562971
0.801461 0.899400 0.569152
0.828775 0.904655 0.575302
0.855474 0.909861 0.581423
0.881526 0.915021 0.587515
0.057280 0.063737 0.154754
0.085892 0.069607 0.161139
0.114365 0.075315 0.167335
0.142957 0.080936 0.173425
0.171748 0.086502 0.179445
0.200757 0.092030 0.185414
0.229978 0.097531 0.191344
0.259392 0.103014 0.197245
0.288974 0.108483 0.203121
0.318693 0.113943 0.208978
0.348517 0.119396 0.214820
0.378411 0.124846 0.220648
0.408340 0.130293 0.226466
0.438269 0.135740 0.232274
0.468162 0.141187 0.238074
0.497980 0.146636 0.243868
