assets/luts/archive_platinum.cube
# Архивная платина — почти монохром, музейный отпечаток
TITLE "archive_platinum"
LUT_3D_SIZE 9
DOMAIN_MIN 0.0 0.0 0.0
DOMAIN_MAX 1.0 1.0 1.0
0.071758 0.072299 0.073101
0.106817 0.090627 0.091447
0.143099 0.109287 0.110123
0.180504 0.128277 0.129129
0.218911 0.147587 0.148454
0.258195 0.167202 0.168083
0.298226 0.187104 0.187999
0.338876 0.207277 0.208183
0.380013 0.227701 0.228619
0.134940 0.153041 0.136376
0.172281 0.172891 0.155951
0.210596 0.192982 0.175785
0.249791 0.213317 0.195881
0.289746 0.233886 0.216226
0.330336 0.254673 0.236808
0.371435 0.275663 0.257610
0.412912 0.296838 0.278613
0.454639 0.318181 0.299801
0.202007 0.239676 0.203520
0.241199 0.260683 0.224097
0.281119 0.281843 0.244862
0.321675 0.303161 0.265821
0.362749 0.324625 0.286961
0.404219 0.346224 0.308271
0.445958 0.367941 0.329733
0.487837 0.389758 0.351331
0.529727 0.411659 0.373046
0.272194 0.330651 0.273768
0.312808 0.352452 0.295119
0.353903 0.374318 0.316590
0.395391 0.396255 0.338185
0.437158 0.418254 0.359895
0.479080 0.440303 0.381707
0.521032 0.462385 0.403605
0.562885 0.484484 0.425572
0.604513 0.506582 0.447590
0.344738 0.424414 0.346355
0.386342 0.446644 0.368254
0.428183 0.468853 0.390203
0.470176 0.491048 0.412209
0.512206 0.513220 0.434264
0.554153 0.535357 0.456353
0.595891 0.557443 0.478461
0.637293 0.579462 0.500571
0.678231 0.601397 0.522667
0.418873 0.519413 0.420517
0.461037 0.541708 0.442736
0.503195 0.563897 0.464938
0.545264 0.585987 0.487129
0.587131 0.607970 0.509302
0.628675 0.629834 0.531442
0.669772 0.651563 0.553535
0.710296 0.673142 0.575565
0.750118 0.694552 0.597513
0.493836 0.614095 0.495489
0.536129 0.636091 0.517802
0.578175 0.657896 0.540030
0.619891 0.679519 0.562180
0.661166 0.700952 0.584245
0.701881 0.722181 0.606212
0.741910 0.743193 0.628065
0.781129 0.763970 0.649788
0.819408 0.784496 0.671365
0.568861 0.706908 0.570507
0.610853 0.728241 0.592687
0.652358 0.749300 0.614714
0.693293 0.770093 0.636598
0.733549 0.790613 0.658329
0.773006 0.810846 0.679897
0.811541 0.830779 0.701285
0.849027 0.850394 0.722477
0.885339 0.869674 0.743456
0.643185 0.796299 0.644807
0.684445 0.816604 0.666625
0.724979 0.836554 0.688226
0.764705 0.856156 0.709617
0.803514 0.875401 0.730790
0.841286 0.894277 0.751733
0.877899 0.912769 0.772430
0.913227 0.930861 0.792866
0.947144 0.948536 0.813024
0.077963 0.078508 0.095934
0.113272 0.096971 0.114760
0.149780 0.115758 0.133889
0.187386 0.134870 0.153323
0.225970 0.154294 0.173051
0.265405 0.174016 0.193057
0.305564 0.194019 0.213326
0.346317 0.214284 0.233839
0.387533 0.234796 0.254578
0.141573 0.159778 0.160725
0.179121 0.179734 0.180696
0.217619 0.199925 0.200900
0.256971 0.220352 0.221339
0.297059 0.241005 0.242004
0.337758 0.261871 0.262881
0.378941 0.282932 0.283952
0.420478 0.304172 0.305201
0.462241 0.325573 0.326610
0.208991 0.246818 0.229102
0.248347 0.267902 0.249991
0.288406 0.289132 0.271043
0.329075 0.310512 0.292262
0.370240 0.332033 0.313639
0.411775 0.353681 0.335160
0.453554 0.375440 0.356809
0.495450 0.397294 0.378569
0.537333 0.419224 0.400423
0.279452 0.338073 0.300301
0.320185 0.359922 0.321881
0.361376 0.381829 0.343555
0.402935 0.403800 0.365328
0.444748 0.425826 0.387191
0.486692 0.447895 0.409131
0.528641 0.469991 0.431133
0.570469 0.492097 0.453179
0.612045 0.514195 0.475252
0.352192 0.431993 0.373558
0.393872 0.454241 0.395602
0.435765 0.476462 0.417671
0.477785 0.498661 0.439771
0.519818 0.520832 0.461895
0.561744 0.542960 0.484029
0.603436 0.565031 0.506158
0.644769 0.587028 0.528265
0.685613 0.608934 0.550333
0.426446 0.527023 0.448108
0.468643 0.549308 0.470388
0.510809 0.571479 0.492626
0.552861 0.593545 0.514828
0.594688 0.615497 0.536987
0.636167 0.637324 0.559090
0.677176 0.659009 0.581121
0.717586 0.680537 0.603064
0.757271 0.701890 0.624901
0.501450 0.621613 0.523186
0.543732 0.643569 0.545476
0.585742 0.665328 0.567656
0.627399 0.686898 0.589735
0.668590 0.708271 0.611703
0.709197 0.729434 0.633549
0.749094 0.750372 0.655257
0.788157 0.771069 0.676810
0.826256 0.791509 0.698193
0.576439 0.714209 0.598028
0.618376 0.735473 0.620101
0.659802 0.756457 0.641997
0.700634 0.777168 0.663726
0.740763 0.797599 0.685278
0.780069 0.817737 0.706641
0.818428 0.837567 0.727800
0.855715 0.857074 0.748740
0.891803 0.876239 0.769442
0.650649 0.803259 0.671870
0.691811 0.823466 0.693498
0.732222 0.843312 0.714885
0.771802 0.862802 0.736037
0.810440 0.881930 0.756947
0.848018 0.900682 0.777602
0.884412 0.919043 0.797988
0.919498 0.936998 0.818089
0.953148 0.954528 0.837886
0.084251 0.084800 0.119498
0.119809 0.103397 0.138775
0.156539 0.122311 0.158329
0.194342 0.141542 0.178162
0.233099 0.161078 0.198264
0.272683 0.180905 0.218620
0.312966 0.201007 0.239212
0.353818 0.221364 0.260024
0.395110 0.241961 0.281038
0.148284 0.166593 0.185708
0.186037 0.186653 0.206046
0.224713 0.206940 0.226591
0.264219 0.227457 0.247346
0.304436 0.248194 0.268301
0.345240 0.269136 0.289443
0.386503 0.290267 0.310755
0.428097 0.311570 0.332220
0.469892 0.333027 0.353820
0.216048 0.254029 0.255221
0.255564 0.275188 0.276393
0.295758 0.296486 0.297702
0.336537 0.317927 0.319153
0.377787 0.339502 0.340736
0.419384 0.361198 0.362439
0.461200 0.382997 0.384245
0.503109 0.404884 0.406138
0.544980 0.426841 0.428098
0.286776 0.345556 0.327273
0.327626 0.367451 0.349051
0.368907 0.389396 0.370898
0.410533 0.411399 0.392818
0.452388 0.433451 0.414805
0.494350 0.455538 0.436843
0.536292 0.477645 0.458918
0.578089 0.499755 0.481013
0.619610 0.521851 0.503110
0.359705 0.439623 0.401098
0.401458 0.461888 0.423256
0.443398 0.484118 0.445414
0.485441 0.506320 0.467579
0.527473 0.528486 0.489742
0.569373 0.550604 0.511891
0.611015 0.572657 0.534010
0.652273 0.594630 0.556082
0.693018 0.616505 0.578090
0.434071 0.534675 0.475933
0.476296 0.556947 0.498244
0.518466 0.579098 0.520486
0.560497 0.601138 0.542669
0.602279 0.623057 0.564784
0.643689 0.644843 0.586817
0.684604 0.666482 0.608755
0.724896 0.687956 0.630579
0.764439 0.709249 0.652274
0.509108 0.629162 0.551013
0.551375 0.651076 0.573249
0.593345 0.672786 0.595350
0.634937 0.694300 0.617325
0.676040 0.715610 0.639165
0.716534 0.736704 0.660858
0.756294 0.757567 0.682389
0.795195 0.778182 0.703741
0.833109 0.798532 0.724898
0.584053 0.721530 0.625573
0.625931 0.742722 0.647508
0.667272 0.763628 0.669241
0.707997 0.784254 0.690782
0.747993 0.804594 0.712122
0.787142 0.824634 0.733249
0.825321 0.844359 0.754148
0.862403 0.863754 0.774803
0.898262 0.882801 0.795196
0.658140 0.810227 0.698849
0.699199 0.830333 0.720255
0.739483 0.850071 0.741395
0.778910 0.869448 0.762276
0.817373 0.888455 0.782890
0.854751 0.907079 0.803226
0.890921 0.925307 0.823268
0.925758 0.943120 0.843000
0.959135 0.960504 0.862405
0.090609 0.091162 0.143710
0.126411 0.109891 0.163408
0.163360 0.128929 0.183358
0.201358 0.148277 0.203561
0.240283 0.167924 0.224007
0.280012 0.187855 0.244681
0.320414 0.208053 0.265568
0.361362 0.228501 0.286649
0.402725 0.249180 0.307907
0.155059 0.173469 0.211239
0.193012 0.193631 0.231914
0.231863 0.214014 0.252769
0.271519 0.234619 0.273810
0.311862 0.255437 0.295026
0.352766 0.276453 0.316403
0.394106 0.297651 0.337925
0.435751 0.319015 0.359575
0.477573 0.340525 0.381335
0.223161 0.261293 0.281786
0.262833 0.282525 0.303210
0.303158 0.303889 0.324746
0.344044 0.325389 0.346398
0.385376 0.347016 0.368158
0.427029 0.368756 0.390012
0.468878 0.390594 0.411945
0.510795 0.412513 0.433939
0.552650 0.434494 0.455977
0.294150 0.353083 0.354588
0.335112 0.375021 0.376534
0.376480 0.397003 0.398523
0.418168 0.419035 0.420561
0.460061 0.441110 0.442639
0.502036 0.463213 0.464745
0.543968 0.485329 0.486863
0.585729 0.507441 0.508975
0.627190 0.529533 0.531066
0.367261 0.447287 0.428878
0.409082 0.469566 0.451119
0.451065 0.491803 0.473335
0.493127 0.514005 0.495533
0.535153 0.536165 0.517705
0.577022 0.558270 0.539837
0.618609 0.580303 0.561914
0.659788 0.602249 0.583921
0.700430 0.624090 0.605839
0.441731 0.542351 0.503893
0.483979 0.564607 0.526203
0.526149 0.586737 0.548419
0.568155 0.608747 0.570551
0.609887 0.630631 0.592590
0.651223 0.652375 0.614523
0.692039 0.673964 0.636335
0.732209 0.695382 0.658011
0.771605 0.716612 0.679531
0.516793 0.636724 0.578869
0.559040 0.658593 0.601019
0.600966 0.680252 0.623010
0.642489 0.701708 0.644850
0.683498 0.722953 0.666531
0.723874 0.743975 0.688039
0.763492 0.764759 0.709361
0.802226 0.785289 0.730480
0.839949 0.805548 0.751378
0.591686 0.728853 0.653041
0.633499 0.749971 0.674805
0.674752 0.770796 0.696344
0.715364 0.791335 0.717665
0.755223 0.811580 0.738762
0.794211 0.831519 0.759621
0.832203 0.851137 0.780227
0.869075 0.870418 0.800564
0.904700 0.889344 0.820616
0.665642 0.817186 0.725644
0.706593 0.837189 0.746795
0.746744 0.856817 0.767655
0.786015 0.876077 0.788233
0.824296 0.894960 0.808520
0.861469 0.913454 0.828503
0.897409 0.931545 0.848169
0.931993 0.949215 0.867500
0.965092 0.966448 0.886479
0.097031 0.097588 0.168513
0.133073 0.116446 0.188602
0.170237 0.135607 0.208916
0.208424 0.155070 0.229458
0.247515 0.174826 0.250218
0.287384 0.194858 0.271181
0.327902 0.215150 0.292331
0.368941 0.235685 0.313651
0.410371 0.256445 0.335123
0.161891 0.180399 0.237258
0.200039 0.200662 0.258239
0.239062 0.221137 0.279374
0.278864 0.241828 0.300670
0.319327 0.262725 0.322115
0.360328 0.283814 0.343696
0.401740 0.305077 0.365398
0.443433 0.326499 0.387203
0.485278 0.348061 0.409093
0.230324 0.268602 0.308736
0.270148 0.289905 0.330381
0.310600 0.311333 0.352112
0.351588 0.332889 0.373935
0.392997 0.354566 0.395840
0.434703 0.376349 0.417815
0.476580 0.398223 0.439843
0.518500 0.420171 0.461907
0.560335 0.442174 0.483991
0.301565 0.360646 0.382182
0.342635 0.382625 0.404265
0.384087 0.404641 0.426365
0.425833 0.426701 0.448489
0.467759 0.448795 0.470629
0.509743 0.470912 0.492771
0.551659 0.493035 0.514900
0.593379 0.515147 0.536999
0.634777 0.537232 0.559052
0.374851 0.454977 0.456833
0.416736 0.477268 0.479126
0.458758 0.499510 0.501368
0.500833 0.521710 0.523568
0.542849 0.543861 0.545717
0.584683 0.565950 0.567801
0.626211 0.587960 0.589806
0.667306 0.609877 0.611715
0.707840 0.631682 0.633511
0.449417 0.550043 0.531923
0.491685 0.572282 0.554199
0.533849 0.594386 0.576358
0.575826 0.616365 0.598407
0.617503 0.638211 0.620339
0.658760 0.659909 0.642140
0.699473 0.681447 0.663795
0.739515 0.702807 0.685289
0.778759 0.723971 0.706604
0.524497 0.644292 0.606688
0.566719 0.666114 0.628720
0.608596 0.687719 0.650569
0.650045 0.709114 0.672242
0.690956 0.730291 0.693731
0.731209 0.751239 0.715023
0.770680 0.771942 0.736104
0.809243 0.792384 0.756958
0.846770 0.812548 0.777566
0.599329 0.736172 0.680363
0.641074 0.757213 0.701925
0.682234 0.777954 0.723237
0.722727 0.798403 0.744308
0.762444 0.818551 0.765128
0.801265 0.838387 0.785687
0.839067 0.857894 0.805968
0.875724 0.877058 0.825956
0.911109 0.895860 0.845634
0.673146 0.824129 0.752185
0.713984 0.844025 0.773049
0.753998 0.863540 0.793598
0.793107 0.882681 0.813840
0.831202 0.901438 0.833767
0.868164 0.919799 0.853366
0.903870 0.937750 0.872623
0.938195 0.955274 0.891520
0.971011 0.972355 0.910042
0.103511 0.104072 0.193856
0.139790 0.123059 0.214305
0.177165 0.142339 0.234953
0.215538 0.161916 0.255804
0.254790 0.181778 0.276846
0.294795 0.201909 0.298067
0.335425 0.222294 0.319450
0.376550 0.242914 0.340977
0.418042 0.263753 0.362632
0.168774 0.187379 0.263713
0.207115 0.207740 0.284969
0.246304 0.228306 0.306354
0.286247 0.249081 0.327873
0.326828 0.270055 0.349517
0.367921 0.291213 0.371271
0.409400 0.312540 0.393121
0.451136 0.334018 0.415050
0.493000 0.355629 0.437039
0.237531 0.275952 0.336016
0.277503 0.297324 0.357852
0.318078 0.318812 0.379748
0.359163 0.340423 0.401710
0.400645 0.362148 0.423729
0.442399 0.383971 0.445793
0.484300 0.405879 0.467885
0.526220 0.427853 0.489989
0.568029 0.449877 0.512087
0.309018 0.368240 0.410003
0.350191 0.390257 0.432191
0.391722 0.412305 0.454371
0.433521 0.434390 0.476550
0.475476 0.456503 0.498719
0.517464 0.478631 0.520866
0.559360 0.500758 0.542975
0.601036 0.522868 0.565029
0.642364 0.544943 0.587012
0.382471 0.462688 0.484907
0.424415 0.484988 0.507221
0.466471 0.507233 0.529459
0.508556 0.529429 0.551628
0.550557 0.551568 0.573722
0.592351 0.573638 0.595727
0.633815 0.595624 0.617627
0.674821 0.617509 0.639407
0.715242 0.639276 0.661050
0.457125 0.557746 0.559965
0.499408 0.579964 0.582177
0.541562 0.602042 0.604246
0.583504 0.623987 0.626181
0.625122 0.645791 0.647974
0.666296 0.667443 0.669611
0.706901 0.688926 0.691078
0.746811 0.710225 0.712359
0.785898 0.731322 0.733436
0.532215 0.651860 0.634412
0.574408 0.673633 0.656295
0.616230 0.695181 0.677970
0.657601 0.716512 0.699444
0.698409 0.737620 0.720709
0.738534 0.758491 0.741754
0.777853 0.779111 0.762562
0.816240 0.799462 0.783118
0.853567 0.819529 0.803405
0.606977 0.743479 0.707484
0.648649 0.764441 0.728811
0.689711 0.785097 0.749865
0.730081 0.805453 0.770652
0.769651 0.825502 0.791164
0.808301 0.845231 0.811390
0.845907 0.864625 0.831315
0.882344 0.883669 0.850921
0.917485 0.902345 0.870193
0.680647 0.831050 0.778416
0.721367 0.850838 0.798960
0.761239 0.870237 0.819166
0.800181 0.889255 0.839040
0.838086 0.907884 0.858575
0.874832 0.926110 0.877757
0.910299 0.943918 0.896572
0.944359 0.961294 0.915004
0.976887 0.978218 0.933036
0.110049 0.110613 0.219694
0.146560 0.129725 0.240472
0.184141 0.149124 0.261423
0.222696 0.168812 0.282550
0.262104 0.188777 0.303844
0.302241 0.209005 0.325291
0.342978 0.229480 0.346875
0.384186 0.250184 0.368580
0.425736 0.271099 0.390386
0.175706 0.194406 0.290557
0.214235 0.214863 0.312057
0.253587 0.235518 0.333659
0.293668 0.256374 0.355371
0.334361 0.277423 0.377182
0.375542 0.298649 0.399079
0.417084 0.320036 0.421046
0.458858 0.341568 0.443066
0.500736 0.363226 0.465123
0.244780 0.283340 0.363580
0.284896 0.304777 0.385575
0.325588 0.326325 0.407603
0.366767 0.347988 0.429673
0.408317 0.369757 0.451775
0.450116 0.391619 0.473896
0.492036 0.413558 0.496021
0.533950 0.435557 0.518133
0.575729 0.457598 0.540214
0.316505 0.375861 0.438000
0.357777 0.397915 0.460262
0.399381 0.419992 0.482490
0.441230 0.442100 0.504692
0.483209 0.464228 0.526860
0.525197 0.486365 0.548980
0.567068 0.508494 0.571037
0.608695 0.530599 0.593015
0.649950 0.552663 0.614897
0.390116 0.470417 0.513052
0.432115 0.492724 0.535354
0.474202 0.514968 0.557555
0.516292 0.537157 0.579663
0.558272 0.559283 0.601671
0.600023 0.581333 0.623564
0.641418 0.603291 0.645329
0.682331 0.625142 0.666948
0.722634 0.646867 0.688405
0.464850 0.565456 0.587970
0.507144 0.587651 0.610086
0.549284 0.609699 0.632034
0.591187 0.631608 0.653822
0.632742 0.653370 0.675444
0.673827 0.674971 0.696885
0.714319 0.696397 0.718132
0.754092 0.717633 0.739167
0.793018 0.738659 0.759975
0.539942 0.659425 0.661992
0.582101 0.681145 0.683693
0.623865 0.702634 0.705162
0.665153 0.723900 0.726405
0.705853 0.744935 0.747414
0.745846 0.765727 0.768179
0.785008 0.786260 0.788682
0.823214 0.806519 0.808909
0.860336 0.826486 0.828842
0.614627 0.750773 0.734351
0.656221 0.771653 0.755412
0.697180 0.792220 0.776174
0.737423 0.812480 0.796646
0.776842 0.832427 0.816818
0.815315 0.852048 0.836680
0.852721 0.871327 0.856215
0.888932 0.890249 0.875408
0.923824 0.908796 0.894241
0.688141 0.837946 0.804285
0.728739 0.857622 0.824477
0.768463 0.876904 0.844307
0.807235 0.895797 0.863781
0.844943 0.914294 0.882891
0.881470 0.932382 0.901624
0.916691 0.950046 0.919966
0.950483 0.967269 0.937900
0.982717 0.984036 0.955409
0.116640 0.117208 0.245981
0.153379 0.136443 0.267057
0.191163 0.155958 0.288278
0.229894 0.175754 0.309651
0.269455 0.195821 0.331166
0.309719 0.216145 0.352808
0.350559 0.236707 0.374563
0.391846 0.257492 0.396412
0.433449 0.278481 0.418338
0.182685 0.201478 0.317744
0.221397 0.222028 0.339456
0.260907 0.242769 0.361245
0.301121 0.263705 0.383118
0.341922 0.284826 0.405064
0.383187 0.306117 0.427072
0.424788 0.327563 0.449125
0.466596 0.349146 0.471206
0.508484 0.370849 0.493298
0.252067 0.290762 0.391382
0.292323 0.312263 0.413503
0.333129 0.333867 0.435633
0.374397 0.355580 0.457779
0.416011 0.377392 0.479932
0.457849 0.399290 0.502079
0.499783 0.421258 0.524205
0.541687 0.443279 0.546293
0.583432 0.465336 0.568325
0.324022 0.383506 0.466128
0.365390 0.405595 0.488431
0.407063 0.427700 0.510676
0.448957 0.449827 0.532869
0.490956 0.471969 0.555003
0.532939 0.494112 0.577064
0.574781 0.516241 0.599038
0.616354 0.538339 0.620908
0.657530 0.560388 0.642657
0.397785 0.478160 0.541219
0.439834 0.500471 0.563478
0.481946 0.522713 0.585611
0.524037 0.544893 0.607625
0.565993 0.567003 0.629514
0.607695 0.589030 0.651265
0.649016 0.610958 0.672861
0.689832 0.632772 0.694288
0.730013 0.654454 0.715527
0.472591 0.573170 0.615891
0.514891 0.595340 0.637877
0.557012 0.617356 0.659672
0.598872 0.639226 0.681282
0.640358 0.660942 0.702701
0.681350 0.682491 0.723915
0.721725 0.703858 0.744909
0.761356 0.725027 0.765667
0.800115 0.745981 0.786173
0.547676 0.666984 0.689378
0.589797 0.688649 0.710866
0.631498 0.710076 0.732096
0.672698 0.731274 0.753076
0.713285 0.752234 0.773798
0.753142 0.772944 0.794250
0.792142 0.793389 0.814417
0.830162 0.813552 0.834282
0.867074 0.833417 0.853828
0.622276 0.758050 0.760917
0.663787 0.778845 0.781679
0.704638 0.799321 0.802118
0.744750 0.819484 0.822241
0.784012 0.839326 0.842042
0.822304 0.858836 0.861506
0.859504 0.877997 0.880620
0.895486 0.896793 0.899367
0.930123 0.915209 0.917730
0.695626 0.844815 0.829743
0.736096 0.864377 0.849551
0.775669 0.883538 0.868973
0.814264 0.902303 0.888014
0.851772 0.920666 0.906667
0.888073 0.938614 0.924919
0.923046 0.956130 0.942755
0.956563 0.973199 0.960158
0.988499 0.989805 0.977112
0.122424 0.122996 0.269212
0.159358 0.142336 0.290520
0.197315 0.161950 0.311953
0.236197 0.181839 0.333514
0.275887 0.201993 0.355195
0.316258 0.222397 0.376981
0.357184 0.243034 0.398858
0.398535 0.263887 0.420808
0.440182 0.284939 0.442813
0.188801 0.207673 0.341672
0.227669 0.228302 0.363543
0.267313 0.249117 0.385469
0.307640 0.270120 0.407455
0.348531 0.291301 0.429494
0.389865 0.312648 0.451572
0.431513 0.334142 0.473674
0.473348 0.355769 0.495782
0.515240 0.377509 0.517879
0.258446 0.297253 0.415756
0.298818 0.318808 0.437962
0.339720 0.340460 0.460155
0.381062 0.362214 0.482341
0.422728 0.384062 0.504513
0.464596 0.405989 0.526656
0.506540 0.427980 0.548757
0.548432 0.450019 0.570799
0.590143 0.472087 0.592763
0.330594 0.390185 0.490700
0.372040 0.412301 0.513014
0.413771 0.434428 0.535247
0.455700 0.456571 0.557406
0.497713 0.478722 0.579485
0.539688 0.500869 0.601469
0.581501 0.522995 0.623344
0.623023 0.545085 0.645094
0.664127 0.567121 0.666701
0.404482 0.484915 0.565738
0.446571 0.507228 0.587933
0.488702 0.529466 0.609980
0.530789 0.551636 0.631887
0.572721 0.573730 0.653647
0.614376 0.595734 0.675246
0.655630 0.617635 0.696671
0.696356 0.639415 0.717903
0.736427 0.661057 0.738927
0.479345 0.579891 0.640106
0.521646 0.602038 0.661955
0.563747 0.624024 0.683589
0.605565 0.645858 0.705018
0.646987 0.667532 0.726234
0.687895 0.689033 0.747223
0.728164 0.710347 0.767971
0.767667 0.731457 0.788462
0.806278 0.752345 0.808679
0.554418 0.673561 0.713040
0.596501 0.695177 0.734315
0.638143 0.716548 0.755311
0.679262 0.737684 0.776036
0.719748 0.758577 0.796481
0.759481 0.779213 0.816635
0.798338 0.799579 0.836482
0.836192 0.819657 0.856006
0.872916 0.839431 0.875190
0.628936 0.764373 0.783775
0.670371 0.785093 0.804250
0.711125 0.805487 0.824381
0.751118 0.825563 0.844175
0.790239 0.845312 0.863625
0.828370 0.864722 0.882717
0.865387 0.883778 0.901438
0.901165 0.902464 0.919770
0.935576 0.920763 0.937697
0.702136 0.850773 0.851547
0.742492 0.870234 0.870994
0.781928 0.889287 0.890034
0.820366 0.907940 0.908672
0.857695 0.926184 0.926900
0.893797 0.944007 0.944706
0.928547 0.961393 0.962075
0.961822 0.978326 0.978990
0.993495 0.994789 0.995435
