assets/luts/archive_platinum.cube
# Архивная платина — почти монохром, музейный отпечаток
TITLE "archive_platinum"
LUT_3D_SIZE 17
DOMAIN_MIN 0.0 0.0 0.0
DOMAIN_MAX 1.0 1.0 1.0
0.071758 0.072299 0.073101
0.089130 0.081423 0.082234
0.106817 0.090627 0.091447
0.124811 0.099915 0.100743
0.143099 0.109287 0.110123
0.161668 0.118741 0.119586
0.180504 0.128277 0.129129
0.199590 0.137893 0.138753
0.218911 0.147587 0.148454
0.238452 0.157357 0.158232
0.258195 0.167202 0.168083
0.278125 0.177118 0.178006
0.298226 0.187104 0.187999
0.318482 0.197158 0.198058
0.338876 0.207277 0.208183
0.359392 0.217458 0.218371
0.380013 0.227701 0.228619
0.102815 0.111836 0.104207
0.120801 0.121369 0.113666
0.139069 0.130971 0.123196
0.157613 0.140645 0.132801
0.176422 0.150392 0.142480
0.195480 0.160210 0.152233
0.214775 0.170100 0.162059
0.234290 0.180058 0.171956
0.254010 0.190084 0.181922
0.273918 0.200176 0.191956
0.294000 0.210330 0.202056
0.314239 0.220546 0.212218
0.334618 0.230822 0.222442
0.355123 0.241154 0.232725
0.375735 0.251541 0.243065
0.396440 0.261980 0.253458
0.417221 0.272469 0.263905
0.134940 0.153041 0.136376
0.153485 0.162937 0.146133
0.172281 0.172891 0.155951
0.191322 0.182906 0.165835
0.210596 0.192982 0.175785
0.230091 0.203120 0.185801
0.249791 0.213317 0.195881
0.269681 0.223573 0.206023
0.289746 0.233886 0.216226
0.309969 0.244253 0.226489
0.330336 0.254673 0.236808
0.350830 0.265144 0.247183
0.371435 0.275663 0.257610
0.392134 0.286229 0.268087
0.412912 0.296838 0.278613
0.433753 0.307490 0.289185
0.454639 0.318181 0.299801
0.168035 0.195719 0.169513
0.187086 0.205933 0.179538
0.206356 0.216193 0.189617
0.225840 0.226503 0.199752
0.245527 0.236864 0.209945
0.265404 0.247275 0.220194
0.285456 0.257735 0.230500
0.305668 0.268243 0.240859
0.326024 0.278797 0.251271
0.346509 0.289395 0.261734
0.367108 0.300036 0.272245
0.387803 0.310716 0.282803
0.408580 0.321434 0.293405
0.429421 0.332188 0.304050
0.450311 0.342976 0.314734
0.471234 0.353794 0.325456
0.492173 0.364642 0.336214
0.202007 0.239676 0.203520
0.221508 0.250162 0.213787
0.241199 0.260683 0.224097
0.261073 0.271243 0.234455
0.281119 0.281843 0.244862
0.301325 0.292483 0.255318
0.321675 0.303161 0.265821
0.342155 0.313875 0.276369
0.362749 0.324625 0.286961
0.383443 0.335409 0.297596
0.404219 0.346224 0.308271
0.425063 0.357069 0.318984
0.445958 0.367941 0.329733
0.466888 0.378838 0.340516
0.487837 0.389758 0.351331
0.508789 0.400699 0.362175
0.529727 0.411659 0.373046
0.236758 0.284718 0.238304
0.256658 0.295431 0.248782
0.276715 0.306168 0.259296
0.296925 0.316932 0.269849
0.317276 0.327726 0.280443
0.337757 0.338548 0.291076
0.358352 0.349398 0.301748
0.379046 0.360275 0.312457
0.399826 0.371176 0.323201
0.420674 0.382100 0.333980
0.441575 0.393045 0.344790
0.462514 0.404008 0.355631
0.483474 0.414989 0.366498
0.504439 0.425984 0.377392
0.525393 0.436992 0.388309
0.546321 0.448010 0.399247
0.567205 0.459037 0.410204
0.272194 0.330651 0.273768
0.292438 0.341545 0.284430
0.312808 0.352452 0.295119
0.333300 0.363376 0.305839
0.353903 0.374318 0.316590
0.374605 0.385278 0.327372
0.395391 0.396255 0.338185
0.416247 0.407248 0.349027
0.437158 0.418254 0.359895
0.458107 0.429273 0.370790
0.479080 0.440303 0.381707
0.500060 0.451341 0.392647
0.521032 0.462385 0.403605
0.541979 0.473433 0.414581
0.562885 0.484484 0.425572
0.583735 0.495534 0.436575
0.604513 0.506582 0.447590
0.308219 0.377281 0.309817
0.328753 0.388311 0.320635
0.349382 0.399342 0.331470
0.370102 0.410380 0.342328
0.390904 0.421425 0.353209
0.411774 0.432477 0.364112
0.432698 0.443536 0.375038
0.453661 0.454600 0.385983
0.474650 0.465667 0.396948
0.495647 0.476736 0.407930
0.516638 0.487805 0.418927
0.537606 0.498872 0.429937
0.558536 0.509934 0.440958
0.579412 0.520991 0.451988
0.600217 0.532038 0.463024
0.620936 0.543075 0.474066
0.641553 0.554100 0.485109
0.344738 0.424414 0.346355
0.365507 0.435534 0.357300
0.386342 0.446644 0.368254
0.407237 0.457750 0.379221
0.428183 0.468853 0.390203
0.449167 0.479952 0.401200
0.470176 0.491048 0.412209
0.491194 0.502137 0.423231
0.512206 0.513220 0.434264
0.533198 0.524294 0.445305
0.554153 0.535357 0.456353
0.575056 0.546407 0.467405
0.595891 0.557443 0.478461
0.616642 0.568462 0.489517
0.637293 0.579462 0.500571
0.657828 0.590441 0.511622
0.678231 0.601397 0.522667
0.381655 0.471856 0.383287
0.402606 0.483020 0.394330
0.423592 0.494164 0.405374
0.444609 0.505293 0.416423
0.465645 0.516408 0.427478
0.486690 0.527509 0.438539
0.507730 0.538596 0.449605
0.528748 0.549666 0.460675
0.549732 0.560719 0.471747
0.570664 0.571752 0.482819
0.591531 0.582765 0.493890
0.612315 0.593754 0.504957
0.633002 0.604718 0.516018
0.653575 0.615654 0.527072
0.674018 0.626562 0.538117
0.694315 0.637437 0.549149
0.714451 0.648279 0.560167
0.418873 0.519413 0.420517
0.439953 0.530576 0.431631
0.461037 0.541708 0.442736
0.482121 0.552815 0.453838
0.503195 0.563897 0.464938
0.524247 0.574954 0.476035
0.545264 0.585987 0.487129
0.566230 0.596992 0.498219
0.587131 0.607970 0.509302
0.607951 0.618918 0.520377
0.628675 0.629834 0.531442
0.649287 0.640716 0.542496
0.669772 0.651563 0.553535
0.690114 0.662372 0.564559
0.710296 0.673142 0.575565
0.730302 0.683869 0.586550
0.750118 0.694552 0.597513
0.456299 0.566891 0.457949
0.477454 0.578007 0.469105
0.498581 0.589082 0.480244
0.519679 0.600120 0.491371
0.540737 0.611124 0.502487
0.561743 0.622093 0.513593
0.582683 0.633026 0.524686
0.603543 0.643922 0.535767
0.624307 0.654779 0.546833
0.644962 0.665596 0.557883
0.665490 0.676371 0.568915
0.685877 0.687102 0.579926
0.706107 0.697786 0.590916
0.726164 0.708423 0.601882
0.746031 0.719009 0.612821
0.765694 0.729543 0.623731
0.785135 0.740023 0.634611
0.493836 0.614095 0.495489
0.515011 0.625119 0.506658
0.536129 0.636091 0.517802
0.557187 0.647016 0.528926
0.578175 0.657896 0.540030
0.599081 0.668731 0.551115
0.619891 0.679519 0.562180
0.640591 0.690260 0.573224
0.661166 0.700952 0.584245
0.681601 0.711593 0.595242
0.701881 0.722181 0.606212
0.721989 0.732715 0.617154
0.741910 0.743193 0.628065
0.761629 0.753611 0.638944
0.781129 0.763970 0.649788
0.800394 0.774265 0.660596
0.819408 0.784496 0.671365
0.531389 0.660832 0.533040
0.552530 0.671718 0.544194
0.573585 0.682542 0.555315
0.594549 0.693309 0.566406
0.615414 0.704020 0.577471
0.636166 0.714675 0.588507
0.656793 0.725273 0.599516
0.677280 0.735813 0.610495
0.697612 0.746294 0.621442
0.717774 0.756714 0.632357
0.737751 0.767071 0.643238
0.757527 0.777363 0.654081
0.777087 0.787588 0.664886
0.796414 0.797744 0.675651
0.815492 0.807829 0.686372
0.834307 0.817841 0.697049
0.852841 0.827778 0.707678
0.568861 0.706908 0.570507
0.589916 0.717610 0.581618
0.610853 0.728241 0.592687
0.631670 0.738803 0.603718
0.652358 0.749300 0.614714
0.672903 0.759730 0.625674
0.693293 0.770093 0.636598
0.713513 0.780388 0.647483
0.733549 0.790613 0.658329
0.753385 0.800766 0.669135
0.773006 0.810846 0.679897
0.792397 0.820851 0.690614
0.811541 0.830779 0.701285
0.830423 0.840627 0.711906
0.849027 0.850394 0.722477
0.867338 0.860077 0.732994
0.885339 0.869674 0.743456
0.606159 0.752128 0.607795
0.627072 0.762602 0.618833
0.647839 0.772993 0.629822
0.668455 0.783306 0.640765
0.688911 0.793543 0.651664
0.709196 0.803703 0.662520
0.729295 0.813785 0.673330
0.749195 0.823789 0.684094
0.768881 0.833713 0.694810
0.788338 0.843555 0.705478
0.807550 0.853313 0.716094
0.826501 0.862986 0.726657
0.845177 0.872570 0.737165
0.863561 0.882066 0.747615
0.881637 0.891469 0.758007
0.899391 0.900779 0.768337
0.916805 0.909992 0.778603
0.643185 0.796299 0.644807
0.663904 0.806498 0.655745
0.684445 0.816604 0.666625
0.704807 0.826623 0.677452
0.724979 0.836554 0.688226
0.744949 0.846399 0.698948
0.764705 0.856156 0.709617
0.784231 0.865824 0.720231
0.803514 0.875401 0.730790
0.822537 0.884886 0.741291
0.841286 0.894277 0.751733
0.859746 0.903572 0.762113
0.877899 0.912769 0.772430
0.895732 0.921866 0.782682
0.913227 0.930861 0.792866
0.930370 0.939752 0.802981
0.947144 0.948536 0.813024
0.074848 0.075391 0.084419
0.092285 0.084549 0.093675
0.110033 0.093787 0.103008
0.128085 0.103108 0.112421
0.146428 0.112511 0.121914
0.165050 0.121996 0.131487
0.183934 0.131562 0.141138
0.203066 0.141207 0.150865
0.222430 0.150929 0.160668
0.242010 0.160727 0.170543
0.261790 0.170598 0.180489
0.281754 0.180540 0.190503
0.301886 0.190550 0.200584
0.322169 0.200628 0.210729
0.342587 0.210770 0.220936
0.363124 0.220974 0.231203
0.383764 0.231238 0.241527
0.106018 0.115069 0.115928
0.124063 0.124633 0.125499
0.142387 0.134264 0.135139
0.160984 0.143967 0.144849
0.179841 0.153742 0.154631
0.198947 0.163587 0.164484
0.218285 0.173503 0.174407
0.237840 0.183487 0.184397
0.257597 0.193538 0.194454
0.277540 0.203653 0.204576
0.297653 0.213830 0.214759
0.317920 0.224068 0.225003
0.338325 0.234365 0.235305
0.358851 0.244717 0.245663
0.379483 0.255124 0.256074
0.400204 0.265581 0.266537
0.420998 0.276089 0.277049
0.138245 0.156398 0.148464
0.156843 0.166322 0.158322
0.175690 0.176302 0.168240
0.194778 0.186342 0.178220
0.214097 0.196442 0.188262
0.233633 0.206604 0.198367
0.253371 0.216824 0.208533
0.273296 0.227101 0.218759
0.293392 0.237435 0.229042
0.313645 0.247822 0.239382
0.334038 0.258262 0.249775
0.354554 0.268751 0.260220
0.375179 0.279288 0.270715
0.395895 0.289870 0.281257
0.416687 0.300495 0.291845
0.437538 0.311162 0.302475
0.458432 0.321868 0.313147
0.171433 0.199186 0.181932
0.190532 0.209423 0.192049
0.209847 0.219706 0.202216
0.229373 0.230038 0.212437
0.249099 0.240419 0.222712
0.269012 0.250850 0.233040
0.289096 0.261330 0.243422
0.309337 0.271856 0.253854
0.329720 0.282427 0.264336
0.350229 0.293041 0.274865
0.370848 0.303697 0.285440
0.391561 0.314392 0.296058
0.412352 0.325124 0.306717
0.433204 0.335892 0.317416
0.454103 0.346691 0.328152
0.475031 0.357522 0.338922
0.495973 0.368380 0.349725
0.205488 0.243236 0.216236
0.225033 0.253742 0.226584
0.244763 0.264283 0.236972
0.264673 0.274861 0.247406
0.284752 0.285478 0.257884
0.304988 0.296133 0.268409
0.325365 0.306827 0.278977
0.345870 0.317556 0.289588
0.366485 0.328320 0.300239
0.387197 0.339116 0.310930
0.407988 0.349943 0.321658
0.428844 0.360799 0.332421
0.449748 0.371682 0.343218
0.470684 0.382588 0.354044
0.491636 0.393517 0.364900
0.512588 0.404466 0.375782
0.533523 0.415433 0.386688
0.240313 0.288357 0.251281
0.260250 0.299086 0.261831
0.280341 0.309838 0.272412
0.300582 0.320617 0.283030
0.320961 0.331424 0.293684
0.341467 0.342259 0.304376
0.362083 0.353121 0.315103
0.382797 0.364008 0.325864
0.403592 0.374920 0.336657
0.424453 0.385853 0.347482
0.445364 0.396806 0.358335
0.466309 0.407777 0.369215
0.487272 0.418765 0.380119
0.508238 0.429766 0.391047
0.529190 0.440779 0.401994
0.550112 0.451801 0.412959
0.570989 0.462831 0.423941
0.275813 0.334353 0.286971
0.296088 0.345259 0.297694
0.316487 0.356178 0.308441
0.337004 0.367112 0.319214
0.357630 0.378064 0.330016
0.378352 0.389033 0.340847
0.399154 0.400019 0.351704
0.420024 0.411019 0.362587
0.440944 0.422032 0.373495
0.461901 0.433057 0.384424
0.482878 0.444091 0.395374
0.503859 0.455133 0.406343
0.524829 0.466180 0.417328
0.545772 0.477231 0.428327
0.566670 0.488283 0.439338
0.587510 0.499333 0.450359
0.608273 0.510381 0.461387
0.311893 0.381030 0.323211
0.332452 0.392069 0.334079
0.353104 0.403108 0.344962
0.373845 0.414153 0.355863
0.394664 0.425204 0.366785
0.415547 0.436262 0.377725
0.436483 0.447325 0.388685
0.457454 0.458393 0.399662
0.478447 0.469463 0.410655
0.499446 0.480534 0.421662
0.520436 0.491604 0.432681
0.541400 0.502671 0.443710
0.562323 0.513733 0.454747
0.583188 0.524788 0.465790
0.603981 0.535834 0.476836
0.624684 0.546868 0.487884
0.645281 0.557889 0.498932
0.348456 0.428195 0.359906
0.369246 0.439320 0.370890
0.390098 0.450435 0.381881
0.411008 0.461544 0.392881
0.431966 0.472650 0.403893
0.452959 0.483751 0.414917
0.473973 0.494847 0.425951
0.494993 0.505937 0.436993
0.516005 0.517019 0.448043
0.536993 0.528091 0.459099
0.557942 0.539152 0.470159
0.578835 0.550199 0.481220
0.599658 0.561231 0.492281
0.620393 0.572245 0.503340
0.641025 0.583239 0.514394
0.661539 0.594211 0.525441
0.681917 0.605160 0.536479
0.385407 0.475653 0.396958
0.406374 0.486819 0.408031
0.427373 0.497964 0.419101
0.448398 0.509093 0.430173
0.469441 0.520207 0.441248
0.490489 0.531306 0.452325
0.511529 0.542390 0.463405
0.532545 0.553457 0.474485
0.553522 0.564505 0.485564
0.574446 0.575533 0.496641
0.595300 0.586539 0.507713
0.616070 0.597522 0.518778
0.636738 0.608478 0.529835
0.657290 0.619406 0.540881
0.677709 0.630304 0.551914
0.697980 0.641169 0.562933
0.718086 0.652000 0.573934
0.422651 0.523211 0.434274
0.443741 0.534372 0.445407
0.464832 0.545501 0.456528
0.485920 0.556604 0.467642
0.506995 0.567681 0.478751
0.528045 0.578733 0.489855
0.549056 0.589759 0.500952
0.570013 0.600758 0.512041
0.590903 0.611728 0.523122
0.611709 0.622667 0.534191
0.632416 0.633573 0.545247
0.653008 0.644445 0.556288
0.673469 0.655281 0.567313
0.693784 0.666078 0.578318
0.713937 0.676834 0.589303
0.733911 0.687548 0.600264
0.753691 0.698217 0.611200
0.460093 0.570674 0.471757
0.481252 0.581784 0.482921
0.502381 0.592853 0.494065
0.523477 0.603884 0.505194
0.544530 0.614879 0.516309
0.565528 0.625839 0.527410
0.586458 0.636762 0.538497
0.607304 0.647647 0.549567
0.628052 0.658493 0.560620
0.648686 0.669298 0.571654
0.669192 0.680059 0.582666
0.689553 0.690776 0.593655
0.709754 0.701446 0.604619
0.729779 0.712067 0.615556
0.749612 0.722637 0.626464
0.769237 0.733153 0.637340
0.788638 0.743614 0.648182
0.497636 0.617848 0.509312
0.518810 0.628863 0.520479
0.539924 0.639825 0.531618
0.560974 0.650739 0.542733
0.581952 0.661607 0.553825
0.602845 0.672429 0.564896
0.623639 0.683204 0.575944
0.644320 0.693930 0.586967
0.664873 0.704607 0.597964
0.685283 0.715232 0.608934
0.705534 0.725803 0.619874
0.725612 0.736320 0.630783
0.745499 0.746779 0.641659
0.765180 0.757178 0.652499
0.784640 0.767516 0.663301
0.803862 0.777791 0.674064
0.822830 0.787999 0.684785
0.535184 0.664539 0.546843
0.556320 0.675412 0.557985
0.577365 0.686223 0.569089
0.598317 0.696975 0.580162
0.619166 0.707670 0.591205
0.639899 0.718309 0.602217
0.660505 0.728890 0.613197
0.680967 0.739412 0.624145
0.701272 0.749875 0.635058
0.721404 0.760275 0.645936
0.741347 0.770611 0.656776
0.761086 0.780882 0.667577
0.780606 0.791085 0.678336
0.799891 0.801218 0.689051
0.818924 0.811279 0.699720
0.837690 0.821267 0.710341
0.856173 0.831178 0.720912
0.572644 0.710554 0.584255
0.593687 0.721240 0.595343
0.614609 0.731853 0.606385
0.635408 0.742397 0.617388
0.656074 0.752874 0.628351
0.676596 0.763285 0.639276
0.696959 0.773627 0.650161
0.717149 0.783900 0.661005
0.737152 0.794103 0.671807
0.756952 0.804233 0.682565
0.776534 0.814289 0.693276
0.795883 0.824269 0.703940
0.814982 0.834171 0.714554
0.833816 0.843993 0.725116
0.852370 0.853732 0.735624
0.870626 0.863387 0.746076
0.888570 0.872956 0.756469
0.609918 0.755698 0.621453
0.630814 0.766151 0.632458
0.651560 0.776521 0.643410
0.672153 0.786812 0.654313
0.692583 0.797026 0.665170
0.712838 0.807163 0.675979
0.732906 0.817221 0.686741
0.752770 0.827200 0.697453
0.772418 0.837097 0.708115
0.791833 0.846913 0.718724
0.811000 0.856643 0.729279
0.829905 0.866287 0.739778
0.848530 0.875843 0.750219
0.866861 0.885308 0.760600
0.884881 0.894680 0.770918
0.902575 0.903958 0.781172
0.919926 0.913139 0.791360
0.646912 0.799776 0.658339
0.667608 0.809951 0.669234
0.688123 0.820033 0.680067
0.708456 0.830026 0.690843
0.728596 0.839931 0.701565
0.748532 0.849749 0.712230
0.768250 0.859477 0.722840
0.787735 0.869117 0.733392
0.806974 0.878664 0.743886
0.825951 0.888119 0.754319
0.844650 0.897479 0.764689
0.863057 0.906742 0.774995
0.881155 0.915906 0.785235
0.898928 0.924969 0.795406
0.916362 0.933929 0.805507
0.933440 0.942785 0.815535
0.950146 0.951533 0.825489
0.077963 0.078508 0.095934
0.095464 0.087700 0.105310
0.113272 0.096971 0.114760
0.131382 0.106324 0.124286
0.149780 0.115758 0.133889
0.168453 0.125274 0.143569
0.187386 0.134870 0.153323
0.206563 0.144544 0.163151
0.225970 0.154294 0.173051
0.245589 0.164119 0.183020
0.265405 0.174016 0.193057
0.285402 0.183983 0.203160
0.305564 0.194019 0.213326
0.325874 0.204120 0.223553
0.346317 0.214284 0.233839
0.366875 0.224511 0.244181
0.387533 0.234796 0.254578
0.109244 0.118325 0.127834
0.127347 0.127919 0.137515
0.145727 0.137580 0.147260
0.164376 0.147312 0.157073
0.183283 0.157114 0.166955
0.202435 0.166987 0.176904
0.221816 0.176929 0.186920
0.241411 0.186938 0.197001
0.261205 0.197013 0.207145
0.281182 0.207151 0.217350
0.301326 0.217352 0.227614
0.321620 0.227612 0.237936
0.342050 0.237929 0.248312
0.362598 0.248302 0.258742
0.383248 0.258727 0.269221
0.403985 0.269203 0.279749
0.424791 0.279728 0.290323
0.141573 0.159778 0.160725
0.160225 0.169729 0.170683
0.179121 0.179734 0.180696
0.198256 0.189800 0.190768
0.217619 0.199925 0.200900
0.237195 0.210109 0.211090
0.256971 0.220352 0.221339
0.276930 0.230651 0.231644
0.297059 0.241005 0.242004
0.317340 0.251412 0.252417
0.337758 0.261871 0.262881
0.358297 0.272378 0.273393
0.378941 0.282932 0.283952
0.399673 0.293531 0.294556
0.420478 0.304172 0.305201
0.441340 0.314854 0.315887
0.462241 0.325573 0.326610
0.174854 0.202674 0.194513
0.194000 0.212935 0.204719
0.213360 0.223240 0.214971
0.232927 0.233593 0.225274
0.252692 0.243995 0.235627
0.272639 0.254446 0.246032
0.292756 0.264944 0.256485
0.313026 0.275488 0.266987
0.333435 0.286077 0.277535
0.353967 0.296707 0.288127
0.374606 0.307379 0.298761
0.395336 0.318088 0.309436
0.416141 0.328834 0.320150
0.437004 0.339614 0.330899
0.457911 0.350426 0.341682
0.478844 0.361267 0.352497
0.499787 0.372136 0.363341
0.208991 0.246818 0.229102
0.228578 0.257343 0.239528
0.248347 0.267902 0.249991
0.268293 0.278498 0.260496
0.288406 0.289132 0.271043
0.308671 0.299804 0.281632
0.329075 0.310512 0.292262
0.349603 0.321256 0.302932
0.370240 0.332033 0.313639
0.390969 0.342842 0.324383
0.411775 0.353681 0.335160
0.432642 0.364548 0.345970
0.453554 0.375440 0.356809
0.474496 0.386356 0.367677
0.495450 0.397294 0.378569
0.516401 0.408250 0.389485
0.537333 0.419224 0.400423
0.243889 0.292016 0.264397
0.263862 0.302761 0.275014
0.283987 0.313528 0.285660
0.304259 0.324321 0.296338
0.324666 0.335141 0.307051
0.345195 0.345989 0.317796
0.365833 0.356862 0.328575
0.386565 0.367760 0.339384
0.407375 0.378681 0.350223
0.428248 0.389623 0.361090
0.449169 0.400585 0.371982
0.470120 0.411564 0.382898
0.491086 0.422557 0.393836
0.512052 0.433564 0.404793
0.533001 0.444582 0.415767
0.553918 0.455608 0.426756
0.574785 0.466641 0.437758
0.279452 0.338073 0.300301
0.299759 0.348992 0.311081
0.320185 0.359922 0.321881
0.340728 0.370867 0.332705
0.361376 0.381829 0.343555
0.382116 0.392806 0.354429
0.402935 0.403800 0.365328
0.423817 0.414807 0.376249
0.444748 0.425826 0.387191
0.465711 0.436857 0.398153
0.486692 0.447895 0.409131
0.507674 0.458941 0.420126
0.528641 0.469991 0.431133
0.549578 0.481044 0.442151
0.570469 0.492097 0.453179
0.591296 0.503148 0.464213
0.612045 0.514195 0.475252
0.315585 0.384797 0.336720
0.336171 0.395844 0.347635
0.356846 0.406891 0.358561
0.377606 0.417943 0.369502
0.398441 0.429000 0.380460
0.419338 0.440063 0.391435
0.440284 0.451131 0.402425
0.461263 0.462202 0.413430
0.482260 0.473275 0.424447
0.503261 0.484347 0.435475
0.524249 0.495419 0.446512
0.545208 0.506486 0.457557
0.566123 0.517547 0.468606
0.586978 0.528600 0.479658
0.607756 0.539643 0.490710
0.628442 0.550674 0.501761
0.649020 0.561691 0.512809
0.352192 0.431993 0.373558
0.373003 0.443122 0.384579
0.393872 0.454241 0.395602
0.414796 0.465354 0.406632
0.435765 0.476462 0.417671
0.456766 0.487564 0.428717
0.477785 0.498661 0.439771
0.498807 0.509751 0.450831
0.519818 0.520832 0.461895
0.540802 0.531902 0.472962
0.561744 0.542960 0.484029
0.582627 0.554004 0.495096
0.603436 0.565031 0.506158
0.624156 0.576040 0.517216
0.644769 0.587028 0.528265
0.665260 0.597994 0.539305
0.685613 0.608934 0.550333
0.389178 0.479466 0.410719
0.410160 0.490633 0.421817
0.431170 0.501778 0.432910
0.452204 0.512907 0.444000
0.473253 0.524019 0.455091
0.494304 0.535117 0.466182
0.515343 0.546197 0.477271
0.536355 0.557260 0.488358
0.557326 0.568304 0.499441
0.578240 0.579327 0.510518
0.599082 0.590327 0.521587
0.619836 0.601302 0.532647
0.640486 0.612250 0.543695
0.661016 0.623169 0.554730
0.681411 0.634058 0.565748
0.701653 0.644913 0.576749
0.721729 0.655732 0.587729
0.426446 0.527023 0.448108
0.447545 0.538182 0.459255
0.468643 0.549308 0.470388
0.489734 0.560406 0.481511
0.510809 0.571479 0.492626
0.531856 0.582525 0.503732
0.552861 0.593545 0.514828
0.573810 0.604536 0.525914
0.594688 0.615497 0.536987
0.615478 0.626427 0.548047
0.636167 0.637324 0.559090
0.656738 0.648185 0.570116
0.677176 0.659009 0.581121
0.697464 0.669794 0.592104
0.717586 0.680537 0.603064
0.737527 0.691236 0.613997
0.757271 0.701890 0.624901
0.463902 0.574470 0.485629
0.485065 0.585574 0.496797
0.506195 0.596636 0.507942
0.527289 0.607660 0.519069
0.548337 0.618647 0.530180
0.569327 0.629597 0.541273
0.590245 0.640510 0.552348
0.611077 0.651384 0.563404
0.631808 0.662218 0.574440
0.652422 0.673009 0.585453
0.672904 0.683757 0.596442
0.693239 0.694460 0.607405
0.713410 0.705114 0.618340
0.733403 0.715719 0.629244
0.753200 0.726272 0.640116
0.772786 0.736771 0.650954
0.792146 0.747214 0.661754
0.501450 0.621613 0.523186
0.522623 0.632618 0.534347
0.543732 0.643569 0.545476
0.564775 0.654472 0.556579
0.585742 0.665328 0.567656
0.606622 0.676137 0.578709
0.627399 0.686898 0.589735
0.648060 0.697609 0.600733
0.668590 0.708271 0.611703
0.688975 0.718879 0.622642
0.709197 0.729434 0.633549
0.729242 0.739932 0.644421
0.749094 0.750372 0.655257
0.768738 0.760752 0.666054
0.788157 0.771069 0.676810
0.807335 0.781323 0.687524
0.826256 0.791509 0.698193
0.538994 0.668257 0.560684
0.560123 0.679117 0.571809
0.581158 0.689913 0.582894
0.602096 0.700650 0.593944
0.622929 0.711329 0.604961
0.643644 0.721951 0.615944
0.664227 0.732515 0.626892
0.684664 0.743019 0.637805
0.704941 0.753462 0.648681
0.725041 0.763843 0.659517
0.744950 0.774158 0.670313
0.764653 0.784407 0.681067
0.784132 0.794588 0.691775
0.803373 0.804698 0.702437
0.822360 0.814735 0.713050
0.841077 0.824697 0.723612
0.859507 0.834582 0.734120
0.576439 0.714209 0.598028
0.597469 0.724878 0.609089
0.618376 0.735473 0.620101
0.639157 0.745999 0.631070
0.659802 0.756457 0.641997
0.680298 0.766847 0.652883
0.700634 0.777168 0.663726
0.720794 0.787419 0.674524
0.740763 0.797599 0.685278
0.760526 0.807705 0.695984
0.780069 0.817737 0.706641
0.799375 0.827692 0.717247
0.818428 0.837567 0.727800
0.837214 0.847362 0.738299
0.855715 0.857074 0.748740
0.873917 0.866700 0.759122
0.891803 0.876239 0.769442
0.613689 0.759274 0.635122
0.634567 0.769707 0.646089
0.655293 0.780055 0.657001
0.675861 0.790324 0.667861
0.696264 0.800515 0.678670
0.716490 0.810628 0.689430
0.736524 0.820662 0.700139
0.756353 0.830615 0.710795
0.775961 0.840486 0.721398
0.795334 0.850274 0.731945
0.814456 0.859976 0.742436
0.833313 0.869591 0.752867
0.851887 0.879117 0.763237
0.870163 0.888552 0.773543
0.888126 0.897893 0.783785
0.905760 0.907138 0.793959
0.923049 0.916286 0.804063
0.650649 0.803259 0.671870
0.671321 0.813410 0.682716
0.691811 0.823466 0.693498
0.712114 0.833433 0.704221
0.732222 0.843312 0.714885
0.752122 0.853102 0.725490
0.771802 0.862802 0.736037
0.791246 0.872412 0.746523
0.810440 0.881930 0.756947
0.829369 0.891354 0.767307
0.848018 0.900682 0.777602
0.866371 0.909912 0.787830
0.884412 0.919043 0.797988
0.902127 0.928072 0.808075
0.919498 0.936998 0.818089
0.936510 0.945817 0.828026
0.953148 0.954528 0.837886
0.081097 0.081644 0.107631
0.098662 0.090871 0.117123
0.116532 0.100175 0.126686
0.134699 0.109560 0.136322
0.153151 0.119026 0.146031
0.171875 0.128572 0.155814
0.190856 0.138197 0.165669
0.210079 0.147900 0.175594
0.229527 0.157678 0.185587
0.249185 0.167529 0.195647
0.269037 0.177452 0.205772
0.289067 0.187445 0.215958
0.309258 0.197505 0.226206
0.329595 0.207629 0.236511
0.350061 0.217817 0.246872
0.370640 0.228065 0.257286
