assets/luts/archive_cyanotype.cube
# Архивная цианотипия — синий отпечаток обмеров и планов
TITLE "archive_cyanotype"
LUT_3D_SIZE 5
DOMAIN_MIN 0.0 0.0 0.0
DOMAIN_MAX 1.0 1.0 1.0
0.051181 0.057592 0.074749
0.164968 0.080201 0.097785
0.281753 0.102043 0.120006
0.400881 0.123727 0.142035
0.520176 0.145404 0.164030
0.130824 0.236281 0.156284
0.252264 0.262189 0.181001
0.373722 0.286912 0.204701
0.495020 0.311180 0.228067
0.614172 0.335186 0.251277
0.215429 0.431612 0.242343
0.342507 0.458943 0.268326
0.466757 0.484778 0.293112
0.588419 0.509911 0.317433
0.705675 0.534562 0.341486
0.303887 0.630655 0.331831
0.434648 0.657574 0.358675
0.559860 0.682791 0.384168
0.680115 0.707111 0.409076
0.793748 0.730758 0.433609
0.394932 0.820402 0.423488
0.527451 0.845095 0.450797
0.651814 0.867984 0.476621
0.768911 0.889826 0.501752
0.877208 0.910839 0.526408
0.059381 0.065854 0.183437
0.174081 0.088672 0.208604
0.291454 0.110700 0.232694
0.410900 0.132553 0.256407
0.530265 0.154386 0.279927
0.139703 0.245788 0.271661
0.261844 0.271812 0.297973
0.383691 0.296633 0.323035
0.505115 0.320984 0.347592
0.624146 0.345062 0.371843
0.224833 0.441673 0.362525
0.352403 0.469026 0.389570
0.476845 0.494871 0.415216
0.598440 0.520004 0.440240
0.715387 0.544643 0.464854
0.313667 0.640593 0.454990
0.444712 0.667443 0.482366
0.569919 0.692583 0.508218
0.689916 0.716817 0.533343
0.803052 0.740370 0.557960
0.404941 0.829549 0.547820
0.537536 0.854081 0.575133
0.661699 0.876806 0.600817
0.778347 0.898479 0.625680
0.885961 0.919315 0.649946
0.068025 0.074562 0.305827
0.183653 0.097593 0.332465
0.301618 0.119810 0.357792
0.421375 0.141835 0.382570
0.540791 0.163827 0.407001
0.149039 0.255759 0.398431
0.271888 0.281898 0.425653
0.394119 0.306816 0.451423
0.515650 0.331250 0.476530
0.634534 0.355399 0.501188
0.234700 0.452184 0.491730
0.362759 0.479557 0.519128
0.487379 0.505408 0.544959
0.608881 0.530535 0.570023
0.725484 0.555158 0.594544
0.323910 0.650941 0.584732
0.455226 0.677713 0.611909
0.580405 0.702768 0.637424
0.700111 0.726908 0.662081
0.812707 0.750358 0.686107
0.415407 0.839035 0.676227
0.548057 0.863394 0.702788
0.671987 0.885943 0.727615
0.788144 0.907434 0.751504
0.895023 0.928081 0.774682
0.076971 0.083572 0.436951
0.193525 0.106816 0.464294
0.312072 0.129222 0.490135
0.432124 0.151419 0.515269
0.551569 0.173568 0.539914
0.158675 0.266024 0.531285
0.282225 0.292276 0.558637
0.404825 0.317289 0.584379
0.526443 0.341803 0.609315
0.645154 0.366019 0.633670
0.244863 0.462965 0.624344
0.373398 0.490352 0.651304
0.498175 0.516204 0.676568
0.619560 0.541321 0.700940
0.735787 0.565922 0.724644
0.334440 0.661515 0.715176
0.466010 0.688203 0.741348
0.591136 0.713167 0.765761
0.710519 0.737206 0.789205
0.822539 0.760545 0.811905
0.426147 0.848688 0.802587
0.558828 0.872864 0.827578
0.682496 0.895229 0.850770
0.798127 0.916529 0.872928
0.904230 0.936977 0.894271
0.082893 0.089535 0.524312
0.200041 0.112916 0.551679
0.318957 0.135443 0.577441
0.439189 0.157750 0.602404
0.558641 0.180001 0.626793
0.165041 0.272790 0.618263
0.289036 0.299114 0.645262
0.411865 0.324185 0.670569
0.533528 0.348750 0.694988
0.652111 0.373008 0.718747
0.251564 0.470049 0.709660
0.380397 0.497442 0.735892
0.505266 0.523292 0.760368
0.626560 0.548399 0.783880
0.742528 0.572983 0.806652
0.341372 0.668442 0.797568
0.473094 0.695071 0.822639
0.598173 0.719972 0.845913
0.717332 0.743942 0.868157
0.828960 0.767206 0.889589
0.433208 0.854989 0.880804
0.565895 0.879042 0.904323
0.689378 0.901283 0.926026
0.804650 0.922454 0.946643
0.910230 0.942769 0.966383
