assets/luts/archive_cyanotype.cube
# Архивная цианотипия — синий отпечаток обмеров и планов
TITLE "archive_cyanotype"
LUT_3D_SIZE 9
DOMAIN_MIN 0.0 0.0 0.0
DOMAIN_MAX 1.0 1.0 1.0
0.051181 0.057592 0.074749
0.107890 0.069089 0.086468
0.164968 0.080201 0.097785
0.222951 0.091159 0.108937
0.281753 0.102043 0.120006
0.341153 0.112892 0.131031
0.400881 0.123727 0.142035
0.460653 0.134561 0.153031
0.520176 0.145404 0.164030
0.090334 0.144074 0.114904
0.149307 0.156554 0.127088
0.208207 0.168572 0.138834
0.267645 0.180385 0.150392
0.327569 0.192081 0.161845
0.387776 0.203703 0.173237
0.448012 0.215275 0.184591
0.508000 0.226815 0.195923
0.567458 0.238332 0.207242
0.130824 0.236281 0.156284
0.191796 0.249498 0.168879
0.252264 0.262189 0.181001
0.312913 0.274629 0.192913
0.373722 0.286912 0.204701
0.434505 0.299087 0.216411
0.495020 0.311180 0.228067
0.555001 0.323209 0.239685
0.614172 0.335186 0.251277
0.172569 0.332667 0.198809
0.235281 0.346382 0.211761
0.297074 0.359517 0.224210
0.358697 0.372362 0.236426
0.420159 0.385015 0.248501
0.481290 0.397526 0.260480
0.541862 0.409927 0.272391
0.601616 0.422234 0.284249
0.660283 0.434462 0.296068
0.215429 0.431612 0.242343
0.279630 0.445589 0.255600
0.342507 0.458943 0.268326
0.404871 0.471971 0.280798
0.466757 0.484778 0.293112
0.528013 0.497414 0.305314
0.588419 0.509911 0.317433
0.647727 0.522289 0.329486
0.705675 0.534562 0.341486
0.259255 0.531484 0.286736
0.324693 0.545488 0.300246
0.388416 0.558837 0.313200
0.451291 0.571832 0.325880
0.513374 0.584578 0.338386
0.574531 0.597128 0.350765
0.634553 0.609513 0.363047
0.693199 0.621755 0.375249
0.750212 0.633867 0.387384
0.303887 0.630655 0.331831
0.370315 0.644452 0.345543
0.434648 0.657574 0.358675
0.497803 0.670319 0.371517
0.559860 0.682791 0.384168
0.620697 0.695045 0.396678
0.680115 0.707111 0.409076
0.737882 0.719010 0.421382
0.793748 0.730758 0.433609
0.349166 0.727500 0.377468
0.416338 0.740859 0.391332
0.481046 0.753532 0.404594
0.544253 0.765811 0.417550
0.606059 0.777798 0.430299
0.666355 0.789546 0.442894
0.724953 0.801086 0.455364
0.781626 0.812439 0.467730
0.836131 0.823619 0.480003
0.394932 0.820402 0.423488
0.462601 0.833092 0.437452
0.527451 0.845095 0.450797
0.590482 0.856693 0.463819
0.651814 0.867984 0.476621
0.711351 0.879018 0.489255
0.768911 0.889826 0.501752
0.824276 0.900429 0.514132
0.877208 0.910839 0.526408
0.055208 0.061650 0.127004
0.112166 0.073201 0.139314
0.169447 0.084362 0.151177
0.227594 0.095368 0.162844
0.286525 0.106297 0.174402
0.346020 0.117188 0.185893
0.405812 0.128064 0.197341
0.465617 0.138938 0.208762
0.525144 0.149819 0.220166
0.094538 0.148484 0.169078
0.153735 0.161006 0.181786
0.212812 0.173063 0.194013
0.272389 0.184912 0.206022
0.332417 0.196642 0.217903
0.392696 0.208296 0.229699
0.452972 0.219899 0.241437
0.512970 0.231467 0.253133
0.572407 0.243012 0.264798
0.135187 0.240956 0.212137
0.196355 0.254204 0.225188
0.256975 0.266922 0.237728
0.317739 0.279387 0.250028
0.378628 0.291694 0.262182
0.439458 0.303890 0.274235
0.499990 0.316003 0.286215
0.559958 0.328050 0.298138
0.619085 0.340044 0.310017
0.177071 0.337522 0.256110
0.239954 0.351256 0.269451
0.301873 0.364407 0.282253
0.363586 0.377266 0.294795
0.425104 0.389932 0.307174
0.486259 0.402455 0.319437
0.546823 0.414865 0.331611
0.606540 0.427181 0.343716
0.665141 0.439416 0.355762
0.220053 0.436564 0.300864
0.284397 0.450547 0.314443
0.347375 0.463906 0.327458
0.409805 0.476938 0.340195
0.471723 0.489747 0.352751
0.532979 0.502384 0.365176
0.593355 0.514881 0.377499
0.652603 0.527257 0.389739
0.710461 0.539526 0.401908
0.263981 0.536449 0.346252
0.329537 0.550448 0.360017
0.393336 0.563791 0.373196
0.456252 0.576779 0.386079
0.518343 0.589516 0.398766
0.579477 0.602056 0.411308
0.639444 0.614431 0.423734
0.698006 0.626660 0.436064
0.754908 0.638759 0.448310
0.308698 0.635551 0.392118
0.375217 0.649332 0.406019
0.439601 0.662436 0.419313
0.502773 0.675163 0.432295
0.564814 0.687616 0.445066
0.625603 0.699849 0.457678
0.684944 0.711894 0.470162
0.742605 0.723771 0.482537
0.798335 0.735495 0.494816
0.354044 0.732244 0.438305
0.421280 0.745575 0.452291
0.486015 0.758220 0.465651
0.549213 0.770470 0.478684
0.610979 0.782427 0.491494
0.671205 0.794144 0.504131
0.729702 0.805653 0.516627
0.786246 0.816973 0.529002
0.840593 0.828119 0.541270
0.399858 0.824913 0.484653
0.467566 0.837563 0.498673
0.532417 0.849527 0.512052
0.595416 0.861085 0.525090
0.656684 0.872336 0.537891
0.716126 0.883329 0.550507
0.773563 0.894095 0.562971
0.828775 0.904655 0.575302
0.881526 0.915021 0.587515
0.059381 0.065854 0.183437
0.116594 0.077460 0.196266
0.174081 0.088672 0.208604
0.232393 0.099725 0.220717
0.291454 0.110700 0.232694
0.351045 0.121635 0.244582
0.410900 0.132553 0.256407
0.470737 0.143467 0.268185
0.530265 0.154386 0.279927
0.098893 0.153047 0.227179
0.158316 0.165612 0.240336
0.217573 0.177708 0.252972
0.277290 0.189593 0.265361
0.337423 0.201358 0.277597
0.397773 0.213044 0.289728
0.458088 0.224679 0.301780
0.518093 0.236277 0.313771
0.577508 0.247849 0.325713
0.139703 0.245788 0.271661
0.201071 0.259066 0.285091
0.261844 0.271812 0.297973
0.322723 0.284302 0.310589
0.383691 0.296633 0.323035
0.444569 0.308851 0.335360
0.505115 0.320984 0.347592
0.565065 0.333050 0.359748
0.624146 0.345062 0.371843
0.181729 0.342536 0.316819
0.244784 0.356288 0.330470
0.306830 0.369456 0.343548
0.368634 0.382328 0.356342
0.430206 0.395007 0.368950
0.491383 0.407540 0.381421
0.551938 0.419960 0.393786
0.611614 0.432284 0.406063
0.670144 0.444526 0.418264
0.224833 0.441673 0.362525
0.289323 0.455663 0.376345
0.352403 0.469026 0.389570
0.414897 0.482061 0.402494
0.476845 0.494871 0.415216
0.538098 0.507509 0.427788
0.598440 0.520004 0.440240
0.657623 0.532378 0.452591
0.715387 0.544643 0.464854
0.268865 0.541568 0.408633
0.334539 0.555561 0.422570
0.398414 0.568897 0.435894
0.461369 0.581877 0.448899
0.523466 0.594604 0.461689
0.584573 0.607134 0.474316
0.644482 0.619496 0.486809
0.702955 0.631713 0.499189
0.759738 0.643797 0.511470
0.313667 0.640593 0.454990
0.380278 0.654356 0.468993
0.444712 0.667443 0.482366
0.507897 0.680150 0.495407
0.569919 0.692583 0.508218
0.630657 0.704795 0.520853
0.689916 0.716817 0.533343
0.747464 0.728670 0.545707
0.803052 0.740370 0.557960
0.359079 0.737126 0.501438
0.426380 0.750428 0.515458
0.491139 0.763043 0.528832
0.554327 0.775262 0.541860
0.616049 0.787188 0.554647
0.676199 0.798873 0.567245
0.734589 0.810349 0.579686
0.790997 0.821635 0.591990
0.845177 0.832746 0.604171
0.404941 0.829549 0.547820
0.472687 0.842158 0.561806
0.537536 0.854081 0.575133
0.600499 0.865598 0.588102
0.661699 0.876806 0.600817
0.721041 0.887756 0.613333
0.778347 0.898479 0.625680
0.833399 0.908994 0.637880
0.885961 0.919315 0.649946
0.063660 0.070165 0.243253
0.121129 0.081826 0.256515
0.178823 0.093089 0.269246
0.237303 0.104191 0.281723
0.296493 0.115212 0.294041
0.356179 0.126191 0.306248
0.416096 0.137150 0.318371
0.475963 0.148105 0.330427
0.535489 0.159063 0.342430
0.103355 0.157719 0.288372
0.163006 0.170327 0.301890
0.222443 0.182462 0.314851
0.282302 0.194384 0.327538
0.342539 0.206183 0.340050
0.402959 0.217903 0.352435
0.463310 0.229568 0.364721
0.523320 0.241196 0.376928
0.582708 0.252796 0.389067
0.144327 0.250730 0.333983
0.205895 0.264039 0.347703
0.266823 0.276812 0.360843
0.327816 0.289328 0.373691
0.388863 0.301681 0.386347
0.449785 0.313921 0.398862
0.510343 0.326074 0.411265
0.570274 0.338159 0.423575
0.629304 0.350188 0.435805
0.186496 0.347659 0.380029
0.249723 0.361429 0.393899
0.311897 0.374612 0.407167
0.373790 0.387499 0.420128
0.435415 0.400189 0.432881
0.496612 0.412734 0.445479
0.557153 0.425163 0.457952
0.616785 0.437494 0.470320
0.675240 0.449742 0.482595
0.229723 0.446888 0.426385
0.294358 0.460884 0.440353
0.357538 0.474251 0.453701
0.420096 0.487289 0.466726
0.482072 0.500100 0.479530
0.543320 0.512737 0.492165
0.603624 0.525231 0.504662
0.662738 0.537601 0.517042
0.720403 0.549862 0.529317
0.273859 0.546788 0.472907
0.339650 0.560775 0.486923
0.403600 0.574103 0.500302
0.466592 0.587074 0.513343
0.528692 0.599792 0.526150
0.589768 0.612310 0.538777
0.649615 0.624660 0.551253
0.707995 0.636862 0.563599
0.764655 0.648931 0.575830
0.318746 0.645731 0.519444
0.385446 0.659476 0.533457
0.449928 0.672543 0.546818
0.513126 0.685231 0.559829
0.575125 0.697642 0.572593
0.635808 0.709831 0.585165
0.694980 0.721830 0.597575
0.752410 0.733659 0.609844
0.807851 0.745332 0.621986
0.364224 0.742096 0.565840
0.431587 0.755367 0.579799
0.496367 0.767951 0.593094
0.559541 0.780139 0.606028
0.621216 0.792033 0.618703
0.681285 0.803684 0.631175
0.739565 0.815125 0.643473
0.795830 0.826376 0.655620
0.849839 0.837450 0.667629
0.410133 0.834265 0.611938
0.477913 0.846830 0.625793
0.542758 0.858711 0.638974
0.605681 0.870185 0.651783
0.666808 0.881350 0.664324
0.726045 0.892256 0.676650
0.783216 0.902933 0.688793
0.838102 0.913401 0.700773
0.890467 0.923675 0.712605
0.068025 0.074562 0.305827
0.125751 0.086278 0.319429
0.183653 0.097593 0.332465
0.242299 0.108743 0.345219
0.301618 0.119810 0.357792
0.361398 0.130833 0.370233
0.421375 0.141835 0.382570
0.481269 0.152830 0.394821
0.540791 0.163827 0.407001
0.107903 0.162479 0.352008
0.167784 0.175129 0.365793
0.227401 0.187303 0.378989
0.287399 0.199262 0.391887
0.347739 0.211096 0.404587
0.408227 0.222848 0.417141
0.468613 0.234544 0.429577
0.528625 0.246201 0.441915
0.587984 0.257829 0.454167
0.149039 0.255759 0.398431
0.210807 0.269098 0.412347
0.271888 0.281898 0.425653
0.332995 0.294439 0.438644
0.394119 0.306816 0.451423
0.455083 0.319077 0.464042
0.515650 0.331250 0.476530
0.575558 0.343353 0.488908
0.634534 0.355399 0.501188
0.191349 0.352866 0.445046
0.254749 0.366654 0.459040
0.317050 0.379853 0.472406
0.379029 0.392753 0.485443
0.440706 0.405455 0.498253
0.501920 0.418010 0.510891
0.562445 0.430447 0.523385
0.622029 0.442786 0.535756
0.680406 0.455040 0.548019
0.234700 0.452184 0.491730
0.299479 0.466186 0.505751
0.362759 0.479557 0.519128
0.425377 0.492596 0.532163
0.487379 0.505408 0.544959
0.548618 0.518044 0.557568
0.608881 0.530535 0.570023
0.667923 0.542902 0.582343
0.725484 0.555158 0.594544
0.278939 0.552085 0.538342
0.344846 0.566065 0.552339
0.408869 0.579385 0.565680
0.471896 0.592346 0.578664
0.533995 0.605053 0.591398
0.595038 0.617559 0.603935
0.654819 0.629895 0.616305
0.713102 0.642083 0.628529
0.769633 0.654136 0.640622
0.323910 0.650941 0.584732
0.390698 0.664666 0.598654
0.455226 0.677713 0.611909
0.518432 0.690379 0.624797
0.580405 0.702768 0.637424
0.641030 0.714934 0.649841
0.700111 0.726908 0.662081
0.757419 0.738712 0.674165
0.812707 0.750358 0.686107
0.369452 0.747130 0.630746
0.436875 0.760369 0.644543
0.501675 0.772921 0.657664
0.564832 0.785076 0.670409
0.626455 0.796936 0.682881
0.686441 0.808553 0.695134
0.744604 0.819959 0.707200
0.800723 0.831173 0.719099
0.854555 0.842210 0.730846
0.415407 0.839035 0.676227
0.483219 0.851557 0.689848
0.548057 0.863394 0.702788
0.610937 0.874824 0.715342
0.671987 0.885943 0.727615
0.731115 0.896804 0.739658
0.788144 0.907434 0.751504
0.842859 0.917855 0.763174
0.895023 0.928081 0.774682
0.072465 0.079034 0.370582
0.130448 0.090806 0.384426
0.188556 0.102171 0.397672
0.247368 0.113370 0.410613
0.306814 0.124483 0.423351
0.366686 0.135550 0.435936
0.426721 0.146594 0.448398
0.486639 0.157629 0.460757
0.546154 0.168665 0.473027
0.112526 0.167312 0.417493
0.172635 0.180005 0.431447
0.232432 0.192218 0.444783
0.292568 0.204214 0.457799
0.353009 0.216082 0.470597
0.413563 0.227867 0.483229
0.473981 0.239594 0.495725
0.533992 0.251280 0.508105
0.593319 0.262935 0.520384
0.153824 0.260860 0.464396
0.215792 0.274229 0.478407
0.277025 0.287056 0.491784
0.338244 0.299622 0.504825
0.399442 0.312021 0.517636
0.460447 0.324304 0.530267
0.521020 0.336496 0.542750
0.580903 0.348617 0.555106
0.639821 0.360679 0.567348
0.196277 0.358143 0.511245
0.259848 0.371949 0.525262
0.322273 0.385162 0.538630
0.384338 0.398075 0.551649
0.446063 0.410789 0.564425
0.507291 0.423353 0.577009
0.567798 0.435799 0.589434
0.627331 0.448145 0.601720
0.685624 0.460404 0.613881
0.239750 0.457547 0.557921
0.304671 0.471553 0.571893
0.368048 0.484927 0.585203
0.430726 0.497968 0.598153
0.492750 0.510779 0.610847
0.553978 0.523413 0.623339
0.614197 0.535902 0.635660
0.673162 0.548264 0.647830
0.730616 0.560514 0.659865
0.284091 0.557443 0.604286
0.350113 0.571415 0.618161
0.414205 0.584726 0.631365
0.477264 0.597677 0.644198
0.539361 0.610372 0.656764
0.600367 0.622865 0.669117
0.660078 0.635187 0.681289
0.718260 0.647360 0.693300
0.774658 0.659396 0.705165
0.329144 0.656205 0.650188
0.396018 0.669911 0.663917
0.460590 0.682936 0.676966
0.523802 0.695580 0.689636
0.585746 0.707947 0.702028
0.646308 0.720088 0.714198
0.705294 0.732037 0.726175
0.762476 0.743814 0.737982
0.817607 0.755433 0.749633
0.374750 0.752212 0.695477
0.442231 0.765418 0.709008
0.507047 0.777937 0.721855
0.570183 0.790059 0.734314
0.631751 0.801885 0.746487
0.691649 0.813466 0.758427
0.749693 0.824835 0.770166
0.805660 0.836011 0.781724
0.859310 0.847010 0.793116
0.420748 0.843846 0.739995
0.488590 0.856323 0.753279
0.553417 0.868115 0.765876
0.616250 0.879499 0.778077
0.677220 0.890573 0.789985
0.736234 0.901386 0.801651
0.793118 0.911969 0.813106
0.847656 0.922342 0.824372
0.899614 0.932518 0.835462
0.076971 0.083572 0.436951
0.135211 0.095399 0.450935
0.193525 0.106816 0.464294
0.252500 0.118063 0.477326
0.312072 0.129222 0.490135
0.372033 0.140333 0.502772
0.432124 0.151419 0.515269
0.492064 0.162494 0.527645
0.551569 0.173568 0.539914
0.117216 0.172211 0.484247
0.177552 0.184946 0.498267
0.237526 0.197198 0.511646
0.297799 0.209230 0.524684
0.358340 0.221132 0.537485
0.418957 0.232949 0.550102
0.479404 0.244707 0.562566
0.539412 0.256421 0.574898
0.598702 0.268104 0.587111
0.158675 0.266024 0.531285
0.220842 0.279422 0.545288
0.282225 0.292276 0.558637
0.343553 0.304866 0.571633
0.404825 0.317289 0.584379
0.465866 0.329591 0.596929
0.526443 0.341803 0.609315
0.586297 0.353942 0.621557
0.645154 0.366019 0.633670
0.201269 0.363480 0.578022
0.265010 0.377303 0.591958
0.327558 0.390531 0.605229
0.389705 0.403456 0.618134
0.451477 0.416180 0.630778
0.512717 0.428754 0.643216
0.573201 0.441207 0.655478
0.632679 0.453559 0.667585
0.690886 0.465823 0.679552
0.244863 0.462965 0.624344
0.309925 0.476976 0.638162
0.373398 0.490352 0.651304
0.436131 0.503394 0.664072
0.498175 0.516204 0.676568
0.559389 0.528836 0.688847
0.619560 0.541321 0.700940
0.678446 0.553678 0.712867
0.735787 0.565922 0.724644
0.289305 0.562852 0.670111
0.355439 0.576816 0.683759
0.419599 0.590117 0.696726
0.482688 0.603057 0.709309
0.544779 0.615740 0.721611
0.605744 0.628219 0.733686
0.665382 0.640526 0.745564
0.723458 0.652682 0.757268
0.779720 0.664701 0.768810
0.334440 0.661515 0.715176
0.401397 0.675199 0.728604
0.466010 0.688203 0.741348
0.529224 0.700824 0.753699
0.591136 0.713167 0.765761
0.651632 0.725283 0.777585
0.710519 0.737206 0.789205
0.767570 0.748955 0.800640
0.822539 0.760545 0.811905
0.380107 0.757332 0.759386
0.447643 0.770505 0.772545
0.512472 0.782990 0.785016
0.575585 0.795077 0.797089
0.637094 0.806867 0.808865
0.696900 0.818412 0.820395
0.754819 0.829743 0.831711
0.810631 0.840881 0.842833
0.864094 0.851840 0.853776
0.426147 0.848688 0.802587
0.494015 0.861118 0.815426
0.558828 0.872864 0.827578
0.621612 0.884202 0.839326
0.682496 0.895229 0.850770
0.741393 0.905995 0.861960
0.798127 0.916529 0.872928
0.852485 0.926852 0.883694
0.904230 0.936977 0.894271
0.081538 0.088171 0.504366
0.140033 0.100053 0.518385
0.198552 0.111521 0.531757
0.257689 0.122816 0.544783
0.317385 0.134021 0.557566
0.377433 0.145175 0.570161
0.437577 0.156303 0.582597
0.497536 0.167418 0.594896
0.557027 0.178530 0.607072
0.121965 0.177168 0.551692
0.182527 0.189946 0.565673
0.242678 0.202236 0.578993
0.303086 0.214304 0.591955
0.363723 0.226240 0.604663
0.424401 0.238089 0.617170
0.484875 0.249876 0.629507
0.544876 0.261619 0.641696
0.604127 0.273329 0.653750
0.163586 0.271244 0.598510
0.225949 0.284672 0.612400
0.287480 0.297552 0.625620
0.348916 0.310166 0.638470
0.410258 0.322610 0.651055
0.471334 0.334933 0.663428
0.531912 0.347163 0.675621
0.591732 0.359319 0.687654
0.650525 0.371412 0.699543
0.206320 0.368870 0.644781
0.270228 0.382709 0.658529
0.332896 0.395951 0.671600
0.395124 0.408888 0.684291
0.456940 0.421623 0.696707
0.518188 0.434205 0.708900
0.578647 0.446665 0.720903
0.638067 0.459023 0.732737
0.696184 0.471291 0.744415
0.250033 0.468432 0.690391
0.315234 0.482446 0.703947
0.378799 0.495824 0.716820
0.441587 0.508866 0.729305
0.503648 0.521675 0.741505
0.564844 0.534304 0.753473
0.624964 0.546784 0.765241
0.683765 0.559136 0.776830
0.740992 0.571373 0.788254
0.294575 0.568305 0.735203
0.360818 0.582259 0.748517
0.425044 0.595550 0.761143
0.488160 0.608478 0.773375
0.550241 0.621147 0.785313
0.611162 0.633612 0.797011
0.670723 0.645904 0.808500
0.728690 0.658043 0.819799
0.784811 0.670043 0.830924
0.339789 0.666862 0.779071
0.406827 0.680524 0.792091
0.471477 0.693506 0.804424
0.534692 0.706103 0.816355
0.596568 0.718420 0.827987
0.656994 0.730511 0.839369
0.715779 0.742406 0.850533
0.772695 0.754127 0.861499
0.827498 0.765688 0.872281
0.385516 0.762484 0.821842
0.453104 0.775622 0.834519
0.517943 0.788072 0.846510
0.581029 0.800123 0.858096
0.642476 0.811877 0.869374
0.702187 0.823385 0.880395
0.759977 0.834677 0.891190
0.815628 0.845776 0.901778
0.868900 0.856694 0.912175
0.431596 0.853554 0.863364
0.499487 0.865936 0.875648
0.564283 0.877635 0.887249
0.627013 0.888926 0.898442
0.687809 0.899905 0.909321
0.746584 0.910621 0.919936
0.803164 0.921106 0.930318
0.857336 0.931378 0.940485
0.908864 0.941451 0.950452
0.082893 0.089535 0.524312
0.141463 0.101433 0.538322
0.200041 0.112916 0.551679
0.259225 0.124225 0.564683
0.318957 0.135443 0.577441
0.379031 0.146610 0.590004
0.439189 0.157750 0.602404
0.499154 0.168877 0.614662
0.558641 0.180001 0.626793
0.123373 0.178637 0.571579
0.184001 0.191427 0.585527
0.244203 0.203728 0.598812
0.304650 0.215807 0.611732
0.365315 0.227753 0.624393
0.426011 0.239611 0.636849
0.486492 0.251407 0.649131
0.546491 0.263158 0.661259
0.605730 0.274875 0.673249
0.165041 0.272790 0.618263
0.227461 0.286226 0.632099
0.289036 0.299114 0.645262
0.350503 0.311734 0.658050
0.411865 0.324185 0.670569
0.472951 0.336514 0.682871
0.533528 0.348750 0.694988
0.593339 0.360910 0.706942
0.652111 0.373008 0.718747
0.207816 0.370465 0.664329
0.271773 0.384308 0.678001
0.334476 0.397554 0.690993
0.396727 0.410495 0.703602
0.458555 0.423232 0.715931
0.519805 0.435817 0.728034
0.580256 0.448279 0.739942
0.639659 0.460638 0.751677
0.697748 0.472908 0.763252
0.251564 0.470049 0.709660
0.316805 0.484063 0.723119
0.380397 0.497442 0.735892
0.443200 0.510483 0.748274
0.505266 0.523292 0.760368
0.566456 0.535920 0.772226
0.626560 0.548399 0.783880
0.685336 0.560749 0.795351
0.742528 0.572983 0.806652
0.296135 0.569916 0.754122
0.362410 0.583868 0.767316
0.426654 0.597155 0.779823
0.489777 0.610079 0.791932
0.551855 0.622745 0.803744
0.612763 0.635205 0.815312
0.672301 0.647492 0.826667
0.730235 0.659626 0.837829
0.786314 0.671621 0.848813
0.341372 0.668442 0.797568
0.408434 0.682097 0.810447
0.473094 0.695071 0.822639
0.536308 0.707662 0.834428
0.598173 0.719972 0.845913
0.658578 0.732054 0.857146
0.717332 0.743942 0.868157
0.774207 0.755654 0.878966
0.828960 0.767206 0.889589
0.387116 0.764004 0.839847
0.454718 0.777132 0.852361
0.519561 0.789572 0.864191
0.582638 0.801612 0.875613
0.644066 0.813355 0.886725
0.703747 0.824851 0.897577
0.761500 0.836133 0.908200
0.817103 0.847219 0.918613
0.870317 0.858125 0.928830
0.433208 0.854989 0.880804
0.501105 0.867357 0.892904
0.565895 0.879042 0.904323
0.628608 0.890319 0.915332
0.689378 0.901283 0.926026
0.748116 0.911985 0.936453
0.804650 0.922454 0.946643
0.858767 0.932711 0.956615
0.910230 0.942769 0.966383
