assets/luts/archive_platinum.cube
# Архивная платина — почти монохром, музейный отпечаток
TITLE "archive_platinum"
LUT_3D_SIZE 5
DOMAIN_MIN 0.0 0.0 0.0
DOMAIN_MAX 1.0 1.0 1.0
0.071758 0.072299 0.073101
0.143099 0.109287 0.110123
0.218911 0.147587 0.148454
0.298226 0.187104 0.187999
0.380013 0.227701 0.228619
0.202007 0.239676 0.203520
0.281119 0.281843 0.244862
0.362749 0.324625 0.286961
0.445958 0.367941 0.329733
0.529727 0.411659 0.373046
0.344738 0.424414 0.346355
0.428183 0.468853 0.390203
0.512206 0.513220 0.434264
0.595891 0.557443 0.478461
0.678231 0.601397 0.522667
0.493836 0.614095 0.495489
0.578175 0.657896 0.540030
0.661166 0.700952 0.584245
0.741910 0.743193 0.628065
0.819408 0.784496 0.671365
0.643185 0.796299 0.644807
0.724979 0.836554 0.688226
0.803514 0.875401 0.730790
0.877899 0.912769 0.772430
0.947144 0.948536 0.813024
0.084251 0.084800 0.119498
0.156539 0.122311 0.158329
0.233099 0.161078 0.198264
0.312966 0.201007 0.239212
0.395110 0.241961 0.281038
0.216048 0.254029 0.255221
0.295758 0.296486 0.297702
0.377787 0.339502 0.340736
0.461200 0.382997 0.384245
0.544980 0.426841 0.428098
0.359705 0.439623 0.401098
0.443398 0.484118 0.445414
0.527473 0.528486 0.489742
0.611015 0.572657 0.534010
0.693018 0.616505 0.578090
0.509108 0.629162 0.551013
0.593345 0.672786 0.595350
0.676040 0.715610 0.639165
0.756294 0.757567 0.682389
0.833109 0.798532 0.724898
0.658140 0.810227 0.698849
0.739483 0.850071 0.741395
0.817373 0.888455 0.782890
0.890921 0.925307 0.823268
0.959135 0.960504 0.862405
0.097031 0.097588 0.168513
0.170237 0.135607 0.208916
0.247515 0.174826 0.250218
0.327902 0.215150 0.292331
0.410371 0.256445 0.335123
0.230324 0.268602 0.308736
0.310600 0.311333 0.352112
0.392997 0.354566 0.395840
0.476580 0.398223 0.439843
0.560335 0.442174 0.483991
0.374851 0.454977 0.456833
0.458758 0.499510 0.501368
0.542849 0.543861 0.545717
0.626211 0.587960 0.589806
0.707840 0.631682 0.633511
0.524497 0.644292 0.606688
0.608596 0.687719 0.650569
0.690956 0.730291 0.693731
0.770680 0.771942 0.736104
0.846770 0.812548 0.777566
0.673146 0.824129 0.752185
0.753998 0.863540 0.793598
0.831202 0.901438 0.833767
0.903870 0.937750 0.872623
0.971011 0.972355 0.910042
0.110049 0.110613 0.219694
0.184141 0.149124 0.261423
0.262104 0.188777 0.303844
0.342978 0.229480 0.346875
0.425736 0.271099 0.390386
0.244780 0.283340 0.363580
0.325588 0.326325 0.407603
0.408317 0.369757 0.451775
0.492036 0.413558 0.496021
0.575729 0.457598 0.540214
0.390116 0.470417 0.513052
0.474202 0.514968 0.557555
0.558272 0.559283 0.601671
0.641418 0.603291 0.645329
0.722634 0.646867 0.688405
0.539942 0.659425 0.661992
0.623865 0.702634 0.705162
0.705853 0.744935 0.747414
0.785008 0.786260 0.788682
0.860336 0.826486 0.828842
0.688141 0.837946 0.804285
0.768463 0.876904 0.844307
0.844943 0.914294 0.882891
0.916691 0.950046 0.919966
0.982717 0.984036 0.955409
0.122424 0.122996 0.269212
0.197315 0.161950 0.311953
0.275887 0.201993 0.355195
0.357184 0.243034 0.398858
0.440182 0.284939 0.442813
0.258446 0.297253 0.415756
0.339720 0.340460 0.460155
0.422728 0.384062 0.504513
0.506540 0.427980 0.548757
0.590143 0.472087 0.592763
0.404482 0.484915 0.565738
0.488702 0.529466 0.609980
0.572721 0.573730 0.653647
0.655630 0.617635 0.696671
0.736427 0.661057 0.738927
0.554418 0.673561 0.713040
0.638143 0.716548 0.755311
0.719748 0.758577 0.796481
0.798338 0.799579 0.836482
0.872916 0.839431 0.875190
0.702136 0.850773 0.851547
0.781928 0.889287 0.890034
0.857695 0.926184 0.926900
0.928547 0.961393 0.962075
0.993495 0.994789 0.995435
