assets/luts/archive_stone.cube
# Архивный камень — гравюры, литографии, каталоги
TITLE "archive_stone"
LUT_3D_SIZE 5
DOMAIN_MIN 0.0 0.0 0.0
DOMAIN_MAX 1.0 1.0 1.0
0.072788 0.074313 0.074395
0.165710 0.106514 0.106598
0.262491 0.139057 0.139144
0.362094 0.172056 0.172144
0.463215 0.205502 0.205591
0.184238 0.249567 0.185966
0.283078 0.284979 0.220461
0.383890 0.320344 0.255043
0.485712 0.355801 0.289842
0.587276 0.391354 0.324861
0.303023 0.438416 0.304835
0.405589 0.475185 0.340846
0.508257 0.511538 0.376698
0.610132 0.547631 0.412536
0.709974 0.583474 0.448367
0.426320 0.630813 0.428174
0.530388 0.667062 0.464918
0.632716 0.702551 0.501265
0.732456 0.737439 0.537370
0.828397 0.771740 0.573245
0.551384 0.816773 0.553243
0.654722 0.850618 0.589929
0.754499 0.883380 0.625991
0.849907 0.915213 0.661588
0.939755 0.946129 0.696734
0.083880 0.085418 0.146923
0.177514 0.117891 0.180721
0.274810 0.150680 0.214693
0.374742 0.183899 0.248964
0.476008 0.217543 0.283531
0.196156 0.261829 0.263269
0.295481 0.297389 0.298846
0.396584 0.332878 0.334349
0.498512 0.368434 0.369916
0.600000 0.404063 0.405553
0.315500 0.451191 0.385192
0.418321 0.487983 0.421771
0.521056 0.524336 0.458035
0.622813 0.560406 0.494135
0.722356 0.596204 0.530082
0.439081 0.643448 0.509842
0.543178 0.679596 0.546638
0.645346 0.714962 0.582887
0.744744 0.749705 0.618749
0.840162 0.783839 0.654235
0.564156 0.828612 0.634467
0.667293 0.862232 0.670688
0.766684 0.894748 0.706143
0.861526 0.926312 0.740989
0.950628 0.956940 0.775243
0.095069 0.096621 0.222787
0.189391 0.129358 0.257844
0.287181 0.162384 0.292910
0.387418 0.195816 0.328119
0.488807 0.229648 0.363476
0.208145 0.274146 0.342771
0.307931 0.309846 0.379093
0.409303 0.345449 0.415183
0.511313 0.381096 0.451186
0.612701 0.416793 0.487113
0.328018 0.463976 0.466604
0.431073 0.500784 0.503414
0.533851 0.537129 0.539757
0.635467 0.573168 0.575788
0.734688 0.608913 0.611521
0.451856 0.656050 0.591419
0.555957 0.692089 0.627929
0.657943 0.727324 0.663748
0.756976 0.761913 0.699035
0.851848 0.795872 0.733804
0.576914 0.840376 0.714454
0.679826 0.873761 0.749873
0.778809 0.906023 0.784386
0.873061 0.937312 0.818151
0.961393 0.967642 0.851183
0.106353 0.107918 0.301240
0.201340 0.140910 0.337217
0.299600 0.174166 0.373043
0.400120 0.207802 0.408861
0.501608 0.241816 0.444679
0.220200 0.286513 0.423721
0.320424 0.322345 0.460452
0.422041 0.358055 0.496795
0.524112 0.393786 0.532904
0.625377 0.429543 0.568790
0.340575 0.476769 0.548322
0.443840 0.513584 0.585025
0.546638 0.549914 0.621114
0.648090 0.585914 0.656745
0.746966 0.621597 0.691935
0.464642 0.668617 0.672157
0.568724 0.704539 0.708045
0.670505 0.739634 0.743099
0.769150 0.774062 0.777480
0.863453 0.807837 0.811202
0.589654 0.852061 0.792454
0.692318 0.885204 0.826734
0.790870 0.917203 0.859972
0.884509 0.948208 0.892324
0.972049 0.978232 0.923805
0.117481 0.119058 0.379773
0.213096 0.152293 0.416324
0.311793 0.185765 0.452571
0.412567 0.219593 0.488664
0.514130 0.253776 0.524613
0.232055 0.298660 0.503596
0.332685 0.334612 0.540400
0.434520 0.370419 0.576668
0.536627 0.406223 0.612560
0.637750 0.442030 0.648088
0.352894 0.489290 0.627842
0.456341 0.526104 0.664114
0.559137 0.562410 0.699630
0.660406 0.598364 0.734551
0.758922 0.633979 0.768890
0.477158 0.680874 0.749609
0.581199 0.716673 0.784560
0.682756 0.751624 0.818545
0.780999 0.785886 0.851719
0.874725 0.819474 0.884098
0.602098 0.863413 0.866117
0.704497 0.896311 0.898955
0.802604 0.928045 0.930625
0.895622 0.958764 0.961274
0.982365 0.988482 0.990918
