assets/luts/archive_stone.cube
# Архивный камень — гравюры, литографии, каталоги
TITLE "archive_stone"
LUT_3D_SIZE 17
DOMAIN_MIN 0.0 0.0 0.0
DOMAIN_MAX 1.0 1.0 1.0
0.072788 0.074313 0.074395
0.095640 0.082353 0.082436
0.118736 0.090391 0.090474
0.142094 0.098442 0.098526
0.165710 0.106514 0.106598
0.189574 0.114609 0.114694
0.213671 0.122731 0.122816
0.237983 0.130880 0.130966
0.262491 0.139057 0.139144
0.287176 0.147264 0.147351
0.312019 0.155499 0.155586
0.336998 0.163763 0.163851
0.362094 0.172056 0.172144
0.387284 0.180376 0.180465
0.412548 0.188725 0.188813
0.437866 0.197100 0.197189
0.463215 0.205502 0.205591
0.099796 0.116287 0.101436
0.123114 0.124581 0.109645
0.146646 0.132866 0.117847
0.170408 0.141157 0.126057
0.194400 0.149462 0.134284
0.218609 0.157785 0.142530
0.243022 0.166129 0.150799
0.267622 0.174494 0.159092
0.292389 0.182881 0.167409
0.317306 0.191292 0.175752
0.342351 0.199726 0.184119
0.367505 0.208183 0.192512
0.392748 0.216663 0.200929
0.418057 0.225166 0.209371
0.443414 0.233690 0.217838
0.468795 0.242237 0.226327
0.494181 0.250804 0.234840
0.127408 0.159600 0.129081
0.151161 0.168119 0.137445
0.175094 0.176622 0.145798
0.199228 0.185125 0.154156
0.223561 0.193636 0.162525
0.248082 0.202158 0.170911
0.272778 0.210695 0.179315
0.297632 0.219248 0.187739
0.322626 0.227817 0.196184
0.347740 0.236405 0.204650
0.372955 0.245009 0.213138
0.398251 0.253631 0.221647
0.423607 0.262271 0.230178
0.449002 0.270927 0.238729
0.474417 0.279601 0.247301
0.499829 0.288290 0.255893
0.525218 0.296995 0.264505
0.155572 0.204080 0.157274
0.179724 0.212796 0.165782
0.204025 0.221489 0.174274
0.228496 0.230175 0.182767
0.253137 0.238862 0.191267
0.277936 0.247556 0.199780
0.302882 0.256258 0.208307
0.327957 0.264970 0.216851
0.353143 0.273693 0.225411
0.378421 0.282428 0.233990
0.403772 0.291175 0.242586
0.429176 0.299934 0.251200
0.454612 0.308705 0.259832
0.480060 0.317487 0.268481
0.505499 0.326281 0.277147
0.530908 0.335085 0.285830
0.556267 0.343900 0.294528
0.184238 0.249567 0.185966
0.208755 0.258450 0.194606
0.233390 0.267303 0.203226
0.258164 0.276143 0.211841
0.283078 0.284979 0.220461
0.308122 0.293815 0.229088
0.333284 0.302653 0.237727
0.358545 0.311496 0.246378
0.383890 0.320344 0.255043
0.409298 0.329199 0.263721
0.434751 0.338060 0.272414
0.460229 0.346927 0.281121
0.485712 0.355801 0.289842
0.511178 0.364681 0.298577
0.536608 0.373567 0.307326
0.561981 0.382458 0.316087
0.587276 0.391354 0.324861
0.213360 0.295900 0.215113
0.238208 0.304921 0.223872
0.263142 0.313906 0.232607
0.288185 0.322872 0.241333
0.313339 0.331827 0.250060
0.338593 0.340776 0.258791
0.363936 0.349722 0.267528
0.389351 0.358667 0.276275
0.414820 0.367612 0.285032
0.440324 0.376557 0.293799
0.465846 0.385504 0.302576
0.491364 0.394451 0.311364
0.516859 0.403399 0.320163
0.542310 0.412348 0.328972
0.567697 0.421298 0.337791
0.593000 0.430247 0.346619
0.618196 0.439196 0.355456
0.242894 0.342924 0.244669
0.268038 0.352053 0.253535
0.293237 0.361140 0.262373
0.318515 0.370202 0.271198
0.343873 0.379248 0.280019
0.369304 0.388282 0.288841
0.394794 0.397307 0.297667
0.420328 0.406325 0.306497
0.445887 0.415338 0.315333
0.471454 0.424346 0.324176
0.497010 0.433349 0.333027
0.522534 0.442348 0.341884
0.548008 0.451342 0.350748
0.573410 0.460332 0.359619
0.598720 0.469316 0.368496
0.623918 0.478295 0.377379
0.648983 0.487269 0.386268
0.272796 0.390481 0.274591
0.298201 0.399690 0.283552
0.323630 0.408850 0.292480
0.349108 0.417979 0.301392
0.374638 0.427086 0.310296
0.400211 0.436175 0.319197
0.425814 0.445251 0.328097
0.451432 0.454314 0.336999
0.477047 0.463365 0.345903
0.502643 0.472407 0.354811
0.528199 0.481438 0.363722
0.553696 0.490460 0.372636
0.579114 0.499471 0.381554
0.604433 0.508473 0.390475
0.629632 0.517464 0.399398
0.654692 0.526444 0.408325
0.679590 0.535414 0.417253
0.303023 0.438416 0.304835
0.328654 0.447674 0.313879
0.354279 0.456878 0.322885
0.379923 0.466045 0.331872
0.405589 0.475185 0.340846
0.431269 0.484301 0.349814
0.456951 0.493397 0.358777
0.482619 0.502476 0.367738
0.508257 0.511538 0.376698
0.533846 0.520584 0.385658
0.559368 0.529615 0.394618
0.584803 0.538630 0.403577
0.610132 0.547631 0.412536
0.635333 0.556615 0.421495
0.660388 0.565585 0.430454
0.685275 0.574538 0.439411
0.709974 0.583474 0.448367
0.333532 0.486573 0.335358
0.359354 0.495851 0.344472
0.385139 0.505069 0.353545
0.410914 0.514245 0.362593
0.436682 0.523388 0.371626
0.462435 0.532501 0.380648
0.488162 0.541590 0.389663
0.513846 0.550656 0.398671
0.539472 0.559699 0.407675
0.565021 0.568721 0.416675
0.590475 0.577722 0.425671
0.615814 0.586703 0.434664
0.641019 0.595663 0.443652
0.666069 0.604603 0.452637
0.690945 0.613521 0.461618
0.715625 0.622418 0.470595
0.740090 0.631294 0.479566
0.364279 0.534795 0.366118
0.390258 0.544064 0.375290
0.416169 0.553267 0.384416
0.442040 0.562423 0.393514
0.467875 0.571539 0.402593
0.493667 0.580621 0.411658
0.519403 0.589673 0.420711
0.545069 0.598697 0.429755
0.570649 0.607692 0.438791
0.596123 0.616662 0.447818
0.621475 0.625605 0.456839
0.646684 0.634522 0.465852
0.671731 0.643413 0.474859
0.696595 0.652279 0.483858
0.721258 0.661118 0.492849
0.745698 0.669930 0.501832
0.769895 0.678716 0.510807
0.395223 0.582927 0.397071
0.421322 0.592157 0.406288
0.447324 0.601316 0.415456
0.473257 0.610421 0.424592
0.499125 0.619483 0.433705
0.524921 0.628505 0.442800
0.550632 0.637491 0.451880
0.576246 0.646443 0.460947
0.601744 0.655362 0.470002
0.627110 0.664249 0.479045
0.652325 0.673105 0.488078
0.677370 0.681930 0.497101
0.702224 0.690724 0.506112
0.726869 0.699486 0.515113
0.751285 0.708217 0.524103
0.775450 0.716917 0.533082
0.799345 0.725583 0.542048
0.426320 0.630813 0.428174
0.452505 0.639974 0.437425
0.478563 0.649059 0.446622
0.504523 0.658086 0.455783
0.530388 0.667062 0.464918
0.556153 0.675995 0.474031
0.581806 0.684886 0.483125
0.607333 0.693738 0.492203
0.632716 0.702551 0.501265
0.657939 0.711328 0.510313
0.682982 0.720068 0.519346
0.707828 0.728772 0.528365
0.732456 0.737439 0.537370
0.756847 0.746070 0.546361
0.780981 0.754664 0.555337
0.804838 0.763221 0.564299
0.828397 0.771740 0.573245
0.457527 0.678297 0.459386
0.483763 0.687360 0.468657
0.509842 0.696341 0.477871
0.535794 0.705259 0.487045
0.561623 0.714122 0.496189
0.587322 0.722936 0.505308
0.612882 0.731703 0.514405
0.638286 0.740425 0.523481
0.663520 0.749104 0.532539
0.688565 0.757741 0.541578
0.713404 0.766337 0.550599
0.738016 0.774890 0.559603
0.762384 0.783402 0.568590
0.786487 0.791872 0.577558
0.810305 0.800301 0.586509
0.833818 0.808687 0.595441
0.857007 0.817030 0.604355
0.488802 0.725222 0.490663
0.515053 0.734157 0.499942
0.541118 0.743006 0.509160
0.567027 0.751786 0.518336
0.592785 0.760506 0.527477
0.618385 0.769171 0.536589
0.643816 0.777785 0.545676
0.669064 0.786349 0.554739
0.694114 0.794865 0.563779
0.718947 0.803333 0.572798
0.743546 0.811754 0.581796
0.767891 0.820129 0.590772
0.791964 0.828456 0.599728
0.815744 0.836737 0.608662
0.839212 0.844971 0.617575
0.862348 0.853157 0.626466
0.885132 0.861296 0.635335
0.520102 0.771433 0.521963
0.546334 0.780210 0.531238
0.572350 0.788896 0.540448
0.598181 0.797509 0.549611
0.623832 0.806056 0.558737
0.649297 0.814544 0.567831
0.674566 0.822976 0.576896
0.699624 0.831352 0.585933
0.724454 0.839676 0.594944
0.749041 0.847946 0.603930
0.773366 0.856164 0.612892
0.797409 0.864331 0.621829
0.821152 0.872445 0.630741
0.844576 0.880508 0.639629
0.867660 0.888518 0.648492
0.890384 0.896476 0.657330
0.912729 0.904381 0.666142
0.551384 0.816773 0.553243
0.577561 0.825362 0.562500
0.603493 0.833856 0.571690
0.629212 0.842272 0.580830
0.654722 0.850618 0.589929
0.680018 0.858899 0.598991
0.705089 0.867119 0.608021
0.729921 0.875279 0.617021
0.754499 0.883380 0.625991
0.778805 0.891424 0.634932
0.802821 0.899411 0.643845
0.826528 0.907340 0.652731
0.849907 0.915213 0.661588
0.872940 0.923028 0.670417
0.895605 0.930786 0.679218
0.917884 0.938487 0.687991
0.939755 0.946129 0.696734
0.075552 0.077080 0.092173
0.098453 0.085138 0.100326
0.121596 0.093193 0.108473
0.144997 0.101261 0.116631
0.168654 0.109349 0.124806
0.192555 0.117461 0.133003
0.216686 0.125598 0.141223
0.241029 0.133763 0.149469
0.265566 0.141955 0.157740
0.290277 0.150176 0.166038
0.315142 0.158426 0.174362
0.340141 0.166704 0.182712
0.365253 0.175010 0.191089
0.390457 0.183343 0.199491
0.415732 0.191704 0.207918
0.441058 0.200092 0.216371
0.466413 0.208506 0.224847
0.102618 0.119142 0.119579
0.125983 0.127452 0.127892
0.149557 0.135753 0.136194
0.173360 0.144059 0.144503
0.197388 0.152379 0.152825
0.221631 0.160716 0.161164
0.246075 0.169073 0.169524
0.270702 0.177452 0.177904
0.295495 0.185852 0.186307
0.320433 0.194276 0.194732
0.345498 0.202722 0.203180
0.370668 0.211191 0.211651
0.395923 0.219682 0.220144
0.421244 0.228196 0.228660
0.446607 0.236732 0.237197
0.471993 0.245289 0.245755
0.497381 0.253866 0.254335
0.130285 0.162533 0.147562
0.154080 0.171067 0.156022
0.178053 0.179583 0.164468
0.202223 0.188099 0.172916
0.226589 0.196623 0.181373
0.251141 0.205157 0.189843
0.275864 0.213706 0.198330
0.300742 0.222271 0.206834
0.325757 0.230851 0.215356
0.350890 0.239449 0.223898
0.376121 0.248064 0.232458
0.401429 0.256696 0.241038
0.426795 0.265345 0.249636
0.452197 0.274011 0.258253
0.477616 0.282694 0.266888
0.503029 0.291392 0.275541
0.528417 0.300105 0.284211
0.158499 0.207082 0.176067
0.182690 0.215810 0.184663
0.207027 0.224514 0.193240
0.231531 0.233212 0.201815
0.256201 0.241910 0.210395
0.281028 0.250614 0.218985
0.305997 0.259325 0.227586
0.331092 0.268047 0.236202
0.356296 0.276780 0.244832
0.381589 0.285524 0.253478
0.406952 0.294279 0.262139
0.432365 0.303046 0.270815
0.457808 0.311825 0.279507
0.483259 0.320615 0.288214
0.508699 0.329415 0.296935
0.534106 0.338226 0.305671
0.559460 0.347047 0.314421
0.187210 0.252627 0.205045
0.211763 0.261520 0.213764
0.236431 0.270383 0.222461
0.261234 0.279232 0.231151
0.286174 0.288077 0.239842
0.311242 0.296921 0.248538
0.336423 0.305768 0.257244
0.361702 0.314618 0.265959
0.387061 0.323474 0.274685
0.412481 0.332335 0.283423
0.437943 0.341203 0.292173
0.463426 0.350077 0.300934
0.488912 0.358956 0.309708
0.514378 0.367842 0.318492
0.539805 0.376733 0.327288
0.565172 0.385628 0.336095
0.590459 0.394529 0.344912
0.216375 0.299009 0.234450
0.241255 0.308038 0.243281
0.266217 0.317030 0.252084
0.291287 0.326003 0.260877
0.316463 0.334965 0.269667
0.341737 0.343921 0.278459
0.367096 0.352873 0.287255
0.392525 0.361824 0.296058
0.418004 0.370774 0.304868
0.443517 0.379725 0.313687
0.469044 0.388676 0.322513
0.494564 0.397628 0.331348
0.520059 0.406580 0.340191
0.545506 0.415532 0.349042
0.570887 0.424485 0.357900
0.596180 0.433437 0.366766
0.621365 0.442389 0.375638
0.245946 0.346071 0.264237
0.271119 0.355206 0.273167
0.296343 0.364299 0.282065
0.321643 0.373366 0.290949
0.347021 0.382417 0.299826
0.372468 0.391455 0.308701
0.397971 0.400485 0.317576
0.423514 0.409507 0.326455
0.449081 0.418523 0.335337
0.474653 0.427534 0.344224
0.500210 0.436540 0.353115
0.525734 0.445541 0.362011
0.551203 0.454537 0.370912
0.576598 0.463529 0.379817
0.601899 0.472515 0.388726
0.627084 0.481495 0.397639
0.652133 0.490469 0.406555
0.275882 0.393656 0.294363
0.301312 0.402869 0.303380
0.326762 0.412033 0.312361
0.352259 0.421165 0.321323
0.377804 0.430275 0.330274
0.403390 0.439367 0.339220
0.429002 0.448445 0.348163
0.454627 0.457510 0.357105
0.480247 0.466563 0.366048
0.505843 0.475606 0.374991
0.531397 0.484638 0.383935
0.556889 0.493660 0.392880
0.582300 0.502672 0.401826
0.607608 0.511673 0.410773
0.632794 0.520663 0.419721
0.657838 0.529643 0.428669
0.682718 0.538611 0.437617
0.306138 0.441609 0.324784
0.331790 0.450869 0.333875
0.357433 0.460075 0.342926
0.383092 0.469243 0.351955
0.408770 0.478384 0.360969
0.434459 0.487501 0.369974
0.460147 0.496598 0.378972
0.485819 0.505676 0.387966
0.511457 0.514738 0.396956
0.537044 0.523783 0.405943
0.562560 0.532813 0.414928
0.587987 0.541827 0.423910
0.613305 0.550826 0.432890
0.638492 0.559808 0.441867
0.663530 0.568775 0.450842
0.688398 0.577725 0.459813
0.713074 0.586659 0.468780
0.336672 0.489773 0.355457
0.362512 0.499051 0.364610
0.388311 0.508270 0.373720
0.414098 0.517445 0.382802
0.439874 0.526587 0.391867
0.465633 0.535699 0.400918
0.491362 0.544786 0.409959
0.517046 0.553850 0.418992
0.542668 0.562891 0.428018
0.568212 0.571911 0.437038
0.593656 0.580909 0.446051
0.618984 0.589886 0.455059
0.644174 0.598843 0.464060
0.669207 0.607778 0.473056
0.694062 0.616692 0.482045
0.718720 0.625585 0.491027
0.743159 0.634455 0.500002
0.367440 0.537992 0.386339
0.393432 0.547260 0.395542
0.419354 0.556461 0.404697
0.445234 0.565614 0.413821
0.471073 0.574727 0.422924
0.496867 0.583807 0.432010
0.522603 0.592855 0.441082
0.548265 0.601875 0.450142
0.573838 0.610866 0.459192
0.599303 0.619831 0.468231
0.624642 0.628769 0.477261
0.649835 0.637681 0.486282
0.674864 0.646567 0.495293
0.699708 0.655426 0.504295
0.724347 0.664259 0.513287
0.748760 0.673065 0.522268
0.772928 0.681844 0.531239
0.398400 0.586112 0.417387
0.424510 0.595338 0.426628
0.450519 0.604493 0.435816
0.476456 0.613594 0.444970
0.502325 0.622651 0.454098
0.528119 0.631668 0.463207
0.553827 0.640648 0.472297
0.579433 0.649594 0.481373
0.604921 0.658508 0.490434
0.630274 0.667389 0.499481
0.655473 0.676238 0.508516
0.680499 0.685056 0.517538
0.705332 0.693842 0.526546
0.729952 0.702596 0.535542
0.754340 0.711319 0.544524
0.778476 0.720010 0.553493
0.802338 0.728668 0.562447
0.429508 0.633974 0.448559
0.455701 0.643130 0.457824
0.481762 0.652209 0.467033
0.507723 0.661229 0.476205
0.533586 0.670200 0.485347
0.559346 0.679125 0.494465
0.584991 0.688009 0.503562
0.610507 0.696853 0.512641
0.635876 0.705659 0.521701
0.661082 0.714427 0.530745
0.686107 0.723158 0.539771
0.710930 0.731853 0.548782
0.735533 0.740511 0.557776
0.759897 0.749132 0.566754
0.784000 0.757716 0.575715
0.807823 0.766262 0.584658
0.831345 0.774771 0.593585
0.460723 0.681425 0.479811
0.486963 0.690480 0.489089
0.513042 0.699454 0.498306
0.538991 0.708364 0.507483
0.564814 0.717218 0.516627
0.590505 0.726023 0.525743
0.616053 0.734780 0.534834
0.641443 0.743493 0.543903
0.666660 0.752163 0.552951
0.691685 0.760789 0.561978
0.716500 0.769374 0.570985
0.741087 0.777916 0.579973
0.765426 0.786417 0.588940
0.789498 0.794876 0.597888
0.813282 0.803292 0.606815
0.836758 0.811666 0.615722
0.859906 0.819997 0.624607
0.492002 0.728307 0.511101
0.518253 0.737232 0.520379
0.544315 0.746071 0.529593
0.570217 0.754841 0.538762
0.595965 0.763550 0.547895
0.621553 0.772205 0.556996
0.646969 0.780807 0.566070
0.672200 0.789360 0.575117
0.697229 0.797864 0.584140
0.722038 0.806320 0.593139
0.746610 0.814729 0.602114
0.770926 0.823090 0.611066
0.794967 0.831405 0.619995
0.818712 0.839672 0.628901
0.842143 0.847892 0.637782
0.865238 0.856064 0.646640
0.887979 0.864188 0.655473
0.523301 0.774464 0.542386
0.549529 0.783229 0.551651
0.575538 0.791904 0.560849
0.601359 0.800504 0.569999
0.626998 0.809040 0.579108
0.652447 0.817515 0.588183
0.677697 0.825933 0.597227
0.702733 0.834296 0.606241
0.727540 0.842605 0.615226
0.752100 0.850862 0.624185
0.776394 0.859066 0.633116
0.800405 0.867217 0.642021
0.824112 0.875317 0.650898
0.847498 0.883364 0.659750
0.870540 0.891359 0.668573
0.893221 0.899300 0.677370
0.915519 0.907189 0.686139
0.554579 0.819739 0.573624
0.580748 0.828315 0.582864
0.606669 0.836796 0.592034
0.632374 0.845197 0.601151
0.657868 0.853529 0.610225
0.683145 0.861796 0.619261
0.708194 0.870001 0.628262
0.733001 0.878145 0.637230
0.757551 0.886231 0.646167
0.781826 0.894259 0.655072
0.805808 0.902229 0.663947
0.829479 0.910141 0.672792
0.852820 0.917997 0.681607
0.875810 0.925795 0.690392
0.898431 0.933535 0.699146
0.920662 0.941218 0.707869
0.942483 0.948842 0.716561
0.078322 0.079853 0.110195
0.101273 0.087929 0.118454
0.124461 0.096002 0.126706
0.147906 0.104087 0.134964
0.171602 0.112191 0.143238
0.195541 0.120318 0.151530
0.219705 0.128471 0.159843
0.244079 0.136651 0.168179
0.268644 0.144859 0.176538
0.293380 0.153094 0.184922
0.318267 0.161358 0.193329
0.343286 0.169649 0.201760
0.368414 0.177968 0.210215
0.393632 0.186315 0.218693
0.418918 0.194688 0.227194
0.444251 0.203088 0.235718
0.469611 0.211514 0.244263
0.105446 0.122003 0.137948
0.128857 0.130329 0.146359
0.152474 0.138645 0.154757
0.176316 0.146966 0.163159
0.200380 0.155300 0.171571
0.224657 0.163651 0.179998
0.249131 0.172022 0.188443
0.273786 0.180414 0.196906
0.298603 0.188828 0.205389
0.323563 0.197264 0.213892
0.348646 0.205722 0.222415
0.373832 0.214203 0.230959
0.399101 0.222706 0.239523
0.424431 0.231230 0.248106
0.449802 0.239777 0.256709
0.475192 0.248344 0.265331
0.500581 0.256931 0.273972
0.133167 0.165472 0.166252
0.157005 0.174019 0.174803
0.181016 0.182549 0.183336
0.205222 0.191078 0.191869
0.229621 0.199614 0.200408
0.254203 0.208161 0.208958
0.278953 0.216722 0.217522
0.303855 0.225297 0.226101
0.328891 0.233889 0.234695
0.354042 0.242497 0.243306
0.379288 0.251123 0.251934
0.404609 0.259765 0.260579
0.429984 0.268423 0.269240
0.455393 0.277098 0.277918
0.480815 0.285789 0.286611
0.506230 0.294496 0.295320
0.531615 0.303217 0.304043
0.161430 0.210088 0.195051
0.185661 0.218828 0.203729
0.210033 0.227544 0.212386
0.234570 0.236252 0.221038
0.259269 0.244961 0.229692
0.284122 0.253675 0.238353
0.309115 0.262397 0.247024
0.334230 0.271128 0.255707
0.359452 0.279870 0.264401
0.384760 0.288622 0.273109
0.410134 0.297386 0.281830
0.435556 0.306161 0.290563
0.461005 0.314947 0.299310
0.486459 0.323744 0.308070
0.511899 0.332552 0.316841
0.537304 0.341370 0.325625
0.562652 0.350197 0.334420
0.190188 0.255691 0.224296
0.214776 0.264594 0.233090
0.239475 0.273466 0.241858
0.264308 0.282325 0.250617
0.289274 0.291178 0.259374
0.314364 0.300031 0.268135
0.339565 0.308885 0.276901
0.364861 0.317743 0.285675
0.390234 0.326606 0.294458
0.415665 0.335474 0.303250
0.441135 0.344348 0.312051
0.466624 0.353228 0.320862
0.492112 0.362114 0.329683
0.517578 0.371004 0.338512
0.543002 0.379900 0.347351
0.568363 0.388801 0.356197
0.593640 0.397705 0.365052
0.219393 0.302120 0.253941
0.244305 0.311157 0.262839
0.269296 0.320157 0.271706
0.294391 0.329137 0.280559
0.319589 0.338106 0.289408
0.344883 0.347068 0.298255
0.370258 0.356027 0.307105
0.395700 0.364983 0.315959
0.421191 0.373939 0.324818
0.446711 0.382894 0.333682
0.472242 0.391850 0.342552
0.497765 0.400806 0.351429
0.523258 0.409762 0.360311
0.548702 0.418718 0.369199
0.574076 0.427673 0.378092
0.599360 0.436628 0.386990
0.624532 0.445582 0.395892
0.249002 0.349219 0.283942
0.274203 0.358361 0.292930
0.299452 0.367460 0.301884
0.324774 0.376532 0.310820
0.350170 0.385587 0.319748
0.375633 0.394630 0.328670
0.401149 0.403664 0.337592
0.426702 0.412690 0.346513
0.452276 0.421709 0.355436
0.477852 0.430723 0.364361
0.503411 0.439732 0.373288
0.528932 0.448735 0.382218
0.554397 0.457734 0.391150
0.579785 0.466726 0.400084
0.605075 0.475713 0.409020
0.630247 0.484694 0.417957
0.655281 0.493669 0.426895
0.278971 0.396832 0.314254
0.304425 0.406049 0.323321
0.329897 0.415217 0.332350
0.355412 0.424352 0.341356
0.380973 0.433465 0.350350
0.406570 0.442560 0.359336
0.432192 0.451640 0.368317
0.457823 0.460706 0.377294
0.483446 0.469761 0.386269
0.509043 0.478805 0.395242
0.534595 0.487838 0.404214
0.560082 0.496860 0.413185
0.585484 0.505872 0.422155
0.610782 0.514873 0.431123
0.635955 0.523863 0.440090
0.660982 0.532841 0.449054
0.685842 0.541808 0.458016
0.309256 0.444802 0.344834
0.334929 0.454065 0.353968
0.360589 0.463272 0.363058
0.386263 0.472442 0.372123
0.411953 0.481583 0.381172
0.437650 0.490701 0.390209
0.463344 0.499798 0.399236
0.489019 0.508876 0.408257
0.514657 0.517938 0.417272
0.540241 0.526982 0.426282
0.565752 0.536011 0.435287
0.591170 0.545023 0.444287
0.616476 0.554020 0.453282
0.641649 0.563000 0.462273
0.666670 0.571964 0.471258
0.691517 0.580912 0.480238
0.716171 0.589842 0.489212
0.339814 0.492973 0.375639
0.365671 0.502252 0.384827
0.391485 0.511470 0.393967
0.417283 0.520645 0.403078
0.443067 0.529785 0.412169
0.468831 0.538897 0.421244
0.494562 0.547982 0.430307
0.520245 0.557043 0.439359
0.545864 0.566082 0.448402
0.571401 0.575099 0.457436
0.596837 0.584094 0.466462
0.622152 0.593068 0.475479
0.647327 0.602021 0.484489
0.672342 0.610952 0.493489
0.697177 0.619862 0.502482
0.721811 0.628749 0.511465
0.746224 0.637615 0.520438
0.370602 0.541189 0.406626
0.396608 0.550455 0.415855
0.422541 0.559654 0.425033
0.448428 0.568804 0.434178
0.474272 0.577915 0.443299
0.500067 0.586991 0.452401
0.525802 0.596036 0.461486
0.551460 0.605051 0.470558
0.577025 0.614039 0.479616
0.602481 0.622999 0.488663
0.627807 0.631932 0.497697
0.652985 0.640839 0.506720
0.677995 0.649719 0.515731
0.702818 0.658572 0.524730
0.727432 0.667398 0.533717
0.751819 0.676198 0.542691
0.775957 0.684969 0.551653
0.401578 0.589295 0.437751
0.427698 0.598518 0.447009
0.453714 0.607668 0.456213
0.479655 0.616765 0.465379
0.505526 0.625817 0.474518
0.531318 0.634829 0.483634
0.557020 0.643804 0.492731
0.582619 0.652744 0.501809
0.608097 0.661651 0.510871
0.633436 0.670525 0.519918
0.658618 0.679368 0.528949
0.683625 0.688178 0.537964
0.708436 0.696957 0.546965
0.733032 0.705703 0.555950
0.757392 0.714418 0.564920
0.781497 0.723100 0.573874
0.805326 0.731749 0.582811
0.432698 0.637134 0.468973
0.458897 0.646284 0.478247
0.484962 0.655357 0.487464
0.510923 0.664371 0.496640
0.536784 0.673334 0.505784
0.562539 0.682252 0.514902
0.588175 0.691129 0.523997
0.613679 0.699965 0.533071
0.639035 0.708763 0.542124
0.664224 0.717523 0.551159
0.689229 0.726245 0.560174
0.714029 0.734930 0.569171
0.738607 0.743579 0.578149
0.762942 0.752190 0.587108
0.787014 0.760764 0.596049
0.810803 0.769300 0.604970
0.834289 0.777798 0.613871
0.463921 0.684551 0.500247
0.490163 0.693598 0.509526
0.516242 0.702564 0.518743
0.542188 0.711465 0.527916
0.568005 0.720311 0.537054
0.593687 0.729107 0.546162
0.619223 0.737855 0.555243
0.644598 0.746558 0.564300
0.669797 0.755217 0.573333
0.694802 0.763834 0.582343
0.719594 0.772408 0.591330
0.744155 0.780939 0.600296
0.768465 0.789428 0.609240
0.792504 0.797875 0.618161
0.816254 0.806279 0.627060
0.839693 0.814640 0.635936
0.862801 0.822958 0.644789
0.495202 0.731388 0.531532
0.521452 0.740304 0.540803
0.547510 0.749133 0.550008
0.573406 0.757892 0.559166
0.599145 0.766591 0.568285
0.624720 0.775235 0.577371
0.650121 0.783826 0.586426
0.675333 0.792367 0.595453
0.700341 0.800859 0.604453
0.725126 0.809303 0.613426
0.749672 0.817699 0.622374
0.773958 0.826047 0.631297
0.797966 0.834348 0.640194
0.821676 0.842602 0.649065
0.845069 0.850808 0.657910
0.868123 0.858966 0.666730
0.890820 0.867075 0.675522
0.526500 0.777491 0.562785
0.552723 0.786245 0.572035
0.578725 0.794907 0.581216
0.604536 0.803495 0.590346
0.630161 0.812018 0.599434
0.655595 0.820480 0.608485
0.680826 0.828885 0.617502
0.705840 0.837235 0.626487
0.730622 0.845530 0.635442
0.755154 0.853773 0.644368
0.779419 0.861962 0.653264
0.803396 0.870099 0.662131
0.827068 0.878183 0.670969
0.850414 0.886214 0.679778
0.873415 0.894193 0.688558
0.896051 0.902118 0.697308
0.918302 0.909990 0.706028
0.557772 0.822702 0.593963
0.583933 0.831264 0.603180
0.609844 0.839730 0.612324
0.635535 0.848118 0.621414
0.661012 0.856435 0.630459
0.686269 0.864687 0.639463
0.711295 0.872877 0.648429
0.736077 0.881006 0.657361
0.760599 0.889076 0.666258
0.784843 0.897087 0.675123
0.808792 0.905041 0.683955
0.832426 0.912937 0.692754
0.855727 0.920775 0.701522
0.878675 0.928555 0.710256
0.901251 0.936278 0.718958
0.923434 0.943942 0.727627
0.945204 0.951548 0.736263
0.081098 0.082633 0.128449
0.104098 0.090726 0.136809
0.127332 0.098816 0.145159
0.150819 0.106918 0.153513
0.174556 0.115038 0.161880
0.198530 0.123182 0.170262
0.222729 0.131350 0.178663
0.247133 0.139545 0.187084
0.271726 0.147767 0.195527
0.296486 0.156017 0.203990
0.321395 0.164294 0.212476
0.346432 0.172599 0.220982
0.371577 0.180932 0.229510
0.396808 0.189291 0.238060
0.422104 0.197677 0.246629
0.447445 0.206089 0.255219
