assets/luts/bronze_frost.cube
# Бронза на морозе — синяя тень, бронзовые света
TITLE "bronze_frost"
LUT_3D_SIZE 9
DOMAIN_MIN 0.0 0.0 0.0
DOMAIN_MAX 1.0 1.0 1.0
0.027010 0.031197 0.051876
0.152963 0.029961 0.050619
0.285630 0.028744 0.049382
0.422439 0.027536 0.048155
0.560403 0.026335 0.046934
0.696492 0.025140 0.045719
0.827677 0.023949 0.044508
0.950943 0.022763 0.043302
1.000000 0.021914 0.042438
0.023089 0.147647 0.047876
0.148702 0.146313 0.046623
0.281144 0.144999 0.045390
0.417837 0.143694 0.044166
0.555793 0.142397 0.042949
0.691979 0.141105 0.041738
0.823366 0.139817 0.040531
0.946939 0.138534 0.039328
1.000000 0.137615 0.038467
0.019215 0.270488 0.043923
0.144487 0.269086 0.042675
0.276703 0.267704 0.041445
0.413278 0.266333 0.040225
0.551222 0.264968 0.039012
0.687501 0.263609 0.037804
0.819086 0.262255 0.036601
0.942959 0.260904 0.035402
1.000000 0.259937 0.034544
0.015372 0.397476 0.040001
0.140301 0.396036 0.038756
0.272288 0.394616 0.037530
0.408741 0.393207 0.036314
0.546670 0.391804 0.035105
0.683039 0.390407 0.033901
0.814816 0.389014 0.032701
0.938986 0.387625 0.031506
1.000000 0.386630 0.030651
0.011553 0.526141 0.036103
0.136138 0.524692 0.034862
0.267892 0.523263 0.033640
0.404221 0.521845 0.032427
0.542131 0.520432 0.031222
0.678585 0.519025 0.030021
0.810552 0.517622 0.028826
0.935013 0.516223 0.027635
1.000000 0.515220 0.026782
0.007756 0.653981 0.032226
0.131993 0.652553 0.030989
0.263512 0.651144 0.029770
0.399714 0.649744 0.028562
0.537602 0.648351 0.027360
0.674138 0.646962 0.026164
0.806290 0.645577 0.024972
0.931038 0.644195 0.023785
1.000000 0.643205 0.022935
0.003979 0.778496 0.028368
0.127866 0.777117 0.027135
0.259147 0.775756 0.025921
0.395218 0.774404 0.024716
0.533080 0.773057 0.023518
0.669695 0.771715 0.022326
0.802028 0.770376 0.021138
0.927060 0.769039 0.019954
1.000000 0.768082 0.019107
0.000221 0.897190 0.024529
0.123754 0.895888 0.023300
0.254794 0.894604 0.022090
0.390731 0.893327 0.020889
0.528565 0.892056 0.019695
0.665255 0.890788 0.018506
0.797765 0.889522 0.017322
0.923077 0.888259 0.016143
1.000000 0.887354 0.015298
0.000000 1.000000 0.020708
0.119658 1.000000 0.019483
0.250454 1.000000 0.018276
0.386254 1.000000 0.017079
0.524056 1.000000 0.015889
0.660817 1.000000 0.014704
0.793501 1.000000 0.013525
0.919089 0.999367 0.012349
1.000000 0.998533 0.011507
0.026651 0.030836 0.162074
0.152572 0.029600 0.160730
0.285219 0.028384 0.159406
0.422018 0.027176 0.158092
0.559981 0.025976 0.156785
0.696079 0.024781 0.155483
0.827282 0.023591 0.154186
0.950577 0.022405 0.152893
1.000000 0.021556 0.151968
0.022731 0.147258 0.157793
0.148312 0.145924 0.156452
0.280733 0.144610 0.155131
0.417416 0.143305 0.153820
0.555371 0.142008 0.152515
0.691566 0.140717 0.151217
0.822971 0.139429 0.149922
0.946572 0.138146 0.148632
1.000000 0.137228 0.147709
0.018858 0.270078 0.153559
0.144099 0.268677 0.152221
0.276293 0.267295 0.150903
0.412857 0.265924 0.149594
0.550799 0.264560 0.148293
0.687087 0.263201 0.146997
0.818690 0.261846 0.145705
0.942591 0.260496 0.144418
1.000000 0.259529 0.143497
0.015016 0.397055 0.149354
0.139913 0.395615 0.148018
0.271878 0.394196 0.146703
0.408320 0.392787 0.145397
0.546247 0.391384 0.144098
0.682624 0.389987 0.142805
0.814420 0.388594 0.141517
0.938616 0.387205 0.140232
1.000000 0.386210 0.139313
0.011198 0.525718 0.145170
0.135750 0.524269 0.143838
0.267483 0.522840 0.142525
0.403800 0.521422 0.141222
0.541708 0.520010 0.139926
0.678171 0.518603 0.138636
0.810154 0.517199 0.137350
0.934643 0.515800 0.136069
1.000000 0.514797 0.135151
0.007402 0.653564 0.141005
0.131607 0.652136 0.139676
0.263104 0.650727 0.138366
0.399293 0.649327 0.137066
0.537179 0.647934 0.135773
0.673723 0.646545 0.134486
0.805892 0.645160 0.133203
0.930667 0.643778 0.131924
1.000000 0.642787 0.131009
0.003627 0.778094 0.136858
0.127480 0.776714 0.135531
0.258739 0.775353 0.134224
0.394798 0.774000 0.132927
0.532658 0.772654 0.131637
0.669279 0.771311 0.130353
0.801629 0.769972 0.129073
0.926687 0.768635 0.127797
1.000000 0.767678 0.126884
0.000000 0.896810 0.132726
0.123370 0.895508 0.131402
0.254387 0.894223 0.130098
0.390312 0.892946 0.128804
0.528142 0.891675 0.127517
0.664839 0.890406 0.126236
0.797366 0.889141 0.124959
0.922704 0.887877 0.123686
1.000000 0.886972 0.122775
0.000000 1.000000 0.128609
0.119275 1.000000 0.127289
0.250047 1.000000 0.125988
0.385834 1.000000 0.124696
0.523633 1.000000 0.123412
0.660400 1.000000 0.122134
0.793101 1.000000 0.120860
0.918714 0.999015 0.119590
1.000000 0.998182 0.118681
0.026286 0.030470 0.280268
0.152176 0.029235 0.278862
0.284803 0.028018 0.277476
0.421590 0.026812 0.276101
0.559553 0.025612 0.274732
0.695660 0.024417 0.273369
0.826882 0.023227 0.272011
0.950205 0.022041 0.270656
1.000000 0.021193 0.269686
0.022367 0.146863 0.275788
0.147917 0.145529 0.274384
0.280317 0.144215 0.273000
0.416988 0.142911 0.271627
0.554942 0.141614 0.270260
0.691146 0.140323 0.268899
0.822570 0.139036 0.267542
0.946199 0.137753 0.266189
1.000000 0.136835 0.265221
0.018496 0.269663 0.271354
0.143704 0.268262 0.269952
0.275877 0.266881 0.268570
0.412430 0.265509 0.267198
0.550371 0.264145 0.265833
0.686667 0.262787 0.264474
0.818288 0.261432 0.263119
0.942217 0.260082 0.261768
1.000000 0.259115 0.260801
0.014655 0.396629 0.266946
0.139520 0.395189 0.265546
0.271463 0.393770 0.264165
0.407893 0.392361 0.262795
0.545819 0.390958 0.261432
0.682204 0.389561 0.260075
0.814017 0.388168 0.258722
0.938242 0.386779 0.257373
1.000000 0.385784 0.256407
0.010838 0.525289 0.262557
0.135358 0.523840 0.261159
0.267068 0.522411 0.259780
0.403374 0.520993 0.258412
0.541280 0.519581 0.257051
0.677750 0.518174 0.255696
0.809751 0.516771 0.254345
0.934267 0.515371 0.252997
1.000000 0.514368 0.252033
0.007044 0.653142 0.258185
0.131215 0.651713 0.256788
0.262690 0.650304 0.255412
0.398867 0.648904 0.254046
0.536750 0.647510 0.252687
0.673302 0.646121 0.251333
0.805488 0.644736 0.249984
0.930290 0.643354 0.248638
1.000000 0.642364 0.247675
0.003269 0.777685 0.253827
0.127089 0.776305 0.252432
0.258325 0.774944 0.251058
0.394371 0.773591 0.249694
0.532229 0.772245 0.248336
0.668858 0.770902 0.246985
0.801225 0.769563 0.245637
0.926310 0.768226 0.244294
1.000000 0.767268 0.243332
0.000000 0.896425 0.249482
0.122980 0.895122 0.248089
0.253974 0.893837 0.246717
0.389886 0.892560 0.245355
0.527714 0.891288 0.243999
0.664417 0.890019 0.242650
0.796961 0.888754 0.241304
0.922325 0.887490 0.239963
1.000000 0.886584 0.239003
0.000000 1.000000 0.245149
0.118886 1.000000 0.243759
0.249635 1.000000 0.242388
0.385409 1.000000 0.241028
0.523204 1.000000 0.239675
0.659978 1.000000 0.238327
0.792695 0.999822 0.236984
0.918334 0.998659 0.235644
1.000000 0.997825 0.234686
0.025919 0.030101 0.403621
0.151777 0.028867 0.402180
0.284382 0.027650 0.400759
0.421159 0.026444 0.399349
0.559122 0.025244 0.397945
0.695238 0.024050 0.396547
0.826479 0.022861 0.395153
0.949831 0.021675 0.393762
1.000000 0.020827 0.392766
0.022001 0.146465 0.399028
0.147518 0.145132 0.397588
0.279898 0.143818 0.396168
0.416558 0.142514 0.394758
0.554511 0.141217 0.393356
0.690723 0.139926 0.391958
0.822166 0.138640 0.390565
0.945824 0.137357 0.389175
1.000000 0.136439 0.388180
0.018131 0.269245 0.394479
0.143307 0.267844 0.393039
0.275458 0.266463 0.391620
0.411999 0.265092 0.390211
0.549939 0.263728 0.388809
0.686244 0.262369 0.387413
0.817883 0.261015 0.386020
0.941841 0.259665 0.384632
1.000000 0.258698 0.383637
0.014291 0.396199 0.389952
0.139123 0.394760 0.388514
0.271044 0.393340 0.387096
0.407463 0.391931 0.385688
0.545387 0.390529 0.384287
0.681780 0.389132 0.382891
0.813612 0.387739 0.381499
0.937864 0.386350 0.380112
1.000000 0.385355 0.379118
0.010476 0.524857 0.385443
0.134962 0.523408 0.384005
0.266650 0.521979 0.382588
0.402944 0.520560 0.381181
0.540848 0.519148 0.379781
0.677326 0.517741 0.378386
0.809345 0.516338 0.376995
0.933888 0.514938 0.375609
1.000000 0.513936 0.374615
0.006682 0.652715 0.380947
0.130820 0.651286 0.379510
0.262272 0.649877 0.378094
0.398437 0.648477 0.376688
0.536318 0.647083 0.375289
0.672877 0.645694 0.373895
0.805081 0.644309 0.372505
0.929910 0.642927 0.371119
1.000000 0.641937 0.370127
0.002909 0.777274 0.376463
0.126696 0.775893 0.375027
0.257909 0.774532 0.373611
0.393942 0.773179 0.372206
0.531797 0.771832 0.370808
0.668433 0.770489 0.369415
0.800817 0.769150 0.368027
0.925929 0.767813 0.366642
1.000000 0.766854 0.365650
0.000000 0.896036 0.371988
0.122587 0.894734 0.370554
0.253558 0.893448 0.369139
0.389456 0.892171 0.367735
0.527281 0.890898 0.366338
0.663992 0.889629 0.364946
0.796552 0.888363 0.363558
0.921943 0.887099 0.362174
1.000000 0.886193 0.361184
0.000000 1.000000 0.367523
0.118494 1.000000 0.366090
0.249219 1.000000 0.364676
0.384980 1.000000 0.363273
0.522771 1.000000 0.361877
0.659552 1.000000 0.360486
0.792286 0.999462 0.359100
0.917951 0.998299 0.357717
1.000000 0.997465 0.356727
0.025549 0.029731 0.529531
0.151376 0.028496 0.528082
0.283960 0.027280 0.526654
0.420726 0.026074 0.525235
0.558688 0.024875 0.523823
0.694813 0.023681 0.522417
0.826073 0.022492 0.521014
0.949454 0.021307 0.519614
1.000000 0.020459 0.518612
0.021633 0.146065 0.524913
0.147118 0.144731 0.523464
0.279476 0.143418 0.522036
0.416125 0.142115 0.520617
0.554076 0.140818 0.519205
0.690298 0.139527 0.517798
0.821760 0.138241 0.516395
0.945446 0.136959 0.514995
1.000000 0.136041 0.513992
0.017764 0.268824 0.520335
0.142907 0.267423 0.518886
0.275037 0.266042 0.517457
0.411566 0.264671 0.516039
0.549505 0.263308 0.514626
0.685818 0.261949 0.513219
0.817476 0.260596 0.511816
0.941462 0.259246 0.510416
1.000000 0.258279 0.509414
0.013925 0.395767 0.515778
0.138725 0.394328 0.514329
0.270624 0.392908 0.512900
0.407030 0.391499 0.511481
0.544952 0.390097 0.510068
0.681354 0.388700 0.508661
0.813203 0.387307 0.507258
0.937484 0.385918 0.505858
1.000000 0.384924 0.504855
0.010111 0.524422 0.511234
0.134564 0.522973 0.509785
0.266230 0.521544 0.508356
0.402511 0.520125 0.506937
0.540413 0.518713 0.505524
0.676899 0.517306 0.504117
0.808936 0.515903 0.502714
0.933507 0.514503 0.501314
1.000000 0.513501 0.500311
0.006319 0.652286 0.506701
0.130423 0.650857 0.505251
0.261852 0.649448 0.503822
0.398005 0.648048 0.502403
0.535884 0.646654 0.500991
0.672450 0.645265 0.499583
0.804671 0.643880 0.498180
0.929528 0.642497 0.496780
1.000000 0.641507 0.495777
0.002547 0.776859 0.502176
0.126300 0.775479 0.500726
0.257489 0.774117 0.499297
0.393510 0.772764 0.497878
0.531362 0.771417 0.496466
0.668005 0.770074 0.495058
0.800406 0.768734 0.493655
0.925545 0.767397 0.492255
1.000000 0.766439 0.491253
0.000000 0.895645 0.497658
0.122192 0.894342 0.496209
0.253139 0.893057 0.494780
0.389025 0.891779 0.493361
0.526846 0.890506 0.491948
0.663564 0.889237 0.490541
0.796141 0.887971 0.489138
0.921558 0.886706 0.487738
1.000000 0.885800 0.486735
0.000000 1.000000 0.493147
0.118099 1.000000 0.491697
0.248801 1.000000 0.490268
0.384548 1.000000 0.488849
0.522336 1.000000 0.487437
0.659124 1.000000 0.486030
0.791874 0.999101 0.484627
0.917566 0.997937 0.483227
1.000000 0.997103 0.482224
0.025178 0.029358 0.655428
0.150973 0.028124 0.653999
0.283536 0.026909 0.652591
0.420291 0.025703 0.651192
0.558251 0.024504 0.649799
0.694386 0.023311 0.648411
0.825666 0.022122 0.647026
0.949075 0.020937 0.645644
1.000000 0.020090 0.644654
0.021263 0.145663 0.650874
0.146716 0.144330 0.649444
0.279052 0.143017 0.648034
0.415689 0.141713 0.646634
0.553640 0.140417 0.645240
0.689871 0.139127 0.643851
0.821351 0.137841 0.642465
0.945066 0.136559 0.641082
1.000000 0.135641 0.640091
0.017395 0.268402 0.646356
0.142506 0.267001 0.644926
0.274613 0.265620 0.643515
0.411131 0.264249 0.642113
0.549068 0.262886 0.640718
0.685391 0.261528 0.639327
0.817067 0.260174 0.637941
0.941081 0.258824 0.636557
1.000000 0.257858 0.635565
0.013558 0.395333 0.641856
0.138324 0.393894 0.640424
0.270201 0.392474 0.639012
0.406596 0.391065 0.637609
0.544516 0.389663 0.636213
0.680926 0.388266 0.634821
0.812793 0.386874 0.633433
0.937102 0.385485 0.632048
1.000000 0.384490 0.631056
0.009745 0.523985 0.637365
0.134165 0.522536 0.635932
0.265808 0.521107 0.634519
0.402077 0.519689 0.633116
0.539977 0.518276 0.631718
0.676470 0.516869 0.630326
0.808525 0.515466 0.628937
0.933124 0.514066 0.627551
1.000000 0.513064 0.626558
0.005954 0.651856 0.632882
0.130025 0.650426 0.631448
0.261431 0.649017 0.630034
0.397571 0.647617 0.628629
0.535447 0.646223 0.627231
0.672021 0.644834 0.625837
0.804260 0.643448 0.624447
0.929144 0.642066 0.623060
1.000000 0.641075 0.622067
0.002183 0.776443 0.628404
0.125902 0.775063 0.626969
0.257068 0.773701 0.625554
0.393076 0.772348 0.624148
0.530925 0.771000 0.622749
0.667576 0.769657 0.621354
0.799994 0.768317 0.619963
0.925160 0.766979 0.618576
1.000000 0.766021 0.617581
0.000000 0.895253 0.623930
0.121795 0.893949 0.622494
0.252719 0.892663 0.621078
0.388591 0.891385 0.619671
0.526410 0.890112 0.618271
0.663134 0.888843 0.616876
0.795728 0.887576 0.615484
0.921172 0.886311 0.614095
1.000000 0.885405 0.613100
0.000000 1.000000 0.619459
0.117704 1.000000 0.618022
0.248381 1.000000 0.616605
0.384115 1.000000 0.615198
0.521900 1.000000 0.613797
0.658694 0.999904 0.612400
0.791460 0.998738 0.611007
0.917179 0.997574 0.609618
1.000000 0.996739 0.608622
0.024806 0.028985 0.778734
0.150568 0.027751 0.777354
0.283110 0.026536 0.775994
0.419854 0.025331 0.774642
0.557814 0.024132 0.773295
0.693958 0.022939 0.771953
0.825257 0.021751 0.770614
0.948695 0.020567 0.769278
1.000000 0.019719 0.768320
0.020892 0.145259 0.774334
0.146312 0.143927 0.772953
0.278626 0.142614 0.771590
0.415253 0.141311 0.770235
0.553202 0.140015 0.768887
0.689442 0.138725 0.767543
0.820941 0.137439 0.766202
0.944685 0.136157 0.764863
1.000000 0.135240 0.763904
0.017025 0.267978 0.769967
0.142103 0.266577 0.768583
0.274189 0.265196 0.767218
0.410695 0.263826 0.765861
0.548630 0.262463 0.764511
0.684961 0.261105 0.763164
0.816656 0.259751 0.761821
0.940698 0.258402 0.760481
1.000000 0.257435 0.759520
0.013189 0.394898 0.765612
0.137922 0.393458 0.764226
0.269777 0.392039 0.762859
0.406160 0.390630 0.761500
0.544078 0.389228 0.760148
0.680496 0.387831 0.758799
0.812382 0.386439 0.757454
0.936718 0.385050 0.756111
1.000000 0.384055 0.755149
0.009378 0.523546 0.761264
0.133764 0.522097 0.759876
0.265384 0.520669 0.758506
0.401641 0.519250 0.757146
0.539539 0.517838 0.755791
0.676040 0.516431 0.754441
0.808113 0.515028 0.753093
0.932739 0.513628 0.751749
1.000000 0.512625 0.750786
0.005588 0.651423 0.756920
0.129625 0.649994 0.755529
0.261008 0.648584 0.754158
0.397135 0.647184 0.752795
0.535009 0.645790 0.751439
0.671590 0.644401 0.750086
0.803846 0.643015 0.748737
0.928758 0.641632 0.747391
1.000000 0.640642 0.746426
0.001819 0.776026 0.752577
0.125503 0.774645 0.751185
0.256646 0.773283 0.749811
0.392640 0.771929 0.748447
0.530487 0.770582 0.747088
0.667145 0.769238 0.745734
0.799580 0.767898 0.744383
0.924773 0.766560 0.743034
1.000000 0.765602 0.742068
0.000000 0.894858 0.748235
0.121397 0.893555 0.746841
0.252297 0.892268 0.745465
0.388156 0.890990 0.744099
0.525971 0.889717 0.742738
0.662702 0.888447 0.741382
0.795313 0.887180 0.740029
0.920784 0.885915 0.738679
1.000000 0.885008 0.737711
0.000000 1.000000 0.743893
0.117306 1.000000 0.742497
0.247960 1.000000 0.741119
0.383680 1.000000 0.739751
0.521461 1.000000 0.738389
0.658262 0.999539 0.737030
0.791045 0.998373 0.735676
0.916790 0.997209 0.734323
1.000000 0.996374 0.733355
0.024433 0.028610 0.896856
0.150162 0.027377 0.895554
0.282683 0.026162 0.894269
0.419416 0.024957 0.892993
0.557375 0.023759 0.891721
0.693528 0.022567 0.890453
0.824846 0.021379 0.889187
0.948314 0.020195 0.887924
1.000000 0.019347 0.887018
0.020520 0.144855 0.892702
0.145907 0.143522 0.891397
0.278200 0.142210 0.890109
0.414815 0.140907 0.888829
0.552763 0.139612 0.887554
0.689012 0.138322 0.886283
0.820530 0.137036 0.885014
0.944303 0.135755 0.883747
1.000000 0.134837 0.882840
0.016655 0.267553 0.888575
0.141699 0.266152 0.887266
0.273763 0.264772 0.885975
0.410257 0.263401 0.884692
0.548191 0.262038 0.883414
0.684530 0.260680 0.882139
0.816244 0.259327 0.880867
0.940315 0.257978 0.879598
1.000000 0.257011 0.878688
0.012820 0.394461 0.884456
0.137519 0.393021 0.883144
0.269351 0.391602 0.881850
0.405722 0.390193 0.880564
0.543639 0.388791 0.879282
0.680065 0.387395 0.878005
0.811969 0.386002 0.876730
0.936334 0.384614 0.875457
1.000000 0.383619 0.874545
0.009009 0.523107 0.880340
0.133362 0.521658 0.879025
0.264959 0.520229 0.877728
0.401203 0.518810 0.876438
0.539099 0.517398 0.875154
0.675609 0.515991 0.873873
0.807699 0.514588 0.872596
0.932353 0.513188 0.871320
1.000000 0.512186 0.870406
0.005221 0.650989 0.876224
0.129224 0.649560 0.874906
0.260583 0.648150 0.873605
0.396698 0.646750 0.872313
0.534569 0.645356 0.871026
0.671158 0.643966 0.869742
0.803432 0.642581 0.868461
0.928371 0.641198 0.867183
1.000000 0.640207 0.866267
0.001453 0.775607 0.872106
0.125102 0.774226 0.870785
0.256222 0.772863 0.869481
0.392204 0.771510 0.868186
0.530047 0.770162 0.866896
0.666713 0.768818 0.865609
0.799165 0.767478 0.864326
0.924385 0.766140 0.863044
1.000000 0.765181 0.862126
0.000000 0.894463 0.867985
0.120998 0.893159 0.866661
0.251874 0.891872 0.865354
0.387719 0.890594 0.864056
0.525531 0.889320 0.862763
0.662270 0.888050 0.861474
0.794897 0.886782 0.860187
0.920395 0.885517 0.858903
1.000000 0.884610 0.857983
0.000000 1.000000 0.863860
0.116908 1.000000 0.862533
0.247538 1.000000 0.861224
0.383243 1.000000 0.859923
0.521021 1.000000 0.858627
0.657829 0.999174 0.857335
0.790628 0.998007 0.856046
0.916400 0.996842 0.854758
1.000000 0.996007 0.853836
0.024059 0.028235 1.000000
0.149756 0.027002 1.000000
0.282254 0.025788 1.000000
0.418976 0.024583 1.000000
0.556935 0.023385 1.000000
0.693097 0.022193 1.000000
0.824434 0.021005 1.000000
0.947932 0.019822 0.998971
1.000000 0.018975 0.998137
0.020147 0.144449 1.000000
0.145502 0.143117 1.000000
0.277772 0.141805 1.000000
0.414376 0.140503 0.999804
0.552323 0.139207 0.998630
0.688580 0.137917 0.997460
0.820117 0.136632 0.996292
0.943919 0.135351 0.995125
1.000000 0.134434 0.994288
0.016283 0.267126 0.999570
0.141294 0.265726 0.998366
0.273335 0.264346 0.997177
0.409818 0.262976 0.995995
0.547751 0.261612 0.994817
0.684099 0.260255 0.993643
0.815831 0.258902 0.992470
0.939930 0.257553 0.991299
1.000000 0.256587 0.990460
0.012449 0.394022 0.995778
0.137115 0.392583 0.994569
0.268925 0.391164 0.993376
0.405283 0.389755 0.992190
0.543198 0.388354 0.991008
0.679633 0.386957 0.989830
0.811555 0.385565 0.988653
0.935948 0.384176 0.987478
1.000000 0.383182 0.986636
0.008640 0.522666 0.991984
0.132959 0.521217 0.990771
0.264533 0.519788 0.989574
0.400765 0.518369 0.988384
0.538658 0.516957 0.987198
0.675176 0.515550 0.986016
0.807285 0.514147 0.984835
0.931966 0.512747 0.983656
1.000000 0.511744 0.982811
0.004853 0.650554 0.988186
0.128821 0.649125 0.986969
0.260158 0.647715 0.985768
0.396260 0.646315 0.984574
0.534128 0.644920 0.983384
0.670725 0.643531 0.982198
0.803016 0.642145 0.981013
0.927983 0.640762 0.979831
1.000000 0.639772 0.978983
0.001086 0.775186 0.984382
0.124701 0.773805 0.983161
0.255797 0.772443 0.981956
0.391766 0.771089 0.980758
0.529606 0.769741 0.979565
0.666279 0.768397 0.978374
0.798749 0.767056 0.977186
0.923996 0.765718 0.976000
1.000000 0.764759 0.975149
0.000000 0.894066 0.980572
0.120597 0.892762 0.979347
0.251450 0.891475 0.978138
0.387281 0.890196 0.976937
0.525091 0.888922 0.975739
0.661835 0.887652 0.974545
0.794480 0.886384 0.973353
0.920005 0.885118 0.972162
1.000000 0.884211 0.971309
0.000000 1.000000 0.976755
0.116509 1.000000 0.975526
0.247114 1.000000 0.974313
0.382806 1.000000 0.973108
0.520580 0.999977 0.971906
0.657394 0.998808 0.970708
0.790211 0.997641 0.969512
0.916009 0.996475 0.968318
1.000000 0.995640 0.967462
