assets/luts/bronze_frost.cube
# Бронза на морозе — синяя тень, бронзовые света
TITLE "bronze_frost"
LUT_3D_SIZE 5
DOMAIN_MIN 0.0 0.0 0.0
DOMAIN_MAX 1.0 1.0 1.0
0.027010 0.031197 0.051876
0.285630 0.028744 0.049382
0.560403 0.026335 0.046934
0.827677 0.023949 0.044508
1.000000 0.021914 0.042438
0.019215 0.270488 0.043923
0.276703 0.267704 0.041445
0.551222 0.264968 0.039012
0.819086 0.262255 0.036601
1.000000 0.259937 0.034544
0.011553 0.526141 0.036103
0.267892 0.523263 0.033640
0.542131 0.520432 0.031222
0.810552 0.517622 0.028826
1.000000 0.515220 0.026782
0.003979 0.778496 0.028368
0.259147 0.775756 0.025921
0.533080 0.773057 0.023518
0.802028 0.770376 0.021138
1.000000 0.768082 0.019107
0.000000 1.000000 0.020708
0.250454 1.000000 0.018276
0.524056 1.000000 0.015889
0.793501 1.000000 0.013525
1.000000 0.998533 0.011507
0.026286 0.030470 0.280268
0.284803 0.028018 0.277476
0.559553 0.025612 0.274732
0.826882 0.023227 0.272011
1.000000 0.021193 0.269686
0.018496 0.269663 0.271354
0.275877 0.266881 0.268570
0.550371 0.264145 0.265833
0.818288 0.261432 0.263119
1.000000 0.259115 0.260801
0.010838 0.525289 0.262557
0.267068 0.522411 0.259780
0.541280 0.519581 0.257051
0.809751 0.516771 0.254345
1.000000 0.514368 0.252033
0.003269 0.777685 0.253827
0.258325 0.774944 0.251058
0.532229 0.772245 0.248336
0.801225 0.769563 0.245637
1.000000 0.767268 0.243332
0.000000 1.000000 0.245149
0.249635 1.000000 0.242388
0.523204 1.000000 0.239675
0.792695 0.999822 0.236984
1.000000 0.997825 0.234686
0.025549 0.029731 0.529531
0.283960 0.027280 0.526654
0.558688 0.024875 0.523823
0.826073 0.022492 0.521014
1.000000 0.020459 0.518612
0.017764 0.268824 0.520335
0.275037 0.266042 0.517457
0.549505 0.263308 0.514626
0.817476 0.260596 0.511816
1.000000 0.258279 0.509414
0.010111 0.524422 0.511234
0.266230 0.521544 0.508356
0.540413 0.518713 0.505524
0.808936 0.515903 0.502714
1.000000 0.513501 0.500311
0.002547 0.776859 0.502176
0.257489 0.774117 0.499297
0.531362 0.771417 0.496466
0.800406 0.768734 0.493655
1.000000 0.766439 0.491253
0.000000 1.000000 0.493147
0.248801 1.000000 0.490268
0.522336 1.000000 0.487437
0.791874 0.999101 0.484627
1.000000 0.997103 0.482224
0.024806 0.028985 0.778734
0.283110 0.026536 0.775994
0.557814 0.024132 0.773295
0.825257 0.021751 0.770614
1.000000 0.019719 0.768320
0.017025 0.267978 0.769967
0.274189 0.265196 0.767218
0.548630 0.262463 0.764511
0.816656 0.259751 0.761821
1.000000 0.257435 0.759520
0.009378 0.523546 0.761264
0.265384 0.520669 0.758506
0.539539 0.517838 0.755791
0.808113 0.515028 0.753093
1.000000 0.512625 0.750786
0.001819 0.776026 0.752577
0.256646 0.773283 0.749811
0.530487 0.770582 0.747088
0.799580 0.767898 0.744383
1.000000 0.765602 0.742068
0.000000 1.000000 0.743893
0.247960 1.000000 0.741119
0.521461 1.000000 0.738389
0.791045 0.998373 0.735676
1.000000 0.996374 0.733355
0.024059 0.028235 1.000000
0.282254 0.025788 1.000000
0.556935 0.023385 1.000000
0.824434 0.021005 1.000000
1.000000 0.018975 0.998137
0.016283 0.267126 0.999570
0.273335 0.264346 0.997177
0.547751 0.261612 0.994817
0.815831 0.258902 0.992470
1.000000 0.256587 0.990460
0.008640 0.522666 0.991984
0.264533 0.519788 0.989574
0.538658 0.516957 0.987198
0.807285 0.514147 0.984835
1.000000 0.511744 0.982811
0.001086 0.775186 0.984382
0.255797 0.772443 0.981956
0.529606 0.769741 0.979565
0.798749 0.767056 0.977186
1.000000 0.764759 0.975149
0.000000 1.000000 0.976755
0.247114 1.000000 0.974313
0.520580 0.999977 0.971906
0.790211 0.997641 0.969512
1.000000 0.995640 0.967462
