assets/luts/bronze_frost.cube
# Бронза на морозе — синяя тень, бронзовые света
TITLE "bronze_frost"
LUT_3D_SIZE 17
DOMAIN_MIN 0.0 0.0 0.0
DOMAIN_MAX 1.0 1.0 1.0
0.027010 0.031197 0.051876
0.089046 0.030575 0.051244
0.152963 0.029961 0.050619
0.218598 0.029351 0.049999
0.285630 0.028744 0.049382
0.353701 0.028139 0.048767
0.422439 0.027536 0.048155
0.491466 0.026935 0.047543
0.560403 0.026335 0.046934
0.628872 0.025737 0.046326
0.696492 0.025140 0.045719
0.762886 0.024544 0.045113
0.827677 0.023949 0.044508
0.890487 0.023356 0.043904
0.950943 0.022763 0.043302
1.000000 0.022171 0.042700
1.000000 0.021914 0.042438
0.025041 0.088515 0.049867
0.086985 0.087867 0.049236
0.150824 0.087226 0.048613
0.216395 0.086589 0.047994
0.283379 0.085956 0.047378
0.351414 0.085325 0.046764
0.420130 0.084696 0.046152
0.489148 0.084069 0.045542
0.558090 0.083443 0.044933
0.626577 0.082819 0.044326
0.694228 0.082196 0.043720
0.760667 0.081574 0.043115
0.825515 0.080953 0.042511
0.888396 0.080333 0.041908
0.948935 0.079714 0.041306
1.000000 0.079096 0.040706
1.000000 0.078828 0.040444
0.023089 0.147647 0.047876
0.084940 0.146976 0.047246
0.148702 0.146313 0.046623
0.214210 0.145654 0.046005
0.281144 0.144999 0.045390
0.349144 0.144345 0.044777
0.417837 0.143694 0.044166
0.486846 0.143045 0.043557
0.555793 0.142397 0.042949
0.624297 0.141750 0.042343
0.691979 0.141105 0.041738
0.758461 0.140460 0.041134
0.823366 0.139817 0.040531
0.886317 0.139175 0.039929
0.946939 0.138534 0.039328
1.000000 0.137894 0.038728
1.000000 0.137615 0.038467
0.021148 0.208398 0.045895
0.082906 0.207708 0.045266
0.146590 0.207026 0.044645
0.212035 0.206349 0.044027
0.278920 0.205674 0.043413
0.346883 0.205002 0.042801
0.415554 0.204333 0.042191
0.484554 0.203665 0.041583
0.553504 0.202998 0.040976
0.622025 0.202333 0.040371
0.689738 0.201669 0.039767
0.756263 0.201006 0.039164
0.821224 0.200344 0.038562
0.884244 0.199684 0.037961
0.944948 0.199024 0.037361
1.000000 0.198365 0.036762
1.000000 0.198078 0.036501
0.019215 0.270488 0.043923
0.080881 0.269783 0.043295
0.144487 0.269086 0.042675
0.209869 0.268393 0.042058
0.276703 0.267704 0.041445
0.344630 0.267017 0.040834
0.413278 0.266333 0.040225
0.482268 0.265650 0.039618
0.551222 0.264968 0.039012
0.619759 0.264288 0.038407
0.687501 0.263609 0.037804
0.754069 0.262931 0.037202
0.819086 0.262255 0.036601
0.882174 0.261579 0.036001
0.942959 0.260904 0.035402
1.000000 0.260230 0.034804
1.000000 0.259937 0.034544
0.017290 0.333616 0.041959
0.078863 0.332900 0.041332
0.142391 0.332192 0.040712
0.207709 0.331488 0.040097
0.274493 0.330787 0.039484
0.342383 0.330089 0.038874
0.411007 0.329393 0.038266
0.479987 0.328699 0.037660
0.548944 0.328006 0.037055
0.617497 0.327315 0.036451
0.685268 0.326625 0.035849
0.751878 0.325935 0.035248
0.816950 0.325247 0.034648
0.880106 0.324560 0.034049
0.940972 0.323874 0.033451
0.999173 0.323188 0.032854
1.000000 0.322890 0.032594
0.015372 0.397476 0.040001
0.076852 0.396752 0.039375
0.140301 0.396036 0.038756
0.205554 0.395324 0.038142
0.272288 0.394616 0.037530
0.340141 0.393910 0.036921
0.408741 0.393207 0.036314
0.477711 0.392505 0.035708
0.546670 0.391804 0.035105
0.615239 0.391105 0.034502
0.683039 0.390407 0.033901
0.749690 0.389710 0.033300
0.814816 0.389014 0.032701
0.878040 0.388319 0.032103
0.938986 0.387625 0.031506
0.997279 0.386931 0.030910
1.000000 0.386630 0.030651
0.013459 0.461755 0.038049
0.074846 0.461027 0.037424
0.138217 0.460307 0.036806
0.203405 0.459591 0.036193
0.270088 0.458879 0.035582
0.337903 0.458169 0.034974
0.406479 0.457461 0.034368
0.475438 0.456755 0.033763
0.544399 0.456051 0.033160
0.612983 0.455347 0.032559
0.680811 0.454645 0.031958
0.747504 0.453944 0.031359
0.812684 0.453243 0.030761
0.875974 0.452544 0.030164
0.936999 0.451845 0.029568
0.995385 0.451147 0.028972
1.000000 0.450844 0.028714
0.011553 0.526141 0.036103
0.072845 0.525412 0.035478
0.136138 0.524692 0.034862
0.201261 0.523976 0.034249
0.267892 0.523263 0.033640
0.335670 0.522553 0.033032
0.404221 0.521845 0.032427
0.473168 0.521138 0.031824
0.542131 0.520432 0.031222
0.610730 0.519728 0.030621
0.678585 0.519025 0.030021
0.745319 0.518323 0.029423
0.810552 0.517622 0.028826
0.873908 0.516922 0.028230
0.935013 0.516223 0.027635
0.993491 0.515524 0.027040
1.000000 0.515220 0.026782
0.009652 0.590320 0.034162
0.070850 0.589595 0.033538
0.134063 0.588878 0.032923
0.199121 0.588165 0.032311
0.265700 0.587456 0.031702
0.333439 0.586749 0.031096
0.401966 0.586043 0.030492
0.470901 0.585339 0.029889
0.539865 0.584637 0.029288
0.608479 0.583936 0.028689
0.676361 0.583236 0.028090
0.743134 0.582536 0.027493
0.808421 0.581838 0.026897
0.871843 0.581141 0.026301
0.933026 0.580444 0.025707
0.991595 0.579748 0.025114
1.000000 0.579445 0.024856
0.007756 0.653981 0.032226
0.068860 0.653263 0.031603
0.131993 0.652553 0.030989
0.196985 0.651847 0.030378
0.263512 0.651144 0.029770
0.331213 0.650443 0.029165
0.399714 0.649744 0.028562
0.468637 0.649047 0.027960
0.537602 0.648351 0.027360
0.606229 0.647656 0.026761
0.674138 0.646962 0.026164
0.740951 0.646269 0.025567
0.806290 0.645577 0.024972
0.869777 0.644886 0.024378
0.931038 0.644195 0.023785
0.989698 0.643505 0.023192
1.000000 0.643205 0.022935
0.005865 0.716811 0.030294
0.066874 0.716103 0.029673
0.129927 0.715403 0.029060
0.194853 0.714707 0.028450
0.261328 0.714014 0.027843
0.328989 0.713324 0.027239
0.397464 0.712635 0.026636
0.466375 0.711948 0.026036
0.535340 0.711262 0.025437
0.603981 0.710577 0.024839
0.671916 0.709893 0.024242
0.738768 0.709210 0.023647
0.804159 0.708527 0.023053
0.867711 0.707846 0.022459
0.929050 0.707165 0.021867
0.987799 0.706484 0.021276
1.000000 0.706188 0.021019
0.003979 0.778496 0.028368
0.064893 0.777803 0.027748
0.127866 0.777117 0.027135
0.192725 0.776435 0.026526
0.259147 0.775756 0.025921
0.326769 0.775079 0.025317
0.395218 0.774404 0.024716
0.464115 0.773730 0.024116
0.533080 0.773057 0.023518
0.601734 0.772386 0.022921
0.669695 0.771715 0.022326
0.736586 0.771045 0.021731
0.802028 0.770376 0.021138
0.865645 0.769707 0.020546
0.927060 0.769039 0.019954
0.985899 0.768372 0.019364
1.000000 0.768082 0.019107
0.002098 0.838726 0.026446
0.062916 0.838050 0.025827
0.125808 0.837382 0.025215
0.190601 0.836718 0.024608
0.256969 0.836056 0.024003
0.324551 0.835396 0.023401
0.392973 0.834738 0.022800
0.461857 0.834081 0.022201
0.530822 0.833426 0.021604
0.599488 0.832771 0.021008
0.667475 0.832117 0.020414
0.734404 0.831464 0.019820
0.799897 0.830811 0.019228
0.863577 0.830159 0.018636
0.925069 0.829508 0.018046
0.983998 0.828857 0.017457
1.000000 0.828574 0.017200
0.000221 0.897190 0.024529
0.060944 0.896535 0.023911
0.123754 0.895888 0.023300
0.188480 0.895245 0.022693
0.254794 0.894604 0.022090
0.322336 0.893965 0.021488
0.390731 0.893327 0.020889
0.459601 0.892691 0.020291
0.528565 0.892056 0.019695
0.597243 0.891421 0.019100
0.665255 0.890788 0.018506
0.732222 0.890155 0.017914
0.797765 0.889522 0.017322
0.861509 0.888890 0.016732
0.923077 0.888259 0.016143
0.982094 0.887628 0.015554
1.000000 0.887354 0.015298
0.000000 0.953576 0.022616
0.058975 0.952947 0.021999
0.121704 0.952324 0.021389
0.186362 0.951705 0.020784
0.252623 0.951089 0.020181
0.320124 0.950474 0.019580
0.388492 0.949860 0.018982
0.457347 0.949248 0.018385
0.526310 0.948637 0.017790
0.594999 0.948026 0.017196
0.663035 0.947416 0.016603
0.730040 0.946807 0.016012
0.795633 0.946198 0.015421
0.859440 0.945590 0.014832
0.921084 0.944982 0.014243
0.980189 0.944374 0.013656
1.000000 0.944110 0.013401
0.000000 1.000000 0.020708
0.057011 1.000000 0.020092
0.119658 1.000000 0.019483
0.184248 1.000000 0.018878
0.250454 1.000000 0.018276
0.317914 1.000000 0.017677
0.386254 1.000000 0.017079
0.455095 1.000000 0.016483
0.524056 1.000000 0.015889
0.592756 1.000000 0.015296
0.660817 1.000000 0.014704
0.727858 1.000000 0.014114
0.793501 1.000000 0.013525
0.857370 0.999948 0.012936
0.919089 0.999367 0.012349
0.978282 0.998786 0.011762
1.000000 0.998533 0.011507
0.026831 0.031017 0.105769
0.088859 0.030396 0.105114
0.152768 0.029782 0.104466
0.218398 0.029172 0.103823
0.285426 0.028565 0.103182
0.353494 0.027960 0.102544
0.422229 0.027357 0.101909
0.491256 0.026756 0.101274
0.560193 0.026157 0.100642
0.628663 0.025558 0.100010
0.696287 0.024961 0.099380
0.762685 0.024366 0.098751
0.827481 0.023771 0.098124
0.890298 0.023177 0.097497
0.950761 0.022585 0.096871
1.000000 0.021993 0.096246
1.000000 0.021736 0.095974
0.024863 0.088328 0.103686
0.086798 0.087679 0.103031
0.150630 0.087039 0.102384
0.216196 0.086403 0.101742
0.283174 0.085769 0.101102
0.351207 0.085138 0.100465
0.419920 0.084509 0.099830
0.488938 0.083882 0.099197
0.557880 0.083257 0.098565
0.626368 0.082632 0.097934
0.694023 0.082009 0.097305
0.760465 0.081388 0.096677
0.825319 0.080767 0.096050
0.888206 0.080147 0.095424
0.948753 0.079528 0.094799
1.000000 0.078910 0.094175
1.000000 0.078642 0.093903
0.022911 0.147454 0.101619
0.084753 0.146783 0.100965
0.148508 0.146120 0.100319
0.214011 0.145461 0.099678
0.280940 0.144805 0.099039
0.348936 0.144152 0.098403
0.417627 0.143501 0.097768
0.486636 0.142851 0.097136
0.555583 0.142203 0.096505
0.624088 0.141557 0.095875
0.691773 0.140912 0.095247
0.758260 0.140267 0.094619
0.823170 0.139624 0.093993
0.886127 0.138982 0.093368
0.946756 0.138341 0.092744
1.000000 0.137701 0.092121
1.000000 0.137423 0.091850
0.020970 0.208199 0.099564
0.082720 0.207509 0.098911
0.146397 0.206827 0.098265
0.211836 0.206150 0.097625
0.278716 0.205475 0.096987
0.346676 0.204804 0.096351
0.415344 0.204134 0.095718
0.484343 0.203466 0.095086
0.553294 0.202799 0.094456
0.621817 0.202134 0.093827
0.689532 0.201470 0.093199
0.756061 0.200807 0.092573
0.821027 0.200146 0.091948
0.884054 0.199485 0.091323
0.944765 0.198825 0.090700
1.000000 0.198166 0.090077
1.000000 0.197880 0.089807
0.019037 0.270284 0.097516
0.080695 0.269579 0.096864
0.144294 0.268882 0.096220
0.209669 0.268190 0.095580
0.276499 0.267501 0.094943
0.344423 0.266814 0.094308
0.413068 0.266129 0.093676
0.482058 0.265446 0.093045
0.551012 0.264765 0.092415
0.619551 0.264085 0.091787
0.687295 0.263406 0.091160
0.753867 0.262728 0.090535
0.818889 0.262051 0.089910
0.881983 0.261376 0.089287
0.942776 0.260701 0.088664
1.000000 0.260027 0.088042
1.000000 0.259734 0.087772
0.017113 0.333409 0.095476
0.078677 0.332693 0.094825
0.142198 0.331985 0.094182
0.207510 0.331281 0.093542
0.274289 0.330581 0.092906
0.342176 0.329883 0.092272
0.410798 0.329187 0.091640
0.479777 0.328492 0.091010
0.548734 0.327800 0.090382
0.617289 0.327108 0.089755
0.685062 0.326418 0.089129
0.751676 0.325729 0.088504
0.816753 0.325041 0.087880
0.879915 0.324354 0.087258
0.940789 0.323667 0.086636
0.998998 0.322982 0.086015
1.000000 0.322684 0.085745
0.015194 0.397267 0.093443
0.076666 0.396543 0.092792
0.140108 0.395827 0.092150
0.205355 0.395115 0.091511
0.272084 0.394407 0.090876
0.339934 0.393701 0.090243
0.408532 0.392998 0.089612
0.477500 0.392296 0.088983
0.546460 0.391595 0.088355
0.615030 0.390896 0.087728
0.682833 0.390198 0.087103
0.749488 0.389501 0.086479
0.814619 0.388805 0.085856
0.877849 0.388110 0.085235
0.938802 0.387416 0.084614
0.997104 0.386722 0.083994
1.000000 0.386421 0.083724
0.013283 0.461544 0.091415
0.074660 0.460816 0.090765
0.138024 0.460096 0.090123
0.203207 0.459381 0.089486
0.269884 0.458669 0.088851
0.337696 0.457959 0.088219
0.406270 0.457251 0.087589
0.475227 0.456545 0.086960
0.544189 0.455840 0.086334
0.612775 0.455137 0.085708
0.680605 0.454435 0.085084
0.747301 0.453733 0.084461
0.812486 0.453033 0.083839
0.875783 0.452334 0.083217
0.936815 0.451635 0.082597
0.995210 0.450937 0.081978
1.000000 0.450634 0.081709
0.011376 0.525930 0.089392
0.072660 0.525202 0.088744
0.135945 0.524481 0.088102
0.201062 0.523766 0.087466
0.267688 0.523053 0.086832
0.335463 0.522343 0.086201
0.404012 0.521634 0.085571
0.472958 0.520927 0.084944
0.541921 0.520222 0.084318
0.610521 0.519518 0.083693
0.678379 0.518815 0.083069
0.745116 0.518113 0.082447
0.810354 0.517412 0.081826
0.873717 0.516712 0.081206
0.934829 0.516012 0.080586
0.993315 0.515314 0.079968
1.000000 0.515010 0.079699
0.009475 0.590111 0.087375
0.070665 0.589386 0.086727
0.133871 0.588669 0.086087
0.198923 0.587956 0.085451
0.265497 0.587246 0.084818
0.333233 0.586539 0.084187
0.401757 0.585834 0.083559
0.470691 0.585130 0.082932
0.539655 0.584427 0.082307
0.608270 0.583726 0.081683
0.676155 0.583026 0.081060
0.742932 0.582327 0.080439
0.808223 0.581628 0.079818
0.871651 0.580931 0.079199
0.932841 0.580234 0.078581
0.991419 0.579538 0.077963
1.000000 0.579235 0.077695
0.007580 0.653774 0.085362
0.068675 0.653056 0.084715
0.131801 0.652345 0.084075
0.196787 0.651639 0.083440
0.263309 0.650936 0.082808
0.331006 0.650236 0.082179
0.399505 0.649537 0.081551
0.468426 0.648839 0.080925
0.537392 0.648143 0.080301
0.606020 0.647448 0.079678
0.673932 0.646755 0.079056
0.740748 0.646062 0.078435
0.806092 0.645370 0.077816
0.869585 0.644678 0.077197
0.930853 0.643987 0.076580
0.989521 0.643297 0.075963
1.000000 0.642997 0.075695
0.005689 0.716606 0.083353
0.066690 0.715898 0.082707
0.129735 0.715198 0.082069
0.194655 0.714503 0.081435
0.261125 0.713810 0.080803
0.328783 0.713119 0.080175
0.397255 0.712431 0.079548
0.466164 0.711743 0.078923
0.535130 0.711057 0.078299
0.603771 0.710372 0.077677
0.671710 0.709688 0.077056
0.738565 0.709005 0.076436
0.803961 0.708322 0.075818
0.867519 0.707641 0.075200
0.928865 0.706960 0.074583
0.987623 0.706279 0.073967
1.000000 0.705983 0.073700
0.003804 0.778296 0.081350
0.064709 0.777602 0.080704
0.127674 0.776916 0.080067
0.192527 0.776234 0.079433
0.258944 0.775555 0.078803
0.326562 0.774878 0.078175
0.395009 0.774203 0.077549
0.463905 0.773529 0.076925
0.532870 0.772857 0.076302
0.601524 0.772185 0.075681
0.669488 0.771514 0.075061
0.736383 0.770844 0.074442
0.801830 0.770175 0.073824
0.865452 0.769506 0.073207
0.926875 0.768838 0.072591
0.985723 0.768171 0.071976
1.000000 0.767881 0.071709
0.001923 0.838531 0.079350
0.062732 0.837855 0.078706
0.125616 0.837187 0.078069
0.190403 0.836522 0.077436
0.256766 0.835860 0.076807
0.324345 0.835201 0.076180
0.392764 0.834543 0.075555
0.461647 0.833886 0.074931
0.530612 0.833230 0.074310
0.599279 0.832575 0.073689
0.667268 0.831921 0.073070
0.734200 0.831268 0.072452
0.799698 0.830615 0.071835
0.863385 0.829963 0.071219
0.924884 0.829312 0.070604
0.983821 0.828661 0.069990
1.000000 0.828378 0.069723
0.000046 0.897001 0.077355
0.060760 0.896346 0.076711
0.123563 0.895699 0.076075
0.188282 0.895055 0.075444
0.254592 0.894414 0.074815
0.322130 0.893775 0.074189
0.390523 0.893138 0.073565
0.459391 0.892501 0.072942
0.528355 0.891866 0.072321
0.597034 0.891232 0.071701
0.665048 0.890598 0.071083
0.732018 0.889965 0.070466
0.797567 0.889332 0.069850
0.861316 0.888701 0.069235
0.922891 0.888069 0.068620
0.981917 0.887438 0.068007
1.000000 0.887164 0.067741
0.000000 0.953395 0.075363
0.058792 0.952765 0.074721
0.121513 0.952142 0.074086
0.186165 0.951523 0.073455
0.252420 0.950906 0.072827
0.319918 0.950292 0.072202
0.388283 0.949678 0.071578
0.457137 0.949066 0.070957
0.526099 0.948454 0.070337
0.594790 0.947844 0.069718
0.662828 0.947234 0.069100
0.729836 0.946624 0.068484
0.795435 0.946015 0.067869
0.859247 0.945407 0.067254
0.920898 0.944799 0.066641
0.980011 0.944191 0.066029
1.000000 0.943927 0.065763
0.000000 1.000000 0.073376
0.056828 1.000000 0.072734
0.119467 1.000000 0.072100
0.184051 1.000000 0.071470
0.250252 1.000000 0.070843
0.317708 1.000000 0.070219
0.386045 1.000000 0.069596
0.454884 1.000000 0.068976
0.523845 1.000000 0.068356
0.592547 1.000000 0.067738
0.660609 1.000000 0.067122
0.727654 1.000000 0.066506
0.793302 1.000000 0.065892
0.857177 0.999773 0.065278
0.918903 0.999192 0.064666
0.978104 0.998611 0.064054
1.000000 0.998358 0.063789
0.026651 0.030836 0.162074
0.088670 0.030215 0.161398
0.152572 0.029600 0.160730
0.218196 0.028991 0.160066
0.285219 0.028384 0.159406
0.353284 0.027779 0.158748
0.422018 0.027176 0.158092
0.491043 0.026575 0.157437
0.559981 0.025976 0.156785
0.628453 0.025378 0.156133
0.696079 0.024781 0.155483
0.762481 0.024185 0.154834
0.827282 0.023591 0.154186
0.890106 0.022997 0.153539
0.950577 0.022405 0.152893
1.000000 0.021813 0.152248
1.000000 0.021556 0.151968
0.024682 0.088139 0.159925
0.086609 0.087490 0.159250
0.150434 0.086850 0.158583
0.215994 0.086214 0.157920
0.282968 0.085580 0.157260
0.350997 0.084950 0.156602
0.419708 0.084321 0.155947
0.488725 0.083694 0.155294
0.557668 0.083068 0.154641
0.626158 0.082444 0.153991
0.693815 0.081821 0.153341
0.760262 0.081199 0.152693
0.825120 0.080579 0.152046
0.888015 0.079959 0.151399
0.948569 0.079340 0.150754
1.000000 0.078722 0.150110
1.000000 0.078454 0.149830
0.022731 0.147258 0.157793
0.084565 0.146587 0.157119
0.148312 0.145924 0.156452
0.213809 0.145265 0.155790
0.280733 0.144610 0.155131
0.348727 0.143957 0.154474
0.417416 0.143305 0.153820
0.486423 0.142656 0.153167
0.555371 0.142008 0.152515
0.623878 0.141362 0.151865
0.691566 0.140717 0.151217
0.758056 0.140072 0.150569
0.822971 0.139429 0.149922
0.885935 0.138787 0.149277
0.946572 0.138146 0.148632
1.000000 0.137506 0.147988
1.000000 0.137228 0.147709
0.020790 0.207997 0.155672
0.082531 0.207308 0.154999
0.146201 0.206626 0.154333
0.211634 0.205949 0.153671
0.278509 0.205274 0.153013
0.346466 0.204603 0.152357
0.415133 0.203933 0.151703
0.484131 0.203265 0.151051
0.553082 0.202598 0.150400
0.621606 0.201933 0.149751
0.689324 0.201270 0.149103
0.755857 0.200607 0.148456
0.820828 0.199945 0.147810
0.883861 0.199285 0.147165
0.944580 0.198625 0.146521
1.000000 0.197966 0.145878
1.000000 0.197680 0.145598
0.018858 0.270078 0.153559
0.080507 0.269373 0.152886
0.144099 0.268677 0.152221
0.209468 0.267984 0.151560
0.276293 0.267295 0.150903
0.344213 0.266608 0.150247
0.412857 0.265924 0.149594
0.481845 0.265241 0.148943
0.550799 0.264560 0.148293
0.619340 0.263880 0.147644
0.687087 0.263201 0.146997
0.753663 0.262523 0.146351
0.818690 0.261846 0.145705
0.881791 0.261171 0.145061
0.942591 0.260496 0.144418
1.000000 0.259822 0.143776
1.000000 0.259529 0.143497
0.016933 0.333200 0.151454
0.078489 0.332484 0.150781
0.142003 0.331776 0.150117
0.207308 0.331072 0.149457
0.274083 0.330372 0.148800
0.341966 0.329674 0.148145
0.410586 0.328978 0.147493
0.479564 0.328284 0.146842
0.548522 0.327591 0.146193
0.617078 0.326900 0.145545
0.684854 0.326209 0.144898
0.751472 0.325520 0.144253
0.816554 0.324832 0.143608
0.879723 0.324145 0.142965
0.940603 0.323459 0.142322
0.998821 0.322773 0.141681
1.000000 0.322475 0.141402
0.015016 0.397055 0.149354
0.076478 0.396331 0.148682
0.139913 0.395615 0.148018
0.205154 0.394904 0.147359
0.271878 0.394196 0.146703
0.339724 0.393490 0.146049
0.408320 0.392787 0.145397
0.477288 0.392085 0.144747
0.546247 0.391384 0.144098
0.614819 0.390685 0.143451
0.682624 0.389987 0.142805
0.749284 0.389290 0.142161
0.814420 0.388594 0.141517
0.877656 0.387899 0.140874
0.938616 0.387205 0.140232
0.996927 0.386512 0.139591
1.000000 0.386210 0.139313
0.013104 0.461332 0.147259
0.074473 0.460604 0.146589
0.137829 0.459884 0.145926
0.203006 0.459169 0.145267
0.269678 0.458456 0.144611
0.337487 0.457747 0.143958
0.406059 0.457039 0.143307
0.475015 0.456333 0.142658
0.543977 0.455628 0.142010
0.612564 0.454925 0.141363
0.680397 0.454222 0.140718
0.747097 0.453521 0.140074
0.812287 0.452821 0.139431
0.875589 0.452121 0.138789
0.936630 0.451423 0.138148
0.995033 0.450725 0.137508
1.000000 0.450422 0.137229
0.011198 0.525718 0.145170
0.072473 0.524989 0.144500
0.135750 0.524269 0.143838
0.200862 0.523553 0.143180
0.267483 0.522840 0.142525
0.335254 0.522130 0.141872
0.403800 0.521422 0.141222
0.472745 0.520715 0.140573
0.541708 0.520010 0.139926
0.610310 0.519306 0.139281
0.678171 0.518603 0.138636
0.744911 0.517901 0.137993
0.810154 0.517199 0.137350
0.873523 0.516499 0.136709
0.934643 0.515800 0.136069
0.993137 0.515101 0.135429
1.000000 0.514797 0.135151
0.009297 0.589900 0.143086
0.070478 0.589174 0.142416
0.133676 0.588457 0.141755
0.198722 0.587744 0.141097
0.265291 0.587035 0.140443
0.333024 0.586327 0.139791
0.401545 0.585622 0.139142
0.470478 0.584918 0.138494
0.539443 0.584216 0.137847
0.608059 0.583515 0.137202
0.675946 0.582814 0.136559
0.742727 0.582115 0.135916
0.808023 0.581417 0.135274
0.871457 0.580719 0.134634
0.932655 0.580022 0.133994
0.991241 0.579326 0.133355
1.000000 0.579024 0.133078
0.007402 0.653564 0.141005
0.068489 0.652846 0.140337
0.131607 0.652136 0.139676
0.196587 0.651430 0.139019
0.263104 0.650727 0.138366
0.330797 0.650026 0.137715
0.399293 0.649327 0.137066
0.468214 0.648630 0.136419
0.537179 0.647934 0.135773
0.605809 0.647239 0.135129
0.673723 0.646545 0.134486
0.740543 0.645852 0.133844
0.805892 0.645160 0.133203
0.869391 0.644468 0.132563
0.930667 0.643778 0.131924
0.989343 0.643088 0.131286
1.000000 0.642787 0.131009
0.005512 0.716400 0.138930
0.066503 0.715692 0.138262
0.129541 0.714992 0.137602
0.194455 0.714296 0.136946
0.260920 0.713603 0.136293
0.328574 0.712913 0.135643
0.397044 0.712224 0.134995
0.465952 0.711537 0.134348
0.534917 0.710850 0.133703
0.603560 0.710165 0.133059
0.671501 0.709481 0.132417
0.738360 0.708798 0.131776
0.803760 0.708116 0.131136
0.867325 0.707434 0.130497
0.928678 0.706753 0.129858
0.987444 0.706072 0.129221
1.000000 0.705776 0.128944
0.003627 0.778094 0.136858
0.064523 0.777400 0.136191
0.127480 0.776714 0.135531
0.192327 0.776032 0.134876
0.258739 0.775353 0.134224
0.326354 0.774676 0.133575
0.394798 0.774000 0.132927
0.463692 0.773327 0.132281
0.532658 0.772654 0.131637
0.601313 0.771982 0.130994
0.669279 0.771311 0.130353
0.736177 0.770641 0.129712
0.801629 0.769972 0.129073
0.865258 0.769304 0.128434
0.926687 0.768635 0.127797
0.985544 0.767968 0.127160
1.000000 0.767678 0.126884
0.001746 0.838334 0.134790
0.062547 0.837658 0.134124
0.125423 0.836990 0.133465
0.190203 0.836325 0.132811
0.256561 0.835663 0.132159
0.324136 0.835003 0.131511
0.392553 0.834345 0.130864
0.461434 0.833688 0.130219
0.530399 0.833032 0.129575
0.599067 0.832377 0.128933
0.667059 0.831723 0.128292
0.733995 0.831070 0.127652
0.799498 0.830418 0.127014
0.863190 0.829766 0.126376
0.924696 0.829114 0.125739
0.983642 0.828463 0.125104
1.000000 0.828180 0.124827
0.000000 0.896810 0.132726
0.060575 0.896156 0.132060
0.123370 0.895508 0.131402
0.188083 0.894864 0.130749
0.254387 0.894223 0.130098
0.321921 0.893584 0.129450
0.390312 0.892946 0.128804
0.459179 0.892310 0.128160
0.528142 0.891675 0.127517
0.596822 0.891040 0.126876
0.664839 0.890406 0.126236
0.731813 0.889773 0.125597
0.797366 0.889141 0.124959
0.861121 0.888509 0.124322
0.922704 0.887877 0.123686
0.981738 0.887246 0.123051
1.000000 0.886972 0.122775
0.000000 0.953211 0.130666
0.058607 0.952581 0.130001
0.121320 0.951959 0.129344
0.185965 0.951339 0.128691
0.252216 0.950723 0.128041
0.319709 0.950108 0.127394
0.388072 0.949494 0.126748
0.456925 0.948881 0.126105
0.525887 0.948270 0.125463
0.594578 0.947659 0.124822
0.662619 0.947049 0.124183
0.729630 0.946440 0.123545
0.795234 0.945831 0.122907
0.859052 0.945222 0.122271
0.920710 0.944614 0.121636
0.979832 0.944007 0.121002
1.000000 0.943742 0.120726
0.000000 1.000000 0.128609
0.056643 1.000000 0.127945
0.119275 1.000000 0.127289
0.183852 1.000000 0.126637
0.250047 1.000000 0.125988
0.317500 1.000000 0.125341
0.385834 1.000000 0.124696
0.454672 1.000000 0.124054
0.523633 1.000000 0.123412
0.592335 1.000000 0.122772
0.660400 1.000000 0.122134
0.727448 1.000000 0.121496
0.793101 1.000000 0.120860
0.856982 0.999596 0.120224
0.918714 0.999015 0.119590
0.977924 0.998434 0.118956
1.000000 0.998182 0.118681
0.026469 0.030653 0.220360
0.088479 0.030032 0.219667
0.152375 0.029418 0.218981
0.217992 0.028808 0.218301
0.285012 0.028201 0.217623
0.353073 0.027597 0.216948
0.421804 0.026994 0.216275
0.490829 0.026394 0.215604
0.559768 0.025794 0.214934
0.628241 0.025196 0.214266
0.695870 0.024600 0.213599
0.762277 0.024004 0.212933
0.827083 0.023409 0.212268
0.889913 0.022816 0.211604
0.950391 0.022223 0.210941
1.000000 0.021632 0.210279
1.000000 0.021375 0.209991
