assets/luts/moonlit_marble.cube
# Лунный мрамор — базовый холодный цветокор канала
TITLE "moonlit_marble"
LUT_3D_SIZE 17
DOMAIN_MIN 0.0 0.0 0.0
DOMAIN_MAX 1.0 1.0 1.0
0.028753 0.034332 0.047802
0.086389 0.034094 0.047562
0.144556 0.033863 0.047329
0.203523 0.033635 0.047098
0.263216 0.033409 0.046871
0.323474 0.033185 0.046644
0.384103 0.032963 0.046420
0.444893 0.032742 0.046196
0.505628 0.032521 0.045974
0.566091 0.032302 0.045753
0.626060 0.032084 0.045532
0.685315 0.031866 0.045313
0.743636 0.031649 0.045094
0.800805 0.031433 0.044875
0.856601 0.031217 0.044658
0.910808 0.031002 0.044440
0.963210 0.030788 0.044224
0.027975 0.090302 0.047014
0.085581 0.090056 0.046774
0.143722 0.089816 0.046541
0.202668 0.089579 0.046310
0.262344 0.089345 0.046083
0.322589 0.089113 0.045857
0.383208 0.088882 0.045632
0.443993 0.088652 0.045409
0.504727 0.088424 0.045187
0.565192 0.088196 0.044966
0.625166 0.087970 0.044745
0.684431 0.087744 0.044526
0.742766 0.087519 0.044307
0.799951 0.087294 0.044089
0.855767 0.087071 0.043871
0.909998 0.086847 0.043654
0.962428 0.086625 0.043437
0.027201 0.147994 0.046228
0.084775 0.147740 0.045989
0.142891 0.147493 0.045755
0.201816 0.147249 0.045525
0.261475 0.147007 0.045298
0.321707 0.146768 0.045072
0.382317 0.146530 0.044848
0.443096 0.146293 0.044624
0.503828 0.146057 0.044402
0.564295 0.145823 0.044181
0.624276 0.145589 0.043961
0.683550 0.145356 0.043742
0.741898 0.145124 0.043523
0.799099 0.144893 0.043305
0.854936 0.144662 0.043087
0.909191 0.144432 0.042870
0.961647 0.144202 0.042654
0.026428 0.207188 0.045445
0.083972 0.206927 0.045206
0.142062 0.206674 0.044972
0.200965 0.206423 0.044742
0.260607 0.206176 0.044515
0.320826 0.205930 0.044289
0.381427 0.205686 0.044065
0.442201 0.205443 0.043842
0.502932 0.205202 0.043620
0.563400 0.204961 0.043399
0.623387 0.204722 0.043179
0.682670 0.204483 0.042960
0.741031 0.204245 0.042741
0.798249 0.204008 0.042523
0.854106 0.203771 0.042306
0.908384 0.203535 0.042089
0.960868 0.203299 0.041872
0.025657 0.267627 0.044663
0.083170 0.267361 0.044424
0.141234 0.267102 0.044191
0.200117 0.266847 0.043961
0.259742 0.266595 0.043733
0.319947 0.266344 0.043508
0.380539 0.266095 0.043284
0.441307 0.265848 0.043061
0.502036 0.265601 0.042839
0.562507 0.265356 0.042618
0.622499 0.265112 0.042398
0.681792 0.264868 0.042179
0.740165 0.264625 0.041961
0.797400 0.264383 0.041743
0.853276 0.264142 0.041525
0.907578 0.263901 0.041309
0.960089 0.263660 0.041092
0.024887 0.329044 0.043882
0.082370 0.328775 0.043643
0.140408 0.328512 0.043410
0.199269 0.328253 0.043181
0.258877 0.327997 0.042953
0.319069 0.327743 0.042728
0.379652 0.327490 0.042504
0.440414 0.327239 0.042281
0.501142 0.326989 0.042059
0.561614 0.326740 0.041839
0.621612 0.326492 0.041619
0.680914 0.326245 0.041400
0.739300 0.325998 0.041181
0.796551 0.325752 0.040964
0.852448 0.325507 0.040747
0.906773 0.325263 0.040530
0.959310 0.325019 0.040314
0.024118 0.391171 0.043103
0.081570 0.390899 0.042864
0.139583 0.390633 0.042631
0.198423 0.390372 0.042401
0.258013 0.390113 0.042174
0.318192 0.389856 0.041949
0.378765 0.389601 0.041725
0.439522 0.389347 0.041503
0.500248 0.389094 0.041281
0.560723 0.388843 0.041060
0.620726 0.388592 0.040841
0.680037 0.388343 0.040622
0.738436 0.388094 0.040403
0.795703 0.387845 0.040186
0.851619 0.387598 0.039969
0.905968 0.387350 0.039752
0.958532 0.387104 0.039536
0.023351 0.453734 0.042324
0.080772 0.453460 0.042086
0.138759 0.453193 0.041853
0.197577 0.452930 0.041623
0.257150 0.452670 0.041396
0.317316 0.452412 0.041171
0.377880 0.452155 0.040947
0.438631 0.451900 0.040725
0.499355 0.451646 0.040504
0.559831 0.451393 0.040283
0.619840 0.451141 0.040063
0.679160 0.450890 0.039845
0.737572 0.450639 0.039626
0.794855 0.450390 0.039409
0.850791 0.450140 0.039192
0.905163 0.449892 0.038976
0.957754 0.449644 0.038760
0.022584 0.516461 0.041547
0.079975 0.516187 0.041308
0.137936 0.515920 0.041075
0.196732 0.515657 0.040846
0.256288 0.515396 0.040619
0.316441 0.515137 0.040394
0.376995 0.514880 0.040171
0.437741 0.514625 0.039948
0.498463 0.514371 0.039727
0.558941 0.514117 0.039507
0.618955 0.513865 0.039287
0.678284 0.513613 0.039068
0.736708 0.513363 0.038850
0.794008 0.513113 0.038633
0.849964 0.512863 0.038416
0.904359 0.512614 0.038200
0.956976 0.512366 0.037984
0.021818 0.579079 0.040770
0.079178 0.578806 0.040532
0.137113 0.578539 0.040299
0.195888 0.578277 0.040070
0.255427 0.578017 0.039843
0.315566 0.577760 0.039618
0.376111 0.577504 0.039395
0.436851 0.577249 0.039173
0.497571 0.576995 0.038951
0.558051 0.576743 0.038731
0.618070 0.576491 0.038512
0.677408 0.576241 0.038293
0.735845 0.575991 0.038075
0.793160 0.575741 0.037858
0.849136 0.575493 0.037641
0.903554 0.575245 0.037425
0.956198 0.574997 0.037210
0.021053 0.641314 0.039994
0.078382 0.641043 0.039756
0.136291 0.640779 0.039524
0.195045 0.640519 0.039295
0.254566 0.640261 0.039068
0.314692 0.640005 0.038843
0.375227 0.639751 0.038620
0.435961 0.639499 0.038398
0.496679 0.639247 0.038177
0.557161 0.638996 0.037956
0.617186 0.638747 0.037737
0.676533 0.638498 0.037519
0.734982 0.638250 0.037301
0.792313 0.638003 0.037084
0.848309 0.637756 0.036867
0.902750 0.637510 0.036651
0.955420 0.637264 0.036436
0.020289 0.702895 0.039219
0.077587 0.702627 0.038981
0.135470 0.702366 0.038749
0.194202 0.702109 0.038520
0.253706 0.701855 0.038293
0.313818 0.701602 0.038069
0.374344 0.701351 0.037845
0.435072 0.701101 0.037623
0.495788 0.700853 0.037402
0.556271 0.700605 0.037183
0.616301 0.700359 0.036963
0.675657 0.700113 0.036745
0.734119 0.699868 0.036527
0.791466 0.699623 0.036310
0.847481 0.699380 0.036094
0.901945 0.699136 0.035878
0.954642 0.698894 0.035663
0.019525 0.763547 0.038445
0.076793 0.763284 0.038207
0.134650 0.763027 0.037975
0.193360 0.762775 0.037746
0.252847 0.762524 0.037520
0.312945 0.762276 0.037295
0.373461 0.762029 0.037072
0.434184 0.761784 0.036850
0.494898 0.761540 0.036629
0.555382 0.761296 0.036409
0.615417 0.761054 0.036190
0.674782 0.760812 0.035972
0.733256 0.760571 0.035755
0.790620 0.760331 0.035538
0.846654 0.760091 0.035321
0.901141 0.759852 0.035106
0.953864 0.759613 0.034890
0.018762 0.822998 0.037671
0.075999 0.822741 0.037433
0.133830 0.822490 0.037201
0.192519 0.822243 0.036973
0.251988 0.821998 0.036747
0.312073 0.821755 0.036522
0.372579 0.821514 0.036299
0.433296 0.821274 0.036077
0.494007 0.821035 0.035857
0.554493 0.820797 0.035637
0.614534 0.820559 0.035418
0.673907 0.820323 0.035200
0.732394 0.820087 0.034983
0.789773 0.819852 0.034766
0.845826 0.819618 0.034550
0.900336 0.819384 0.034334
0.953086 0.819150 0.034119
0.018001 0.880977 0.036899
0.075206 0.880726 0.036661
0.133011 0.880482 0.036429
0.191678 0.880242 0.036200
0.251129 0.880003 0.035974
0.311201 0.879767 0.035750
0.371697 0.879532 0.035527
0.432408 0.879298 0.035305
0.493117 0.879066 0.035085
0.553605 0.878834 0.034865
0.613650 0.878603 0.034647
0.673033 0.878373 0.034429
0.731531 0.878144 0.034211
0.788926 0.877915 0.033995
0.844999 0.877687 0.033778
0.899532 0.877459 0.033563
0.952308 0.877232 0.033348
0.017239 0.937209 0.036127
0.074414 0.936967 0.035889
0.132193 0.936731 0.035657
0.190838 0.936498 0.035429
0.250272 0.936268 0.035203
0.310329 0.936039 0.034978
0.370816 0.935812 0.034756
0.431521 0.935586 0.034534
0.492228 0.935361 0.034314
0.552717 0.935137 0.034094
0.612767 0.934913 0.033876
0.672158 0.934691 0.033658
0.730669 0.934469 0.033441
0.788079 0.934247 0.033224
0.844172 0.934026 0.033008
0.898727 0.933806 0.032793
0.951529 0.933586 0.032578
0.016479 0.991425 0.035355
0.073622 0.991192 0.035117
0.131375 0.990965 0.034886
0.189998 0.990741 0.034658
0.249414 0.990519 0.034432
0.309458 0.990299 0.034208
0.369935 0.990081 0.033985
0.430634 0.989863 0.033764
0.491338 0.989647 0.033543
0.551829 0.989432 0.033324
0.611884 0.989217 0.033105
0.671283 0.989003 0.032888
0.729806 0.988789 0.032671
0.787233 0.988576 0.032454
0.843344 0.988364 0.032238
0.897922 0.988152 0.032023
0.950751 0.987940 0.031808
0.028675 0.034254 0.104390
0.086308 0.034016 0.104141
0.144472 0.033785 0.103899
0.203437 0.033557 0.103661
0.263129 0.033331 0.103425
0.323386 0.033107 0.103191
0.384013 0.032885 0.102958
0.444803 0.032664 0.102726
0.505538 0.032443 0.102496
0.566001 0.032224 0.102267
0.625971 0.032006 0.102038
0.685227 0.031788 0.101811
0.743549 0.031571 0.101584
0.800719 0.031355 0.101357
0.856518 0.031140 0.101132
0.910728 0.030925 0.100907
0.963132 0.030710 0.100682
0.027898 0.090221 0.103573
0.085500 0.089975 0.103325
0.143638 0.089735 0.103083
0.202582 0.089498 0.102844
0.262257 0.089264 0.102608
0.322501 0.089032 0.102374
0.383119 0.088801 0.102142
0.443903 0.088571 0.101910
0.504637 0.088343 0.101680
0.565102 0.088116 0.101451
0.625077 0.087889 0.101223
0.684343 0.087663 0.100995
0.742679 0.087438 0.100768
0.799865 0.087214 0.100542
0.855684 0.086990 0.100317
0.909917 0.086767 0.100092
0.962349 0.086544 0.099867
0.027123 0.147911 0.102759
0.084695 0.147657 0.102511
0.142808 0.147409 0.102269
0.201730 0.147165 0.102031
0.261388 0.146924 0.101795
0.321618 0.146684 0.101561
0.382227 0.146446 0.101329
0.443006 0.146209 0.101098
0.503738 0.145974 0.100867
0.564205 0.145739 0.100638
0.624187 0.145506 0.100410
0.683462 0.145273 0.100183
0.741811 0.145041 0.099956
0.799014 0.144809 0.099730
0.854853 0.144578 0.099504
0.909110 0.144348 0.099280
0.961569 0.144119 0.099055
0.026351 0.207102 0.101948
0.083891 0.206842 0.101700
0.141979 0.206588 0.101458
0.200880 0.206338 0.101220
0.260520 0.206090 0.100984
0.320738 0.205845 0.100750
0.381338 0.205601 0.100518
0.442111 0.205358 0.100287
0.502842 0.205116 0.100057
0.563311 0.204876 0.099828
0.623298 0.204636 0.099599
0.682582 0.204398 0.099372
0.740944 0.204160 0.099145
0.798163 0.203922 0.098919
0.854022 0.203685 0.098694
0.908303 0.203449 0.098469
0.960789 0.203214 0.098245
0.025579 0.267539 0.101137
0.083090 0.267274 0.100889
0.141151 0.267015 0.100648
0.200031 0.266760 0.100410
0.259654 0.266507 0.100174
0.319859 0.266257 0.099940
0.380449 0.266008 0.099708
0.441217 0.265760 0.099477
0.501946 0.265514 0.099247
0.562417 0.265269 0.099018
0.622410 0.265024 0.098790
0.681704 0.264781 0.098563
0.740078 0.264538 0.098336
0.797314 0.264296 0.098111
0.853193 0.264054 0.097885
0.907497 0.263814 0.097661
0.960010 0.263573 0.097437
0.024810 0.328956 0.100328
0.082289 0.328686 0.100081
0.140325 0.328424 0.099839
0.199184 0.328165 0.099601
0.258790 0.327909 0.099366
0.318981 0.327654 0.099132
0.379562 0.327402 0.098900
0.440324 0.327150 0.098669
0.501052 0.326900 0.098439
0.561525 0.326651 0.098210
0.621523 0.326403 0.097982
0.680826 0.326156 0.097755
0.739213 0.325910 0.097529
0.796466 0.325664 0.097303
0.852364 0.325419 0.097078
0.906692 0.325174 0.096853
0.959232 0.324930 0.096629
0.024041 0.391081 0.099521
0.081490 0.390809 0.099273
0.139500 0.390544 0.099031
0.198337 0.390282 0.098794
0.257926 0.390024 0.098558
0.318104 0.389767 0.098325
0.378676 0.389511 0.098092
0.439433 0.389258 0.097862
0.500158 0.389005 0.097632
0.560633 0.388754 0.097403
0.620637 0.388503 0.097176
0.679949 0.388253 0.096948
0.738349 0.388004 0.096722
0.795617 0.387756 0.096497
0.851536 0.387508 0.096271
0.905887 0.387261 0.096047
0.958454 0.387015 0.095823
0.023273 0.453644 0.098714
0.080692 0.453370 0.098466
0.138676 0.453104 0.098225
0.197492 0.452841 0.097987
0.257063 0.452580 0.097752
0.317228 0.452322 0.097518
0.377790 0.452065 0.097286
0.438541 0.451810 0.097056
0.499265 0.451556 0.096826
0.559742 0.451303 0.096597
0.619751 0.451051 0.096370
0.679072 0.450800 0.096143
0.737485 0.450549 0.095917
0.794770 0.450300 0.095691
0.850708 0.450051 0.095466
0.905082 0.449802 0.095242
0.957676 0.449554 0.095018
0.022506 0.516371 0.097908
0.079894 0.516097 0.097660
0.137852 0.515830 0.097419
0.196647 0.515567 0.097181
0.256201 0.515306 0.096946
0.316352 0.515047 0.096713
0.376905 0.514790 0.096481
0.437651 0.514535 0.096250
0.498373 0.514281 0.096021
0.558851 0.514027 0.095792
0.618866 0.513775 0.095565
0.678196 0.513523 0.095338
0.736621 0.513273 0.095112
0.793922 0.513023 0.094886
0.849880 0.512773 0.094662
0.904277 0.512524 0.094437
0.956898 0.512276 0.094214
0.021741 0.578989 0.097102
0.079097 0.578716 0.096855
0.137030 0.578450 0.096614
0.195803 0.578187 0.096376
0.255340 0.577928 0.096141
0.315478 0.577670 0.095908
0.376021 0.577414 0.095676
0.436761 0.577159 0.095446
0.497481 0.576906 0.095217
0.557961 0.576653 0.094988
0.617981 0.576402 0.094761
0.677320 0.576151 0.094534
0.735758 0.575901 0.094308
0.793075 0.575652 0.094083
0.849052 0.575403 0.093858
0.903473 0.575155 0.093634
0.956120 0.574907 0.093410
0.020976 0.641225 0.096298
0.078302 0.640954 0.096051
0.136208 0.640690 0.095810
0.194960 0.640430 0.095572
0.254479 0.640172 0.095337
0.314604 0.639916 0.095104
0.375138 0.639662 0.094873
0.435872 0.639410 0.094642
0.496589 0.639158 0.094413
0.557071 0.638907 0.094185
0.617096 0.638658 0.093957
0.676444 0.638409 0.093731
0.734895 0.638161 0.093505
0.792228 0.637913 0.093280
0.848225 0.637667 0.093055
0.902668 0.637421 0.092831
0.955342 0.637175 0.092607
0.020211 0.702807 0.095494
0.077507 0.702539 0.095247
0.135387 0.702278 0.095006
0.194117 0.702021 0.094769
0.253619 0.701767 0.094534
0.313730 0.701514 0.094301
0.374254 0.701263 0.094070
0.434983 0.701013 0.093839
0.495698 0.700765 0.093610
0.556181 0.700517 0.093382
0.616212 0.700271 0.093155
0.675569 0.700025 0.092928
0.734032 0.699780 0.092703
0.791381 0.699535 0.092477
0.847397 0.699292 0.092253
0.901864 0.699048 0.092029
0.954564 0.698806 0.091806
0.019448 0.763461 0.094691
0.076712 0.763197 0.094444
0.134567 0.762941 0.094204
0.193275 0.762688 0.093967
0.252760 0.762438 0.093732
0.312857 0.762190 0.093499
0.373372 0.761943 0.093267
0.434094 0.761697 0.093037
0.494807 0.761453 0.092808
0.555292 0.761210 0.092580
0.615328 0.760967 0.092353
0.674694 0.760726 0.092127
0.733169 0.760485 0.091901
0.790534 0.760244 0.091676
0.846570 0.760005 0.091452
0.901059 0.759765 0.091228
0.953786 0.759527 0.091004
0.018685 0.822914 0.093889
0.075919 0.822657 0.093642
0.133747 0.822406 0.093402
0.192434 0.822158 0.093165
0.251901 0.821914 0.092930
0.311985 0.821671 0.092697
0.372490 0.821429 0.092466
0.433206 0.821189 0.092236
0.493917 0.820950 0.092007
0.554404 0.820712 0.091779
0.614444 0.820475 0.091552
0.673819 0.820238 0.091326
0.732306 0.820003 0.091100
0.789687 0.819768 0.090875
0.845743 0.819533 0.090651
0.900255 0.819299 0.090427
0.953007 0.819066 0.090204
0.017923 0.880894 0.093088
0.075126 0.880644 0.092841
0.132928 0.880400 0.092600
0.191593 0.880159 0.092363
0.251043 0.879921 0.092129
0.311113 0.879685 0.091896
0.371608 0.879450 0.091665
0.432318 0.879216 0.091435
0.493027 0.878984 0.091206
0.553515 0.878752 0.090978
0.613561 0.878521 0.090751
0.672944 0.878291 0.090525
0.731444 0.878062 0.090300
0.788840 0.877833 0.090075
0.844915 0.877604 0.089851
0.899450 0.877377 0.089627
0.952229 0.877149 0.089404
0.017162 0.937130 0.092287
0.074334 0.936888 0.092040
0.132110 0.936651 0.091800
0.190753 0.936419 0.091563
0.250185 0.936188 0.091328
0.310241 0.935959 0.091096
0.370727 0.935732 0.090865
0.431431 0.935506 0.090635
0.492138 0.935281 0.090406
0.552627 0.935057 0.090178
0.612678 0.934833 0.089952
0.672069 0.934611 0.089726
0.730581 0.934389 0.089500
0.787994 0.934167 0.089275
0.844088 0.933946 0.089051
0.898646 0.933726 0.088828
0.951450 0.933506 0.088605
0.016402 0.991348 0.091487
0.073542 0.991115 0.091240
0.131292 0.990888 0.091000
0.189913 0.990664 0.090763
0.249327 0.990443 0.090529
0.309370 0.990223 0.090296
0.369846 0.990004 0.090065
0.430544 0.989787 0.089835
0.491248 0.989570 0.089607
0.551739 0.989355 0.089379
0.611795 0.989140 0.089152
0.671195 0.988926 0.088926
0.729719 0.988713 0.088701
0.787147 0.988500 0.088477
0.843260 0.988287 0.088253
0.897841 0.988075 0.088029
0.950672 0.987864 0.087806
0.028596 0.034174 0.163968
0.086226 0.033937 0.163712
0.144387 0.033705 0.163463
0.203350 0.033477 0.163217
0.263040 0.033252 0.162974
0.323296 0.033028 0.162732
0.383922 0.032805 0.162492
0.444711 0.032584 0.162254
0.505446 0.032364 0.162017
0.565909 0.032145 0.161780
0.625880 0.031927 0.161545
0.685137 0.031709 0.161310
0.743461 0.031492 0.161077
0.800632 0.031276 0.160843
0.856433 0.031060 0.160611
0.910645 0.030845 0.160379
0.963052 0.030631 0.160147
0.027819 0.090139 0.163126
0.085418 0.089892 0.162871
0.143553 0.089652 0.162621
0.202495 0.089416 0.162376
0.262168 0.089182 0.162132
0.322410 0.088949 0.161891
0.383028 0.088719 0.161652
0.443811 0.088489 0.161413
0.504545 0.088261 0.161176
0.565010 0.088033 0.160940
0.624986 0.087807 0.160704
0.684253 0.087581 0.160470
0.742590 0.087356 0.160236
0.799778 0.087131 0.160003
0.855599 0.086908 0.159771
0.909835 0.086684 0.159539
0.962270 0.086462 0.159307
0.027044 0.147826 0.162288
0.084613 0.147572 0.162032
0.142723 0.147324 0.161783
0.201643 0.147080 0.161538
0.261299 0.146839 0.161294
0.321528 0.146599 0.161053
0.382136 0.146361 0.160814
0.442914 0.146125 0.160575
0.503647 0.145889 0.160338
0.564114 0.145654 0.160102
0.624096 0.145421 0.159867
0.683372 0.145188 0.159633
0.741722 0.144956 0.159399
0.798927 0.144724 0.159166
0.854768 0.144494 0.158934
0.909027 0.144263 0.158702
0.961489 0.144034 0.158471
0.026271 0.207015 0.161452
0.083809 0.206755 0.161196
0.141894 0.206501 0.160947
0.200793 0.206251 0.160701
0.260432 0.206003 0.160458
0.320648 0.205758 0.160217
0.381247 0.205514 0.159978
0.442019 0.205271 0.159740
0.502750 0.205029 0.159503
0.563219 0.204789 0.159267
0.623207 0.204549 0.159031
0.682492 0.204310 0.158797
0.740855 0.204072 0.158564
0.798076 0.203835 0.158331
0.853937 0.203598 0.158098
0.908221 0.203362 0.157867
0.960709 0.203127 0.157636
0.025500 0.267450 0.160617
0.083008 0.267185 0.160361
0.141066 0.266926 0.160112
0.199944 0.266671 0.159867
0.259566 0.266418 0.159624
0.319769 0.266168 0.159383
0.380358 0.265919 0.159143
0.441126 0.265672 0.158905
0.501854 0.265425 0.158668
0.562326 0.265180 0.158432
0.622319 0.264936 0.158197
0.681613 0.264692 0.157963
0.739989 0.264449 0.157730
0.797227 0.264207 0.157497
0.853108 0.263966 0.157265
0.907415 0.263725 0.157033
0.959931 0.263484 0.156802
0.024731 0.328866 0.159783
0.082207 0.328596 0.159527
0.140240 0.328333 0.159279
0.199097 0.328075 0.159033
0.258701 0.327818 0.158790
0.318891 0.327564 0.158550
0.379471 0.327311 0.158310
0.440233 0.327060 0.158072
0.500960 0.326810 0.157835
0.561433 0.326561 0.157600
0.621432 0.326313 0.157365
0.680736 0.326066 0.157130
0.739124 0.325819 0.156897
0.796378 0.325574 0.156664
0.852279 0.325329 0.156432
0.906609 0.325084 0.156201
0.959152 0.324840 0.155970
0.023962 0.390990 0.158950
0.081408 0.390718 0.158695
0.139415 0.390453 0.158446
0.198250 0.390191 0.158201
0.257837 0.389932 0.157958
0.318014 0.389676 0.157717
0.378585 0.389420 0.157478
0.439341 0.389167 0.157240
0.500066 0.388914 0.157004
0.560541 0.388662 0.156768
0.620546 0.388412 0.156533
0.679859 0.388162 0.156299
0.738260 0.387913 0.156065
0.795530 0.387665 0.155833
0.851451 0.387417 0.155601
0.905804 0.387170 0.155369
0.958374 0.386923 0.155139
0.023194 0.453552 0.158118
0.080610 0.453279 0.157863
0.138591 0.453012 0.157615
0.197405 0.452749 0.157369
0.256975 0.452489 0.157127
0.317138 0.452230 0.156886
0.377699 0.451974 0.156647
0.438450 0.451718 0.156409
0.499173 0.451464 0.156173
0.559650 0.451211 0.155937
0.619660 0.450959 0.155702
0.678982 0.450708 0.155468
0.737396 0.450458 0.155235
0.794682 0.450208 0.155002
0.850623 0.449959 0.154770
0.904999 0.449710 0.154539
0.957596 0.449462 0.154308
0.022428 0.516279 0.157288
0.079812 0.516005 0.157032
0.137768 0.515738 0.156784
0.196560 0.515475 0.156539
0.256113 0.515214 0.156296
0.316262 0.514956 0.156056
0.376815 0.514699 0.155817
0.437559 0.514443 0.155579
0.498281 0.514189 0.155342
0.558759 0.513935 0.155107
0.618774 0.513683 0.154872
0.678106 0.513432 0.154638
0.736532 0.513181 0.154405
0.793835 0.512931 0.154173
0.849795 0.512681 0.153941
0.904195 0.512433 0.153710
0.956818 0.512184 0.153479
0.021662 0.578898 0.156458
0.079016 0.578625 0.156203
0.136945 0.578358 0.155954
0.195716 0.578096 0.155709
0.255251 0.577836 0.155467
0.315388 0.577578 0.155226
0.375930 0.577322 0.154987
0.436669 0.577068 0.154750
0.497389 0.576814 0.154513
0.557869 0.576562 0.154278
0.617890 0.576310 0.154043
0.677230 0.576059 0.153809
0.735669 0.575809 0.153576
0.792988 0.575560 0.153344
0.848967 0.575311 0.153112
0.903390 0.575063 0.152881
0.956040 0.574816 0.152650
0.020897 0.641135 0.155628
0.078220 0.640864 0.155373
0.136124 0.640600 0.155125
0.194873 0.640339 0.154880
0.254391 0.640081 0.154638
0.314514 0.639826 0.154397
0.375047 0.639572 0.154158
0.435780 0.639319 0.153921
0.496497 0.639067 0.153684
0.556979 0.638817 0.153449
0.617005 0.638567 0.153215
0.676354 0.638318 0.152981
0.734806 0.638070 0.152748
0.792141 0.637823 0.152516
0.848140 0.637576 0.152284
0.902586 0.637330 0.152053
0.955262 0.637084 0.151822
0.020133 0.702717 0.154800
0.077425 0.702450 0.154545
0.135303 0.702189 0.154296
0.194030 0.701931 0.154052
0.253531 0.701677 0.153809
0.313640 0.701424 0.153569
0.374164 0.701173 0.153330
0.434891 0.700924 0.153093
0.495606 0.700675 0.152857
0.556090 0.700428 0.152621
0.616121 0.700181 0.152387
0.675479 0.699935 0.152153
0.733943 0.699690 0.151920
0.791294 0.699446 0.151688
0.847312 0.699202 0.151457
0.901781 0.698959 0.151226
0.954484 0.698716 0.150995
0.019369 0.763372 0.153972
0.076631 0.763109 0.153717
0.134483 0.762853 0.153469
0.193189 0.762600 0.153224
0.252671 0.762350 0.152982
0.312767 0.762101 0.152742
0.373281 0.761855 0.152503
0.434003 0.761609 0.152266
0.494716 0.761365 0.152029
0.555201 0.761122 0.151794
0.615237 0.760879 0.151560
0.674604 0.760637 0.151326
0.733080 0.760396 0.151094
0.790447 0.760156 0.150861
0.846485 0.759916 0.150630
0.900977 0.759677 0.150399
0.953705 0.759439 0.150169
0.018607 0.822828 0.153144
0.075837 0.822570 0.152890
0.133663 0.822320 0.152642
0.192347 0.822072 0.152397
0.251812 0.821827 0.152155
0.311895 0.821584 0.151915
0.372399 0.821343 0.151676
0.433114 0.821103 0.151439
0.493825 0.820864 0.151203
0.554312 0.820626 0.150968
0.614353 0.820389 0.150733
0.673729 0.820152 0.150500
0.732217 0.819916 0.150267
0.789600 0.819681 0.150035
0.845657 0.819447 0.149804
0.900172 0.819213 0.149573
0.952927 0.818979 0.149343
0.017845 0.880811 0.152318
0.075044 0.880560 0.152063
0.132844 0.880316 0.151815
0.191507 0.880075 0.151571
0.250954 0.879837 0.151329
0.311023 0.879601 0.151089
0.371517 0.879366 0.150850
0.432227 0.879132 0.150613
0.492935 0.878900 0.150377
0.553423 0.878668 0.150142
0.613470 0.878437 0.149908
0.672854 0.878207 0.149674
0.731355 0.877978 0.149442
0.788753 0.877749 0.149210
0.844830 0.877520 0.148978
0.899367 0.877293 0.148748
0.952149 0.877065 0.148518
0.017084 0.937049 0.151492
0.074252 0.936806 0.151237
0.132026 0.936570 0.150989
0.190666 0.936337 0.150745
0.250096 0.936107 0.150503
0.310151 0.935878 0.150263
0.370636 0.935651 0.150025
0.431339 0.935425 0.149787
0.492046 0.935200 0.149552
0.552535 0.934976 0.149317
0.612587 0.934752 0.149083
0.671979 0.934530 0.148849
0.730492 0.934308 0.148617
0.787906 0.934086 0.148385
0.844002 0.933865 0.148154
0.898563 0.933645 0.147923
0.951370 0.933425 0.147693
0.016323 0.991270 0.150666
0.073460 0.991037 0.150412
0.131208 0.990810 0.150164
0.189827 0.990586 0.149920
0.249239 0.990365 0.149678
0.309280 0.990145 0.149438
0.369755 0.989926 0.149200
0.430452 0.989709 0.148963
0.491156 0.989492 0.148727
0.551647 0.989277 0.148492
0.611704 0.989062 0.148258
0.671105 0.988848 0.148025
0.729630 0.988634 0.147792
0.787060 0.988421 0.147561
0.843175 0.988209 0.147329
0.897758 0.987997 0.147099
0.950591 0.987786 0.146869
0.028516 0.034094 0.225923
0.086143 0.033856 0.225661
0.144301 0.033625 0.225406
0.203262 0.033397 0.225154
0.262950 0.033171 0.224904
0.323204 0.032947 0.224657
0.383830 0.032725 0.224412
0.444618 0.032504 0.224167
0.505354 0.032284 0.223924
0.565817 0.032065 0.223682
0.625788 0.031846 0.223441
0.685046 0.031629 0.223200
0.743371 0.031412 0.222961
0.800544 0.031196 0.222722
0.856347 0.030980 0.222483
0.910562 0.030765 0.222246
