assets/luts/moonlit_marble.cube
# Лунный мрамор — базовый холодный цветокор канала
TITLE "moonlit_marble"
LUT_3D_SIZE 5
DOMAIN_MIN 0.0 0.0 0.0
DOMAIN_MAX 1.0 1.0 1.0
0.028753 0.034332 0.047802
0.263216 0.033409 0.046871
0.505628 0.032521 0.045974
0.743636 0.031649 0.045094
0.963210 0.030788 0.044224
0.025657 0.267627 0.044663
0.259742 0.266595 0.043733
0.502036 0.265601 0.042839
0.740165 0.264625 0.041961
0.960089 0.263660 0.041092
0.022584 0.516461 0.041547
0.256288 0.515396 0.040619
0.498463 0.514371 0.039727
0.736708 0.513363 0.038850
0.956976 0.512366 0.037984
0.019525 0.763547 0.038445
0.252847 0.762524 0.037520
0.494898 0.761540 0.036629
0.733256 0.760571 0.035755
0.953864 0.759613 0.034890
0.016479 0.991425 0.035355
0.249414 0.990519 0.034432
0.491338 0.989647 0.033543
0.729806 0.988789 0.032671
0.950751 0.987940 0.031808
0.028435 0.034013 0.289798
0.262860 0.033090 0.288760
0.505260 0.032203 0.287761
0.743281 0.031331 0.286779
0.962890 0.030469 0.285808
0.025340 0.267270 0.286298
0.259385 0.266238 0.285261
0.501668 0.265244 0.284263
0.739809 0.264268 0.283282
0.959768 0.263304 0.282312
0.022267 0.516093 0.282820
0.255932 0.515028 0.281783
0.498094 0.514002 0.280786
0.736352 0.512994 0.279806
0.956655 0.511998 0.278837
0.019209 0.763193 0.279352
0.252491 0.762171 0.278317
0.494529 0.761186 0.277321
0.732899 0.760217 0.276341
0.953542 0.759259 0.275373
0.016164 0.991111 0.275894
0.249059 0.990206 0.274860
0.490970 0.989334 0.273864
0.729449 0.988475 0.272886
0.950428 0.987626 0.271919
0.028107 0.033683 0.556525
0.262491 0.032761 0.555462
0.504879 0.031873 0.554438
0.742913 0.031002 0.553431
0.962560 0.030140 0.552436
0.025012 0.266901 0.552939
0.259017 0.265869 0.551875
0.501287 0.264876 0.550851
0.739441 0.263900 0.549845
0.959437 0.262935 0.548849
0.021940 0.515712 0.549370
0.255565 0.514647 0.548307
0.497713 0.513621 0.547283
0.735983 0.512614 0.546276
0.956323 0.511617 0.545280
0.018883 0.762828 0.545810
0.252124 0.761805 0.544746
0.494148 0.760820 0.543722
0.732530 0.759851 0.542715
0.953209 0.758893 0.541719
0.015838 0.990788 0.542254
0.248692 0.989882 0.541190
0.490589 0.989010 0.540166
0.729080 0.988151 0.539159
0.950094 0.987302 0.538163
0.027773 0.033348 0.822797
0.262117 0.032426 0.821797
0.504492 0.031539 0.820833
0.742539 0.030667 0.819886
0.962224 0.029806 0.818949
0.024679 0.266526 0.819422
0.258643 0.265494 0.818420
0.500900 0.264501 0.817455
0.739067 0.263525 0.816507
0.959100 0.262561 0.815568
0.021608 0.515325 0.816059
0.255191 0.514260 0.815056
0.497326 0.513235 0.814090
0.735609 0.512227 0.813140
0.955985 0.511230 0.812200
0.018552 0.762456 0.812700
0.251751 0.761433 0.811696
0.493761 0.760448 0.810728
0.732155 0.759479 0.809777
0.952871 0.758521 0.808836
0.015508 0.990459 0.809342
0.248319 0.989553 0.808336
0.490202 0.988680 0.807367
0.728704 0.987822 0.806414
0.949755 0.986972 0.805472
0.027508 0.033082 1.000000
0.261819 0.032160 1.000000
0.504185 0.031273 1.000000
0.742242 0.030402 1.000000
0.961957 0.029541 1.000000
0.024415 0.266228 1.000000
0.258346 0.265196 1.000000
0.500593 0.264204 1.000000
0.738769 0.263228 1.000000
0.958832 0.262263 1.000000
0.021344 0.515018 1.000000
0.254894 0.513953 1.000000
0.497019 0.512927 1.000000
0.735311 0.511919 1.000000
0.955717 0.510923 1.000000
0.018289 0.762161 1.000000
0.251454 0.761138 1.000000
0.493454 0.760153 1.000000
0.731857 0.759184 1.000000
0.952602 0.758226 1.000000
0.015245 0.990198 1.000000
0.248023 0.989291 1.000000
0.489895 0.988418 1.000000
0.728406 0.987560 1.000000
0.949486 0.986710 1.000000
