assets/luts/moonlit_marble.cube
# Лунный мрамор — базовый холодный цветокор канала
TITLE "moonlit_marble"
LUT_3D_SIZE 9
DOMAIN_MIN 0.0 0.0 0.0
DOMAIN_MAX 1.0 1.0 1.0
0.028753 0.034332 0.047802
0.144556 0.033863 0.047329
0.263216 0.033409 0.046871
0.384103 0.032963 0.046420
0.505628 0.032521 0.045974
0.626060 0.032084 0.045532
0.743636 0.031649 0.045094
0.856601 0.031217 0.044658
0.963210 0.030788 0.044224
0.027201 0.147994 0.046228
0.142891 0.147493 0.045755
0.261475 0.147007 0.045298
0.382317 0.146530 0.044848
0.503828 0.146057 0.044402
0.624276 0.145589 0.043961
0.741898 0.145124 0.043523
0.854936 0.144662 0.043087
0.961647 0.144202 0.042654
0.025657 0.267627 0.044663
0.141234 0.267102 0.044191
0.259742 0.266595 0.043733
0.380539 0.266095 0.043284
0.502036 0.265601 0.042839
0.622499 0.265112 0.042398
0.740165 0.264625 0.041961
0.853276 0.264142 0.041525
0.960089 0.263660 0.041092
0.024118 0.391171 0.043103
0.139583 0.390633 0.042631
0.258013 0.390113 0.042174
0.378765 0.389601 0.041725
0.500248 0.389094 0.041281
0.620726 0.388592 0.040841
0.738436 0.388094 0.040403
0.851619 0.387598 0.039969
0.958532 0.387104 0.039536
0.022584 0.516461 0.041547
0.137936 0.515920 0.041075
0.256288 0.515396 0.040619
0.376995 0.514880 0.040171
0.498463 0.514371 0.039727
0.618955 0.513865 0.039287
0.736708 0.513363 0.038850
0.849964 0.512863 0.038416
0.956976 0.512366 0.037984
0.021053 0.641314 0.039994
0.136291 0.640779 0.039524
0.254566 0.640261 0.039068
0.375227 0.639751 0.038620
0.496679 0.639247 0.038177
0.617186 0.638747 0.037737
0.734982 0.638250 0.037301
0.848309 0.637756 0.036867
0.955420 0.637264 0.036436
0.019525 0.763547 0.038445
0.134650 0.763027 0.037975
0.252847 0.762524 0.037520
0.373461 0.762029 0.037072
0.494898 0.761540 0.036629
0.615417 0.761054 0.036190
0.733256 0.760571 0.035755
0.846654 0.760091 0.035321
0.953864 0.759613 0.034890
0.018001 0.880977 0.036899
0.133011 0.880482 0.036429
0.251129 0.880003 0.035974
0.371697 0.879532 0.035527
0.493117 0.879066 0.035085
0.613650 0.878603 0.034647
0.731531 0.878144 0.034211
0.844999 0.877687 0.033778
0.952308 0.877232 0.033348
0.016479 0.991425 0.035355
0.131375 0.990965 0.034886
0.249414 0.990519 0.034432
0.369935 0.990081 0.033985
0.491338 0.989647 0.033543
0.611884 0.989217 0.033105
0.729806 0.988789 0.032671
0.843344 0.988364 0.032238
0.950751 0.987940 0.031808
0.028596 0.034174 0.163968
0.144387 0.033705 0.163463
0.263040 0.033252 0.162974
0.383922 0.032805 0.162492
0.505446 0.032364 0.162017
0.625880 0.031927 0.161545
0.743461 0.031492 0.161077
0.856433 0.031060 0.160611
0.963052 0.030631 0.160147
0.027044 0.147826 0.162288
0.142723 0.147324 0.161783
0.261299 0.146839 0.161294
0.382136 0.146361 0.160814
0.503647 0.145889 0.160338
0.624096 0.145421 0.159867
0.741722 0.144956 0.159399
0.854768 0.144494 0.158934
0.961489 0.144034 0.158471
0.025500 0.267450 0.160617
0.141066 0.266926 0.160112
0.259566 0.266418 0.159624
0.380358 0.265919 0.159143
0.501854 0.265425 0.158668
0.622319 0.264936 0.158197
0.739989 0.264449 0.157730
0.853108 0.263966 0.157265
0.959931 0.263484 0.156802
0.023962 0.390990 0.158950
0.139415 0.390453 0.158446
0.257837 0.389932 0.157958
0.378585 0.389420 0.157478
0.500066 0.388914 0.157004
0.620546 0.388412 0.156533
0.738260 0.387913 0.156065
0.851451 0.387417 0.155601
0.958374 0.386923 0.155139
0.022428 0.516279 0.157288
0.137768 0.515738 0.156784
0.256113 0.515214 0.156296
0.376815 0.514699 0.155817
0.498281 0.514189 0.155342
0.618774 0.513683 0.154872
0.736532 0.513181 0.154405
0.849795 0.512681 0.153941
0.956818 0.512184 0.153479
0.020897 0.641135 0.155628
0.136124 0.640600 0.155125
0.254391 0.640081 0.154638
0.375047 0.639572 0.154158
0.496497 0.639067 0.153684
0.617005 0.638567 0.153215
0.734806 0.638070 0.152748
0.848140 0.637576 0.152284
0.955262 0.637084 0.151822
0.019369 0.763372 0.153972
0.134483 0.762853 0.153469
0.252671 0.762350 0.152982
0.373281 0.761855 0.152503
0.494716 0.761365 0.152029
0.615237 0.760879 0.151560
0.733080 0.760396 0.151094
0.846485 0.759916 0.150630
0.953705 0.759439 0.150169
0.017845 0.880811 0.152318
0.132844 0.880316 0.151815
0.250954 0.879837 0.151329
0.371517 0.879366 0.150850
0.492935 0.878900 0.150377
0.613470 0.878437 0.149908
0.731355 0.877978 0.149442
0.844830 0.877520 0.148978
0.952149 0.877065 0.148518
0.016323 0.991270 0.150666
0.131208 0.990810 0.150164
0.249239 0.990365 0.149678
0.369755 0.989926 0.149200
0.491156 0.989492 0.148727
0.611704 0.989062 0.148258
0.729630 0.988634 0.147792
0.843175 0.988209 0.147329
0.950591 0.987786 0.146869
0.028435 0.034013 0.289798
0.144215 0.033544 0.289271
0.262860 0.033090 0.288760
0.383737 0.032644 0.288258
0.505260 0.032203 0.287761
0.625695 0.031765 0.287268
0.743281 0.031331 0.286779
0.856260 0.030899 0.286293
0.962890 0.030469 0.285808
0.026883 0.147653 0.288044
0.142550 0.147151 0.287517
0.261118 0.146666 0.287007
0.381951 0.146188 0.286504
0.503460 0.145716 0.286008
0.623911 0.145248 0.285515
0.741541 0.144783 0.285026
0.854595 0.144321 0.284540
0.961327 0.143861 0.284056
0.025340 0.267270 0.286298
0.140894 0.266745 0.285771
0.259385 0.266238 0.285261
0.380173 0.265738 0.284759
0.501668 0.265244 0.284263
0.622134 0.264755 0.283771
0.739809 0.264268 0.283282
0.852935 0.263785 0.282796
0.959768 0.263304 0.282312
0.023801 0.390805 0.284557
0.139243 0.390267 0.284031
0.257657 0.389747 0.283521
0.378400 0.389235 0.283019
0.499880 0.388729 0.282523
0.620360 0.388226 0.282031
0.738079 0.387728 0.281542
0.851278 0.387232 0.281056
0.958211 0.386738 0.280573
0.022267 0.516093 0.282820
0.137596 0.515551 0.282293
0.255932 0.515028 0.281783
0.376629 0.514512 0.281282
0.498094 0.514002 0.280786
0.618589 0.513497 0.280294
0.736352 0.512994 0.279806
0.849622 0.512495 0.279320
0.956655 0.511998 0.278837
0.020737 0.640950 0.281085
0.135952 0.640415 0.280559
0.254210 0.639897 0.280049
0.374862 0.639387 0.279548
0.496311 0.638883 0.279052
0.616820 0.638382 0.278561
0.734625 0.637885 0.278072
0.847966 0.637391 0.277587
0.955099 0.636899 0.277104
0.019209 0.763193 0.279352
0.134311 0.762674 0.278826
0.252491 0.762171 0.278317
0.373096 0.761675 0.277816
0.494529 0.761186 0.277321
0.615052 0.760700 0.276829
0.732899 0.760217 0.276341
0.846311 0.759737 0.275856
0.953542 0.759259 0.275373
0.017685 0.880640 0.277622
0.132672 0.880146 0.277096
0.250774 0.879667 0.276587
0.371332 0.879195 0.276087
0.492749 0.878729 0.275591
0.613285 0.878266 0.275100
0.731174 0.877807 0.274612
0.844656 0.877350 0.274128
0.951985 0.876895 0.273645
0.016164 0.991111 0.275894
0.131036 0.990651 0.275368
0.249059 0.990206 0.274860
0.369570 0.989767 0.274359
0.490970 0.989334 0.273864
0.611518 0.988903 0.273373
0.729449 0.988475 0.272886
0.843001 0.988050 0.272401
0.950428 0.987626 0.271919
0.028272 0.033848 0.421689
0.144039 0.033380 0.421150
0.262676 0.032926 0.420627
0.383549 0.032480 0.420114
0.505070 0.032039 0.419606
0.625507 0.031601 0.419102
0.743098 0.031167 0.418601
0.856085 0.030735 0.418104
0.962726 0.030306 0.417608
0.026720 0.147477 0.419895
0.142375 0.146976 0.419356
0.260935 0.146490 0.418834
0.381763 0.146013 0.418320
0.503271 0.145541 0.417812
0.623723 0.145073 0.417309
0.741358 0.144608 0.416808
0.854419 0.144146 0.416311
0.961162 0.143686 0.415816
0.025177 0.267086 0.418110
0.140719 0.266562 0.417571
0.259202 0.266054 0.417049
0.379985 0.265555 0.416535
0.501478 0.265061 0.416027
0.621946 0.264571 0.415523
0.739626 0.264085 0.415023
0.852760 0.263602 0.414526
0.959603 0.263120 0.414031
0.023639 0.390617 0.416328
0.139068 0.390079 0.415789
0.257474 0.389559 0.415268
0.378212 0.389047 0.414754
0.499690 0.388541 0.414246
0.620173 0.388038 0.413743
0.737896 0.387540 0.413242
0.851102 0.387044 0.412745
0.958046 0.386550 0.412250
0.022105 0.515903 0.414550
0.137421 0.515362 0.414011
0.255749 0.514838 0.413489
0.376442 0.514323 0.412976
0.497905 0.513813 0.412468
0.618401 0.513307 0.411965
0.736168 0.512805 0.411465
0.849446 0.512305 0.410967
0.956490 0.511808 0.410472
0.020574 0.640763 0.412774
0.135777 0.640228 0.412235
0.254028 0.639710 0.411714
0.374674 0.639200 0.411200
0.496121 0.638695 0.410693
0.616632 0.638195 0.410189
0.734442 0.637698 0.409689
0.847791 0.637204 0.409192
0.954933 0.636712 0.408697
0.019047 0.763012 0.411000
0.134136 0.762492 0.410462
0.252308 0.761989 0.409940
0.372908 0.761494 0.409427
0.494340 0.761004 0.408919
0.614864 0.760518 0.408416
0.732716 0.760035 0.407916
0.846135 0.759555 0.407419
0.953377 0.759077 0.406924
0.017523 0.880467 0.409228
0.132498 0.879972 0.408690
0.250591 0.879494 0.408168
0.371145 0.879022 0.407655
0.492559 0.878556 0.407147
0.613097 0.878093 0.406644
0.730990 0.877633 0.406144
0.844480 0.877176 0.405647
0.951820 0.876721 0.405153
0.016002 0.990951 0.407458
0.130862 0.990490 0.406919
0.248877 0.990045 0.406398
0.369382 0.989606 0.405885
0.490780 0.989172 0.405377
0.611330 0.988742 0.404874
0.729265 0.988314 0.404374
0.842825 0.987889 0.403877
0.950262 0.987465 0.403383
0.028107 0.033683 0.556525
0.143862 0.033214 0.555985
0.262491 0.032761 0.555462
0.383359 0.032314 0.554947
0.504879 0.031873 0.554438
0.625317 0.031436 0.553933
0.742913 0.031002 0.553431
0.855908 0.030570 0.552933
0.962560 0.030140 0.552436
0.026555 0.147300 0.554728
0.142198 0.146799 0.554188
0.260750 0.146313 0.553665
0.381573 0.145836 0.553150
0.503079 0.145364 0.552641
0.623533 0.144896 0.552136
0.741174 0.144431 0.551634
0.854242 0.143969 0.551136
0.960996 0.143509 0.550639
0.025012 0.266901 0.552939
0.140542 0.266376 0.552398
0.259017 0.265869 0.551875
0.379796 0.265370 0.551361
0.501287 0.264876 0.550851
0.621756 0.264386 0.550346
0.739441 0.263900 0.549845
0.852582 0.263416 0.549346
0.959437 0.262935 0.548849
0.023474 0.390427 0.551153
0.138892 0.389889 0.550613
0.257289 0.389369 0.550090
0.378022 0.388857 0.549575
0.499499 0.388351 0.549066
0.619983 0.387848 0.548561
0.737711 0.387350 0.548059
0.850925 0.386854 0.547560
0.957879 0.386360 0.547064
0.021940 0.515712 0.549370
0.137245 0.515171 0.548830
0.255565 0.514647 0.548307
0.376252 0.514131 0.547792
0.497713 0.513621 0.547283
0.618212 0.513116 0.546777
0.735983 0.512614 0.546276
0.849269 0.512114 0.545777
0.956323 0.511617 0.545280
0.020410 0.640574 0.547589
0.135601 0.640038 0.547049
0.253843 0.639520 0.546526
0.374484 0.639010 0.546011
0.495930 0.638506 0.545501
0.616442 0.638006 0.544996
0.734256 0.637509 0.544494
0.847613 0.637015 0.543995
0.954766 0.636523 0.543499
0.018883 0.762828 0.545810
0.133960 0.762308 0.545269
0.252124 0.761805 0.544746
0.372719 0.761310 0.544231
0.494148 0.760820 0.543722
0.614674 0.760334 0.543216
0.732530 0.759851 0.542715
0.845958 0.759371 0.542216
0.953209 0.758893 0.541719
0.017359 0.880292 0.544032
0.132322 0.879798 0.543491
0.250407 0.879319 0.542968
0.370955 0.878847 0.542453
0.492368 0.878381 0.541943
0.612907 0.877918 0.541438
0.730805 0.877458 0.540936
0.844302 0.877001 0.540437
0.951652 0.876546 0.539940
0.015838 0.990788 0.542254
0.130686 0.990328 0.541714
0.248692 0.989882 0.541190
0.369193 0.989444 0.540675
0.490589 0.989010 0.540166
0.611140 0.988579 0.539660
0.729080 0.988151 0.539159
0.842647 0.987726 0.538660
0.950094 0.987302 0.538163
0.027940 0.033516 0.691252
0.143684 0.033047 0.690722
0.262305 0.032594 0.690208
0.383168 0.032148 0.689703
0.504686 0.031706 0.689204
0.625126 0.031269 0.688709
0.742726 0.030835 0.688216
0.855730 0.030403 0.687727
0.962392 0.029974 0.687240
0.026389 0.147121 0.689489
0.142020 0.146620 0.688959
0.260564 0.146135 0.688445
0.381382 0.145657 0.687940
0.502886 0.145185 0.687440
0.623342 0.144717 0.686945
0.740987 0.144252 0.686452
0.854064 0.143790 0.685963
0.960828 0.143331 0.685475
0.024846 0.266714 0.687733
0.140364 0.266190 0.687203
0.258831 0.265682 0.686689
0.379604 0.265183 0.686184
0.501094 0.264689 0.685684
0.621565 0.264200 0.685188
0.739254 0.263713 0.684695
0.852404 0.263230 0.684206
0.959269 0.262749 0.683718
0.023308 0.390235 0.685980
0.138714 0.389698 0.685450
0.257103 0.389177 0.684936
0.377831 0.388665 0.684430
0.499306 0.388159 0.683930
0.619792 0.387657 0.683434
0.737524 0.387158 0.682942
0.850746 0.386662 0.682452
0.957711 0.386169 0.681964
0.021775 0.515519 0.684230
0.137067 0.514978 0.683699
0.255378 0.514454 0.683185
0.376061 0.513939 0.682679
0.497521 0.513429 0.682179
0.618020 0.512923 0.681683
0.735796 0.512421 0.681190
0.849090 0.511921 0.680700
0.956155 0.511424 0.680212
0.020245 0.640383 0.682480
0.135423 0.639848 0.681949
0.253657 0.639330 0.681435
0.374293 0.638820 0.680929
0.495737 0.638315 0.680429
0.616251 0.637815 0.679933
0.734070 0.637318 0.679439
0.847434 0.636824 0.678949
0.954598 0.636332 0.678461
0.018718 0.762643 0.680732
0.133783 0.762123 0.680201
0.251938 0.761620 0.679687
0.372528 0.761124 0.679181
0.493956 0.760635 0.678680
0.614482 0.760149 0.678183
0.732343 0.759666 0.677690
0.845778 0.759186 0.677199
0.953041 0.758708 0.676711
0.017194 0.880116 0.678985
0.132145 0.879621 0.678453
0.250221 0.879142 0.677939
0.370764 0.878671 0.677432
0.492175 0.878204 0.676932
0.612715 0.877742 0.676435
0.730618 0.877282 0.675941
0.844123 0.876825 0.675451
0.951483 0.876369 0.674962
0.015674 0.990624 0.677238
0.130509 0.990164 0.676706
0.248506 0.989718 0.676191
0.369002 0.989279 0.675685
0.490396 0.988845 0.675184
0.610949 0.988415 0.674687
0.728893 0.987987 0.674193
0.842467 0.987561 0.673702
0.949925 0.987138 0.673214
0.027773 0.033348 0.822797
0.143505 0.032879 0.822289
0.262117 0.032426 0.821797
0.382975 0.031980 0.821313
0.504492 0.031539 0.820833
0.624934 0.031101 0.820358
0.742539 0.030667 0.819886
0.855550 0.030236 0.819416
0.962224 0.029806 0.818949
0.026222 0.146941 0.821107
0.141841 0.146440 0.820598
0.260376 0.145955 0.820106
0.381190 0.145478 0.819621
0.502692 0.145006 0.819141
0.623150 0.144538 0.818666
0.740799 0.144073 0.818193
0.853884 0.143611 0.817723
0.960659 0.143151 0.817255
0.024679 0.266526 0.819422
0.140185 0.266002 0.818913
0.258643 0.265494 0.818420
0.379412 0.264995 0.817935
0.500900 0.264501 0.817455
0.621373 0.264012 0.816979
0.739067 0.263525 0.816507
0.852224 0.263042 0.816036
0.959100 0.262561 0.815568
0.023142 0.390042 0.817740
0.138535 0.389505 0.817231
0.256915 0.388985 0.816738
0.377639 0.388473 0.816252
0.499112 0.387966 0.815772
0.619599 0.387464 0.815296
0.737337 0.386966 0.814822
0.850566 0.386470 0.814352
0.957542 0.385976 0.813883
0.021608 0.515325 0.816059
0.136888 0.514784 0.815550
0.255191 0.514260 0.815056
0.375868 0.513744 0.814570
0.497326 0.513235 0.814090
0.617828 0.512729 0.813613
0.735609 0.512227 0.813140
0.848909 0.511727 0.812669
0.955985 0.511230 0.812200
0.020079 0.640191 0.814380
0.135245 0.639656 0.813870
0.253470 0.639138 0.813376
0.374101 0.638628 0.812890
0.495543 0.638123 0.812409
0.616058 0.637623 0.811932
0.733882 0.637126 0.811458
0.847253 0.636632 0.810987
0.954428 0.636140 0.810518
0.018552 0.762456 0.812700
0.133604 0.761937 0.812190
0.251751 0.761433 0.811696
0.372335 0.760938 0.811209
0.493761 0.760448 0.810728
0.614290 0.759962 0.810251
0.732155 0.759479 0.809777
0.845598 0.758999 0.809305
0.952871 0.758521 0.808836
0.017028 0.879939 0.811021
0.131966 0.879444 0.810510
0.250034 0.878965 0.810016
0.370572 0.878493 0.809529
0.491981 0.878027 0.809048
0.612522 0.877564 0.808570
0.730430 0.877104 0.808096
0.843942 0.876647 0.807624
0.951314 0.876192 0.807154
0.015508 0.990459 0.809342
0.130331 0.989999 0.808831
0.248319 0.989553 0.808336
0.368810 0.989114 0.807849
0.490202 0.988680 0.807367
0.610756 0.988250 0.806889
0.728704 0.987822 0.806414
0.842287 0.987396 0.805942
0.949755 0.986972 0.805472
0.027605 0.033179 0.948055
0.143324 0.032710 0.947580
0.261928 0.032257 0.947120
0.382782 0.031811 0.946667
0.504297 0.031370 0.946220
0.624740 0.030933 0.945775
0.742350 0.030499 0.945334
0.855370 0.030067 0.944895
0.962054 0.029638 0.944457
0.026054 0.146761 0.946475
0.141660 0.146259 0.946000
0.260187 0.145774 0.945539
0.380996 0.145297 0.945086
0.502497 0.144825 0.944638
0.622956 0.144357 0.944193
0.740611 0.143892 0.943751
0.853703 0.143430 0.943311
0.960490 0.142971 0.942874
0.024511 0.266337 0.944900
0.140005 0.265813 0.944424
0.258455 0.265305 0.943963
0.379218 0.264806 0.943510
0.500705 0.264312 0.943061
0.621179 0.263823 0.942615
0.738878 0.263336 0.942173
0.852043 0.262853 0.941733
0.958930 0.262372 0.941295
0.022974 0.389849 0.943327
0.138355 0.389311 0.942851
0.256727 0.388791 0.942389
0.377445 0.388279 0.941935
0.498917 0.387773 0.941486
0.619405 0.387270 0.941040
0.737148 0.386772 0.940597
0.850385 0.386276 0.940157
0.957372 0.385782 0.939718
0.021441 0.515130 0.941755
0.136708 0.514589 0.941278
0.255003 0.514065 0.940816
0.375675 0.513549 0.940361
0.497131 0.513039 0.939912
0.617634 0.512534 0.939465
0.735420 0.512031 0.939022
0.848728 0.511532 0.938581
0.955815 0.511035 0.938142
0.019911 0.639998 0.940183
0.135065 0.639463 0.939705
0.253281 0.638945 0.939243
0.373907 0.638435 0.938788
0.495348 0.637930 0.938337
0.615864 0.637430 0.937891
0.733693 0.636933 0.937447
0.847072 0.636439 0.937006
0.954258 0.635947 0.936566
0.018385 0.762269 0.938610
0.133424 0.761749 0.938132
0.251562 0.761246 0.937670
0.372142 0.760751 0.937214
0.493566 0.760261 0.936763
0.614096 0.759775 0.936316
0.731966 0.759292 0.935872
0.845416 0.758812 0.935430
0.952701 0.758334 0.934990
0.016862 0.879760 0.937038
0.131787 0.879265 0.936559
0.249846 0.878786 0.936096
0.370378 0.878315 0.935640
0.491786 0.877848 0.935189
0.612329 0.877385 0.934741
0.730241 0.876926 0.934296
0.843761 0.876468 0.933854
0.951143 0.876013 0.933414
0.015341 0.990293 0.935464
0.130151 0.989833 0.934986
0.248131 0.989387 0.934522
0.368616 0.988948 0.934065
0.490007 0.988514 0.933614
0.610562 0.988083 0.933166
0.728515 0.987655 0.932721
0.842105 0.987230 0.932278
0.949584 0.986806 0.931837
0.027508 0.033082 1.000000
0.143220 0.032613 1.000000
0.261819 0.032160 1.000000
0.382670 0.031714 1.000000
0.504185 0.031273 1.000000
0.624629 0.030836 1.000000
0.742242 0.030402 1.000000
0.855266 0.029970 1.000000
0.961957 0.029541 1.000000
0.025957 0.146657 1.000000
0.141557 0.146155 1.000000
0.260079 0.145670 1.000000
0.380885 0.145193 1.000000
0.502385 0.144721 1.000000
0.622845 0.144253 1.000000
0.740502 0.143788 1.000000
0.853599 0.143326 1.000000
0.960392 0.142867 1.000000
0.024415 0.266228 1.000000
0.139901 0.265704 1.000000
0.258346 0.265196 1.000000
0.379107 0.264697 1.000000
0.500593 0.264204 1.000000
0.621068 0.263714 1.000000
0.738769 0.263228 1.000000
0.851939 0.262744 1.000000
0.958832 0.262263 1.000000
0.022877 0.389737 1.000000
0.138251 0.389200 1.000000
0.256618 0.388679 1.000000
0.377334 0.388167 1.000000
0.498804 0.387661 1.000000
0.619294 0.387159 1.000000
0.737039 0.386660 1.000000
0.850281 0.386164 1.000000
0.957274 0.385671 1.000000
0.021344 0.515018 1.000000
0.136605 0.514476 1.000000
0.254894 0.513953 1.000000
0.375564 0.513437 1.000000
0.497019 0.512927 1.000000
0.617523 0.512422 1.000000
0.735311 0.511919 1.000000
0.848624 0.511420 1.000000
0.955717 0.510923 1.000000
0.019815 0.639887 1.000000
0.134961 0.639352 1.000000
0.253173 0.638834 1.000000
0.373796 0.638324 1.000000
0.495236 0.637819 1.000000
0.615753 0.637319 1.000000
0.733584 0.636822 1.000000
0.846968 0.636328 1.000000
0.954160 0.635836 1.000000
0.018289 0.762161 1.000000
0.133321 0.761641 1.000000
0.251454 0.761138 1.000000
0.372031 0.760643 1.000000
0.493454 0.760153 1.000000
0.613985 0.759667 1.000000
0.731857 0.759184 1.000000
0.845312 0.758704 1.000000
0.952602 0.758226 1.000000
0.016766 0.879658 1.000000
0.131683 0.879163 1.000000
0.249738 0.878684 1.000000
0.370267 0.878212 1.000000
0.491674 0.877745 1.000000
0.612217 0.877283 1.000000
0.730132 0.876823 1.000000
0.843656 0.876365 1.000000
0.951044 0.875910 1.000000
0.015245 0.990198 1.000000
0.130048 0.989737 1.000000
0.248023 0.989291 1.000000
0.368505 0.988853 1.000000
0.489895 0.988418 1.000000
0.610451 0.987988 1.000000
0.728406 0.987560 1.000000
0.842000 0.987134 1.000000
0.949486 0.986710 1.000000
