assets/luts/nile_indigo.cube
# Индиго над рекой — самая ночная из семьи
TITLE "nile_indigo"
LUT_3D_SIZE 5
DOMAIN_MIN 0.0 0.0 0.0
DOMAIN_MAX 1.0 1.0 1.0
0.024986 0.031750 0.060021
0.260339 0.029107 0.057308
0.501525 0.026641 0.054776
0.735721 0.024254 0.052323
0.947561 0.021918 0.049924
0.016127 0.262507 0.050861
0.250015 0.259451 0.048169
0.490746 0.256596 0.045658
0.725345 0.253828 0.043226
0.938388 0.251116 0.040847
0.007486 0.510845 0.041916
0.239892 0.507661 0.039247
0.480135 0.504683 0.036757
0.715094 0.501793 0.034345
0.929285 0.498958 0.031986
0.000000 0.756508 0.033110
0.229881 0.753471 0.030463
0.469605 0.750627 0.027995
0.704884 0.747863 0.025604
0.920179 0.745150 0.023265
0.000000 0.978900 0.024421
0.219961 0.976278 0.021798
0.459129 0.973820 0.019350
0.694692 0.971427 0.016981
0.911051 0.969076 0.014663
0.024057 0.030815 0.313202
0.259259 0.028174 0.310097
0.500399 0.025711 0.307195
0.734639 0.023325 0.304381
0.946607 0.020992 0.301623
0.015207 0.261426 0.302700
0.248940 0.258371 0.299604
0.489620 0.255518 0.296711
0.724259 0.252750 0.293905
0.937426 0.250040 0.291156
0.006574 0.509719 0.292392
0.238820 0.506535 0.289306
0.479010 0.503558 0.286422
0.714004 0.500667 0.283625
0.928315 0.497833 0.280885
0.000000 0.755435 0.282191
0.228814 0.752396 0.279114
0.468480 0.749551 0.276240
0.703791 0.746786 0.273452
0.919203 0.744072 0.270721
0.000000 0.977974 0.272072
0.218899 0.975349 0.269006
0.458005 0.972889 0.266141
0.693596 0.970494 0.263363
0.910067 0.968141 0.260642
0.023084 0.029835 0.599141
0.258127 0.027197 0.595977
0.499219 0.024736 0.593018
0.733504 0.022353 0.590144
0.945605 0.020022 0.587325
0.014243 0.260293 0.588427
0.247812 0.257240 0.585259
0.488440 0.254387 0.582296
0.723120 0.251621 0.579418
0.936416 0.248912 0.576596
0.005619 0.508539 0.577865
0.237697 0.505355 0.574694
0.477830 0.502377 0.571727
0.712862 0.499487 0.568846
0.927298 0.496652 0.566021
0.000000 0.754308 0.567368
0.227696 0.751268 0.564193
0.467300 0.748422 0.561224
0.702644 0.745656 0.558340
0.918177 0.742941 0.555512
0.000000 0.977001 0.556911
0.217785 0.974375 0.553734
0.456826 0.971912 0.550762
0.692446 0.969515 0.547876
0.909035 0.967159 0.545046
0.022088 0.028831 0.880241
0.256967 0.026196 0.877393
0.498009 0.023738 0.874726
0.732341 0.021357 0.872131
0.944577 0.019029 0.869583
0.013255 0.259132 0.870579
0.246657 0.256080 0.867714
0.487230 0.253229 0.865029
0.721952 0.250464 0.862418
0.935379 0.247756 0.859854
0.004641 0.507329 0.861008
0.236546 0.504145 0.858125
0.476620 0.501167 0.855424
0.711690 0.498277 0.852798
0.926254 0.495442 0.850219
0.000000 0.753153 0.851449
0.226550 0.750112 0.848549
0.466091 0.747264 0.845832
0.701469 0.744497 0.843191
0.917125 0.741781 0.840597
0.000000 0.976004 0.841881
0.216644 0.973374 0.838965
0.455618 0.970909 0.836233
0.691267 0.968510 0.833577
0.907975 0.966152 0.830970
0.021418 0.028157 1.000000
0.256188 0.025524 1.000000
0.497195 0.023067 1.000000
0.731558 0.020688 1.000000
0.943885 0.018361 1.000000
0.012592 0.258352 1.000000
0.245880 0.255301 1.000000
0.486416 0.252450 1.000000
0.721166 0.249686 1.000000
0.934682 0.246979 1.000000
0.003984 0.506515 1.000000
0.235773 0.503331 1.000000
0.475807 0.500354 1.000000
0.710902 0.497463 1.000000
0.925551 0.494629 1.000000
0.000000 0.752377 1.000000
0.225779 0.749334 1.000000
0.465278 0.746486 1.000000
0.700678 0.743718 1.000000
0.916418 0.741001 1.000000
0.000000 0.975333 1.000000
0.215877 0.972701 1.000000
0.454805 0.970234 1.000000
0.690474 0.967834 1.000000
0.907263 0.965474 1.000000
