assets/luts/nile_indigo.cube
# Индиго над рекой — самая ночная из семьи
TITLE "nile_indigo"
LUT_3D_SIZE 17
DOMAIN_MIN 0.0 0.0 0.0
DOMAIN_MAX 1.0 1.0 1.0
0.024986 0.031750 0.060021
0.083355 0.031053 0.059306
0.141711 0.030389 0.058624
0.200706 0.029742 0.057960
0.260339 0.029107 0.057308
0.320454 0.028480 0.056664
0.380845 0.027861 0.056029
0.441281 0.027249 0.055400
0.501525 0.026641 0.054776
0.561333 0.026038 0.054157
0.620464 0.025440 0.053542
0.678673 0.024845 0.052931
0.735721 0.024254 0.052323
0.791369 0.023665 0.051719
0.845381 0.023080 0.051118
0.897522 0.022498 0.050520
0.947561 0.021918 0.049924
0.022738 0.086818 0.057697
0.080985 0.086087 0.056984
0.139242 0.085390 0.056303
0.198157 0.084710 0.055640
0.257724 0.084043 0.054989
0.317790 0.083386 0.054348
0.378146 0.082736 0.053713
0.438562 0.082092 0.053085
0.498799 0.081454 0.052463
0.558614 0.080821 0.051845
0.617764 0.080192 0.051231
0.676006 0.079567 0.050622
0.733100 0.078946 0.050015
0.788807 0.078328 0.049412
0.842889 0.077713 0.048813
0.895114 0.077101 0.048216
0.945248 0.076491 0.047621
0.020518 0.143766 0.055401
0.078644 0.143005 0.054690
0.136802 0.142280 0.054010
0.195636 0.141573 0.053349
0.255138 0.140879 0.052699
0.315154 0.140195 0.052059
0.375475 0.139519 0.051426
0.435870 0.138849 0.050799
0.496100 0.138185 0.050178
0.555921 0.137525 0.049561
0.615090 0.136871 0.048949
0.673365 0.136220 0.048340
0.730504 0.135573 0.047735
0.786267 0.134929 0.047134
0.840419 0.134289 0.046535
0.892726 0.133651 0.045939
0.942954 0.133016 0.045346
0.018315 0.202422 0.053124
0.076321 0.201637 0.052413
0.134380 0.200888 0.051736
0.193132 0.200159 0.051075
0.252570 0.199442 0.050427
0.312536 0.198735 0.049788
0.372822 0.198037 0.049156
0.433195 0.197345 0.048531
0.493417 0.196659 0.047911
0.553244 0.195978 0.047295
0.612432 0.195302 0.046684
0.670737 0.194629 0.046077
0.727920 0.193961 0.045474
0.783740 0.193296 0.044873
0.837961 0.192634 0.044276
0.890347 0.191975 0.043681
0.940668 0.191319 0.043089
0.016127 0.262507 0.050861
0.074012 0.261702 0.050152
0.131972 0.260934 0.049475
0.190643 0.260186 0.048816
0.250015 0.259451 0.048169
0.309931 0.258726 0.047531
0.370181 0.258010 0.046901
0.430532 0.257300 0.046277
0.490746 0.256596 0.045658
0.550577 0.255897 0.045044
0.609783 0.255204 0.044434
0.668119 0.254514 0.043829
0.725345 0.253828 0.043226
0.781220 0.253145 0.042627
0.835509 0.252466 0.042031
0.887975 0.251790 0.041438
0.938388 0.251116 0.040847
0.013952 0.323711 0.048609
0.071716 0.322891 0.047902
0.129576 0.322109 0.047227
0.188165 0.321346 0.046569
0.247471 0.320597 0.045923
0.307337 0.319859 0.045287
0.367550 0.319128 0.044658
0.427879 0.318405 0.044035
0.488083 0.317687 0.043418
0.547919 0.316975 0.042805
0.607142 0.316268 0.042196
0.665508 0.315564 0.041592
0.722776 0.314865 0.040991
0.778706 0.314169 0.040393
0.833061 0.313476 0.039798
0.885607 0.312786 0.039206
0.936110 0.312099 0.038616
0.011787 0.385717 0.046369
0.069429 0.384887 0.045663
0.127190 0.384094 0.044989
0.185696 0.383322 0.044333
0.244937 0.382563 0.043688
0.304751 0.381814 0.043053
0.364927 0.381074 0.042426
0.425233 0.380341 0.041804
0.485428 0.379614 0.041188
0.545267 0.378892 0.040576
0.604507 0.378175 0.039969
0.662902 0.377462 0.039366
0.720212 0.376753 0.038766
0.776196 0.376048 0.038169
0.830617 0.375345 0.037576
0.883241 0.374646 0.036985
0.933835 0.373949 0.036397
0.009632 0.448203 0.044138
0.067152 0.447366 0.043433
0.124813 0.446568 0.042761
0.183237 0.445790 0.042106
0.242410 0.445025 0.041463
0.302173 0.444271 0.040829
0.362312 0.443525 0.040203
0.422594 0.442787 0.039583
0.482779 0.442054 0.038968
0.542621 0.441327 0.038358
0.601877 0.440604 0.037752
0.660300 0.439885 0.037150
0.717651 0.439170 0.036551
0.773689 0.438459 0.035956
0.828176 0.437751 0.035363
0.880877 0.437046 0.034774
0.931560 0.436344 0.034187
0.007486 0.510845 0.041916
0.064884 0.510007 0.041213
0.122444 0.509207 0.040542
0.180785 0.508427 0.039888
0.239892 0.507661 0.039247
0.299602 0.506905 0.038614
0.359703 0.506158 0.037989
0.419961 0.505418 0.037370
0.480135 0.504683 0.036757
0.539980 0.503954 0.036148
0.599251 0.503230 0.035543
0.657703 0.502509 0.034942
0.715094 0.501793 0.034345
0.771184 0.501080 0.033751
0.825736 0.500370 0.033160
0.878514 0.499663 0.032572
0.929285 0.498958 0.031986
0.005349 0.573319 0.039703
0.062625 0.572484 0.039001
0.120083 0.571687 0.038332
0.178341 0.570910 0.037679
0.237380 0.570146 0.037039
0.297037 0.569393 0.036408
0.357100 0.568648 0.035784
0.417333 0.567910 0.035167
0.477496 0.567178 0.034554
0.537343 0.566451 0.033947
0.596628 0.565729 0.033343
0.655108 0.565011 0.032744
0.712539 0.564296 0.032148
0.768681 0.563585 0.031555
0.823297 0.562877 0.030965
0.876151 0.562172 0.030378
0.927010 0.561470 0.029794
0.003221 0.635302 0.037497
0.060373 0.634475 0.036797
0.117730 0.633685 0.036129
0.175904 0.632915 0.035478
0.234874 0.632158 0.034840
0.294478 0.631411 0.034210
0.354502 0.630673 0.033587
0.414711 0.629941 0.032971
0.474862 0.629215 0.032360
0.534710 0.628495 0.031754
0.594009 0.627778 0.031152
0.652515 0.627066 0.030554
0.709985 0.626357 0.029959
0.766179 0.625652 0.029367
0.820858 0.624950 0.028779
0.873788 0.624250 0.028193
0.924734 0.623554 0.027610
0.001100 0.696473 0.035300
0.058129 0.695657 0.034601
0.115384 0.694878 0.033935
0.173473 0.694119 0.033285
0.232375 0.693373 0.032648
0.291925 0.692637 0.032019
0.351909 0.691909 0.031398
0.412093 0.691188 0.030783
0.472231 0.690472 0.030174
0.532080 0.689761 0.029569
0.591393 0.689055 0.028968
0.649925 0.688352 0.028371
0.707434 0.687654 0.027777
0.763678 0.686958 0.027187
0.818420 0.686265 0.026600
0.871424 0.685575 0.026016
0.922457 0.684888 0.025434
0.000000 0.756508 0.033110
0.055892 0.755709 0.032413
0.113044 0.754946 0.031748
0.171048 0.754202 0.031100
0.229881 0.753471 0.030463
0.289378 0.752749 0.029836
0.349322 0.752036 0.029217
0.409479 0.751328 0.028603
0.469605 0.750627 0.027995
0.529454 0.749930 0.027391
0.588780 0.749237 0.026792
0.647337 0.748548 0.026196
0.704884 0.747863 0.025604
0.761178 0.747181 0.025015
0.815982 0.746501 0.024429
0.869061 0.745824 0.023846
0.920179 0.745150 0.023265
0.000000 0.815088 0.030927
0.053663 0.814310 0.030232
0.110712 0.813566 0.029568
0.168630 0.812842 0.028921
0.227393 0.812129 0.028286
0.286835 0.811426 0.027661
0.346738 0.810731 0.027042
0.406869 0.810042 0.026430
0.466981 0.809358 0.025823
0.526830 0.808679 0.025221
0.586168 0.808004 0.024623
0.644751 0.807333 0.024028
0.702334 0.806665 0.023437
0.758678 0.805999 0.022850
0.813544 0.805337 0.022265
0.866696 0.804677 0.021683
0.917900 0.804020 0.021104
0.000000 0.871892 0.028752
0.051440 0.871139 0.028057
0.108385 0.870420 0.027395
0.166218 0.869719 0.026750
0.224911 0.869029 0.026117
0.284297 0.868349 0.025492
0.344160 0.867676 0.024875
0.404262 0.867009 0.024264
0.464361 0.866347 0.023659
0.524209 0.865689 0.023058
0.583559 0.865036 0.022461
0.642166 0.864385 0.021868
0.699786 0.863738 0.021278
0.756179 0.863094 0.020692
0.811106 0.862453 0.020109
0.864330 0.861814 0.019528
0.915619 0.861177 0.018950
0.000000 0.926602 0.026583
0.049224 0.925879 0.025890
0.106065 0.925188 0.025230
0.163811 0.924514 0.024586
0.222433 0.923851 0.023954
0.281764 0.923198 0.023331
0.341585 0.922551 0.022715
0.401660 0.921910 0.022105
0.461744 0.921273 0.021501
0.521590 0.920641 0.020901
0.580951 0.920013 0.020306
0.639582 0.919388 0.019714
0.697239 0.918765 0.019126
0.753680 0.918146 0.018541
0.808667 0.917529 0.017959
0.861963 0.916914 0.017380
0.913336 0.916302 0.016803
0.000000 0.978900 0.024421
0.047014 0.978210 0.023730
0.103751 0.977552 0.023071
0.161410 0.976909 0.022428
0.219961 0.976278 0.021798
0.279235 0.975655 0.021176
0.339014 0.975038 0.020562
0.399060 0.974427 0.019953
0.459129 0.973820 0.019350
0.518974 0.973217 0.018752
0.578346 0.972617 0.018158
0.637000 0.972021 0.017568
0.694692 0.971427 0.016981
0.751181 0.970836 0.016397
0.806227 0.970248 0.015816
0.859595 0.969661 0.015238
0.911051 0.969076 0.014663
0.024761 0.031523 0.118040
0.083118 0.030827 0.117292
0.141464 0.030163 0.116579
0.200451 0.029516 0.115884
0.260077 0.028881 0.115202
0.320188 0.028255 0.114529
0.380575 0.027636 0.113864
0.441009 0.027023 0.113205
0.501252 0.026416 0.112552
0.561062 0.025813 0.111904
0.620194 0.025215 0.111260
0.678406 0.024620 0.110621
0.735459 0.024029 0.109985
0.791113 0.023441 0.109352
0.845132 0.022856 0.108722
0.897282 0.022273 0.108096
0.947330 0.021694 0.107472
0.022513 0.086580 0.115609
0.080749 0.085849 0.114863
0.138995 0.085152 0.114151
0.197902 0.084473 0.113457
0.257463 0.083806 0.112776
0.317524 0.083149 0.112104
0.377876 0.082499 0.111440
0.438290 0.081855 0.110782
0.498526 0.081217 0.110130
0.558342 0.080584 0.109483
0.617494 0.079956 0.108841
0.675740 0.079331 0.108202
0.732838 0.078710 0.107567
0.788550 0.078092 0.106936
0.842640 0.077477 0.106307
0.894873 0.076865 0.105682
0.945016 0.076256 0.105059
0.020293 0.143518 0.113207
0.078408 0.142758 0.112462
0.136556 0.142033 0.111751
0.195381 0.141326 0.111058
0.254877 0.140632 0.110378
0.314888 0.139948 0.109707
0.375206 0.139272 0.109044
0.435598 0.138602 0.108388
0.495827 0.137938 0.107737
0.555649 0.137279 0.107091
0.614820 0.136624 0.106450
0.673098 0.135974 0.105812
0.730241 0.135327 0.105179
0.786011 0.134683 0.104548
0.840170 0.134043 0.103921
0.892484 0.133406 0.103296
0.942721 0.132771 0.102674
0.018092 0.202167 0.110823
0.076085 0.201382 0.110079
0.134134 0.200633 0.109369
0.192878 0.199904 0.108678
0.252309 0.199187 0.107999
0.312270 0.198480 0.107329
0.372552 0.197782 0.106667
0.432924 0.197090 0.106012
0.493145 0.196404 0.105362
0.552972 0.195723 0.104718
0.612161 0.195047 0.104077
0.670470 0.194375 0.103441
0.727657 0.193706 0.102808
0.783483 0.193041 0.102179
0.837710 0.192380 0.101552
0.890105 0.191721 0.100929
0.940436 0.191065 0.100308
0.015904 0.262245 0.108453
0.073777 0.261440 0.107710
0.131727 0.260672 0.107001
0.190389 0.259924 0.106311
0.249755 0.259189 0.105633
0.309666 0.258465 0.104965
0.369911 0.257748 0.104304
0.430261 0.257039 0.103650
0.490473 0.256335 0.103001
0.550305 0.255636 0.102358
0.609512 0.254942 0.101719
0.667852 0.254253 0.101083
0.725082 0.253567 0.100452
0.780963 0.252884 0.099823
0.835258 0.252205 0.099198
0.887733 0.251529 0.098576
0.938155 0.250855 0.097956
0.013729 0.323444 0.106094
0.071481 0.322625 0.105353
0.129331 0.321842 0.104646
0.187911 0.321080 0.103956
0.247211 0.320331 0.103280
0.307071 0.319592 0.102612
0.367280 0.318862 0.101953
0.427607 0.318138 0.101300
0.487811 0.317421 0.100652
0.547647 0.316709 0.100010
0.606871 0.316001 0.099372
0.665240 0.315298 0.098737
0.722513 0.314599 0.098107
0.778448 0.313903 0.097480
0.832811 0.313210 0.096855
0.885364 0.312520 0.096234
0.935877 0.311833 0.095615
0.011565 0.385447 0.103746
0.069195 0.384617 0.103006
0.126945 0.383824 0.102300
0.185443 0.383052 0.101612
0.244677 0.382293 0.100936
0.304485 0.381544 0.100270
0.364658 0.380804 0.099612
0.424962 0.380071 0.098960
0.485155 0.379344 0.098314
0.544995 0.378623 0.097672
0.604236 0.377905 0.097035
0.662634 0.377193 0.096402
0.719948 0.376483 0.095772
0.775938 0.375778 0.095146
0.830366 0.375076 0.094523
0.882998 0.374376 0.093903
0.933601 0.373680 0.093285
0.009410 0.447931 0.101408
0.066918 0.447094 0.100669
0.124568 0.446296 0.099964
0.182984 0.445518 0.099277
0.242151 0.444753 0.098602
0.301907 0.443999 0.097937
0.362042 0.443253 0.097280
0.422323 0.442515 0.096629
0.482506 0.441782 0.095984
0.542349 0.441055 0.095344
0.601606 0.440332 0.094708
0.660033 0.439613 0.094076
0.717388 0.438899 0.093447
0.773431 0.438187 0.092822
0.827924 0.437479 0.092200
0.880633 0.436774 0.091581
0.931325 0.436072 0.090965
0.007265 0.510572 0.099077
0.064651 0.509734 0.098340
0.122200 0.508934 0.097636
0.180533 0.508154 0.096950
0.239632 0.507388 0.096277
0.299337 0.506633 0.095613
0.359434 0.505885 0.094957
0.419690 0.505145 0.094307
0.479863 0.504411 0.093663
0.539708 0.503682 0.093024
0.598980 0.502957 0.092389
0.657435 0.502237 0.091758
0.714830 0.501520 0.091131
0.770926 0.500807 0.090507
0.825484 0.500097 0.089886
0.878270 0.499390 0.089268
0.929050 0.498686 0.088653
0.005129 0.573047 0.096755
0.062392 0.572212 0.096019
0.119840 0.571415 0.095316
0.178089 0.570638 0.094632
0.237120 0.569874 0.093960
0.296772 0.569121 0.093297
0.356831 0.568376 0.092642
0.417062 0.567638 0.091994
0.477224 0.566906 0.091351
0.537071 0.566179 0.090713
0.596358 0.565457 0.090079
0.654840 0.564739 0.089449
0.712275 0.564024 0.088823
0.768422 0.563313 0.088200
0.823045 0.562605 0.087580
0.875906 0.561900 0.086963
0.926775 0.561198 0.086349
0.003001 0.635033 0.094441
0.060141 0.634206 0.093706
0.117487 0.633416 0.093004
0.175652 0.632645 0.092321
0.234615 0.631888 0.091650
0.294214 0.631142 0.090989
0.354233 0.630403 0.090335
0.414439 0.629672 0.089688
0.474589 0.628946 0.089046
0.534438 0.628225 0.088409
0.593738 0.627509 0.087776
0.652247 0.626796 0.087147
0.709721 0.626088 0.086522
0.765920 0.625382 0.085901
0.820606 0.624680 0.085282
0.873543 0.623981 0.084666
0.924498 0.623284 0.084053
0.000881 0.696207 0.092134
0.057897 0.695392 0.091400
0.115141 0.694613 0.090700
0.173221 0.693854 0.090018
0.232116 0.693108 0.089348
0.291661 0.692372 0.088688
0.351641 0.691644 0.088035
0.411821 0.690922 0.087389
0.471959 0.690206 0.086748
0.531808 0.689495 0.086112
0.591122 0.688789 0.085481
0.649657 0.688087 0.084853
0.707169 0.687388 0.084229
0.763419 0.686692 0.083609
0.818168 0.685999 0.082991
0.871179 0.685309 0.082376
0.922221 0.684622 0.081764
0.000000 0.756248 0.089834
0.055661 0.755449 0.089101
0.112802 0.754686 0.088402
0.170797 0.753942 0.087721
0.229623 0.753210 0.087053
0.289113 0.752489 0.086394
0.349053 0.751775 0.085742
0.409207 0.751068 0.085097
0.469332 0.750366 0.084458
0.529181 0.749669 0.083823
0.588508 0.748976 0.083192
0.647069 0.748288 0.082566
0.704619 0.747602 0.081943
0.760919 0.746920 0.081324
0.815729 0.746240 0.080707
0.868815 0.745563 0.080094
0.919943 0.744889 0.079483
0.000000 0.814835 0.087540
0.053431 0.814056 0.086809
0.110470 0.813313 0.086111
0.168379 0.812588 0.085432
0.227135 0.811876 0.084764
0.286571 0.811173 0.084107
0.346470 0.810477 0.083456
0.406598 0.809788 0.082812
0.466709 0.809104 0.082174
0.526557 0.808425 0.081540
0.585897 0.807750 0.080911
0.644482 0.807078 0.080286
0.702070 0.806410 0.079664
0.758419 0.805745 0.079046
0.813291 0.805083 0.078430
0.866450 0.804423 0.077818
0.917663 0.803765 0.077208
0.000000 0.871647 0.085254
0.051209 0.870894 0.084524
0.108144 0.870175 0.083827
0.165967 0.869473 0.083149
0.224653 0.868784 0.082483
0.284033 0.868103 0.081826
0.343892 0.867430 0.081177
0.403991 0.866763 0.080534
0.464089 0.866101 0.079897
0.523936 0.865443 0.079264
0.583287 0.864790 0.078636
0.641897 0.864139 0.078012
0.699521 0.863492 0.077392
0.755919 0.862848 0.076774
0.810852 0.862206 0.076160
0.864084 0.861567 0.075549
0.915381 0.860930 0.074940
0.000000 0.926367 0.082973
0.048993 0.925643 0.082245
0.105824 0.924952 0.081550
0.163561 0.924278 0.080872
0.222176 0.923616 0.080207
0.281500 0.922962 0.079552
0.341317 0.922315 0.078904
0.401389 0.921673 0.078262
0.461471 0.921037 0.077626
0.521317 0.920405 0.076995
0.580680 0.919776 0.076368
0.639313 0.919151 0.075745
0.696973 0.918529 0.075126
0.753420 0.917909 0.074509
0.808413 0.917292 0.073896
0.861717 0.916677 0.073286
0.913098 0.916064 0.072679
0.000000 0.978675 0.080699
0.046784 0.977986 0.079972
0.103510 0.977327 0.079278
0.161160 0.976685 0.078602
0.219704 0.976053 0.077938
0.278972 0.975430 0.077284
0.338746 0.974813 0.076637
0.398790 0.974201 0.075997
0.458857 0.973594 0.075362
0.518701 0.972991 0.074732
0.578074 0.972392 0.074106
0.636730 0.971795 0.073484
0.694426 0.971202 0.072866
0.750920 0.970610 0.072251
0.805973 0.970022 0.071639
0.859349 0.969435 0.071030
0.910813 0.968850 0.070424
0.024530 0.031291 0.180068
0.082874 0.030595 0.179292
0.141210 0.029931 0.178552
0.200190 0.029284 0.177830
0.259809 0.028649 0.177122
0.319914 0.028023 0.176423
0.380298 0.027404 0.175732
0.440730 0.026792 0.175048
0.500973 0.026184 0.174370
0.560782 0.025582 0.173697
0.619917 0.024984 0.173028
0.678133 0.024389 0.172363
0.735190 0.023798 0.171703
0.790850 0.023210 0.171045
0.844876 0.022625 0.170391
0.897035 0.022043 0.169740
0.947093 0.021464 0.169091
0.022283 0.086336 0.177545
0.080506 0.085605 0.176770
0.138742 0.084908 0.176030
0.197640 0.084229 0.175310
0.257195 0.083563 0.174602
0.317250 0.082905 0.173904
0.377599 0.082256 0.173215
0.438011 0.081612 0.172531
0.498246 0.080975 0.171854
0.558063 0.080342 0.171182
0.617217 0.079713 0.170514
0.675466 0.079088 0.169850
0.732569 0.078467 0.169190
0.788287 0.077849 0.168534
0.842384 0.077235 0.167881
0.894625 0.076623 0.167230
0.944779 0.076014 0.166582
0.020064 0.143265 0.175050
0.078166 0.142505 0.174276
0.136303 0.141779 0.173538
0.195120 0.141073 0.172818
0.254609 0.140379 0.172111
0.314615 0.139695 0.171415
0.374929 0.139019 0.170726
0.435319 0.138349 0.170043
0.495548 0.137685 0.169367
0.555370 0.137026 0.168696
0.614543 0.136372 0.168029
0.672824 0.135721 0.167366
0.729972 0.135074 0.166707
0.785747 0.134431 0.166051
0.839913 0.133791 0.165399
0.892236 0.133153 0.164749
0.942483 0.132519 0.164103
0.017862 0.201905 0.172574
0.075843 0.201120 0.171801
0.133882 0.200371 0.171063
0.192618 0.199642 0.170344
0.252042 0.198925 0.169639
0.311998 0.198219 0.168943
0.372276 0.197521 0.168255
0.432645 0.196829 0.167574
0.492865 0.196143 0.166898
0.552693 0.195462 0.166228
0.611884 0.194786 0.165562
0.670196 0.194114 0.164900
0.727388 0.193446 0.164242
0.783219 0.192781 0.163587
0.837454 0.192119 0.162935
0.889857 0.191460 0.162287
0.940197 0.190804 0.161641
0.015675 0.261976 0.170111
0.073536 0.261172 0.169339
0.131475 0.260404 0.168602
0.190129 0.259656 0.167884
0.249487 0.258921 0.167180
0.309393 0.258196 0.166485
0.369635 0.257480 0.165798
0.429982 0.256770 0.165117
0.490193 0.256067 0.164443
0.550026 0.255368 0.163773
0.609235 0.254675 0.163108
0.667578 0.253985 0.162447
0.724812 0.253299 0.161790
0.780699 0.252617 0.161136
0.835001 0.251937 0.160486
0.887484 0.251261 0.159838
0.937916 0.250588 0.159193
0.013501 0.323171 0.167659
0.071240 0.322351 0.166888
0.129079 0.321569 0.166153
0.187651 0.320806 0.165436
0.246944 0.320057 0.164732
0.306799 0.319319 0.164038
0.367004 0.318588 0.163352
0.427328 0.317865 0.162673
0.487531 0.317148 0.161999
0.547368 0.316436 0.161330
0.606594 0.315728 0.160666
0.664966 0.315025 0.160006
0.722243 0.314326 0.159350
0.778184 0.313630 0.158697
0.832553 0.312937 0.158047
0.885115 0.312247 0.157400
0.935637 0.311560 0.156756
0.011337 0.385170 0.165218
0.068954 0.384339 0.164448
0.126694 0.383547 0.163713
0.185183 0.382774 0.162997
0.244410 0.382016 0.162294
0.304213 0.381267 0.161601
0.364382 0.380527 0.160916
0.424683 0.379794 0.160238
0.484876 0.379067 0.159565
0.544716 0.378346 0.158897
0.603958 0.377629 0.158234
0.662360 0.376916 0.157575
0.719678 0.376207 0.156920
0.775673 0.375501 0.156268
0.830109 0.374799 0.155619
0.882749 0.374100 0.154973
0.933361 0.373403 0.154330
0.009183 0.447652 0.162785
0.066678 0.446815 0.162016
0.124317 0.446017 0.161282
0.182724 0.445238 0.160568
0.241884 0.444474 0.159866
0.301635 0.443720 0.159174
0.361766 0.442974 0.158489
0.422044 0.442236 0.157812
0.482227 0.441503 0.157140
0.542070 0.440776 0.156473
0.601328 0.440053 0.155811
0.659758 0.439334 0.155153
0.717117 0.438620 0.154498
0.773166 0.437908 0.153847
0.827666 0.437200 0.153199
0.880384 0.436495 0.152554
0.931085 0.435793 0.151912
0.007038 0.510292 0.160360
0.064411 0.509454 0.159592
0.121950 0.508654 0.158860
0.180273 0.507875 0.158146
0.239366 0.507109 0.157445
0.299065 0.506353 0.156754
0.359158 0.505606 0.156071
0.419411 0.504865 0.155394
0.479583 0.504131 0.154723
0.539428 0.503402 0.154058
0.598702 0.502677 0.153396
0.657160 0.501957 0.152739
0.714559 0.501240 0.152085
0.770660 0.500527 0.151435
0.825226 0.499817 0.150788
0.878019 0.499110 0.150144
0.928809 0.498406 0.149503
0.004903 0.572769 0.157943
0.062153 0.571933 0.157176
0.119590 0.571136 0.156445
0.177830 0.570359 0.155732
0.236854 0.569596 0.155032
0.296501 0.568842 0.154342
0.356555 0.568098 0.153660
0.416784 0.567360 0.152984
0.476944 0.566627 0.152314
0.536791 0.565901 0.151649
0.596080 0.565178 0.150989
0.654565 0.564460 0.150333
0.712004 0.563745 0.149680
0.768157 0.563034 0.149031
0.822786 0.562326 0.148385
0.875656 0.561621 0.147742
0.926533 0.560919 0.147101
0.002775 0.634757 0.155533
0.059902 0.633929 0.154768
0.117237 0.633139 0.154037
0.175393 0.632369 0.153325
0.234349 0.631612 0.152626
0.293942 0.630865 0.151937
0.353958 0.630127 0.151256
0.414161 0.629395 0.150581
0.474310 0.628669 0.149912
0.534158 0.627948 0.149248
0.593460 0.627232 0.148589
0.651972 0.626520 0.147934
0.709450 0.625811 0.147282
0.765654 0.625106 0.146634
0.820347 0.624403 0.145988
0.873292 0.623704 0.145346
0.924257 0.623007 0.144707
0.000656 0.695935 0.153130
0.057659 0.695119 0.152366
0.114892 0.694341 0.151636
0.172963 0.693581 0.150925
0.231851 0.692835 0.150227
0.291390 0.692099 0.149539
0.351365 0.691371 0.148859
0.411543 0.690649 0.148185
0.471679 0.689934 0.147517
0.531528 0.689223 0.146854
0.590844 0.688516 0.146196
0.649382 0.687814 0.145541
0.706898 0.687115 0.144891
0.763153 0.686419 0.144243
0.817908 0.685726 0.143599
0.870928 0.685036 0.142958
0.921979 0.684349 0.142319
0.000000 0.755981 0.150733
0.055423 0.755182 0.149970
0.112553 0.754419 0.149242
0.170539 0.753675 0.148532
0.229358 0.752943 0.147835
0.288842 0.752222 0.147148
0.348778 0.751508 0.146468
0.408929 0.750801 0.145796
0.469053 0.750099 0.145129
0.528902 0.749402 0.144467
0.588230 0.748709 0.143809
0.646793 0.748020 0.143156
0.704347 0.747334 0.142506
0.760652 0.746652 0.141859
0.815470 0.745972 0.141216
0.868563 0.745296 0.140576
0.919700 0.744621 0.139938
0.000000 0.814575 0.148343
0.053194 0.813796 0.147581
0.110221 0.813053 0.146853
0.168122 0.812328 0.146145
0.226870 0.811616 0.145449
0.286300 0.810912 0.144762
0.346195 0.810217 0.144084
0.406319 0.809528 0.143412
0.466429 0.808844 0.142746
0.526278 0.808164 0.142085
0.585619 0.807489 0.141429
0.644206 0.806818 0.140776
0.701798 0.806149 0.140127
0.758152 0.805484 0.139482
0.813031 0.804822 0.138840
0.866198 0.804162 0.138200
0.917420 0.803504 0.137563
0.000000 0.871396 0.145959
0.050972 0.870643 0.145198
0.107896 0.869923 0.144471
0.165710 0.869222 0.143764
0.224388 0.868532 0.143069
0.283763 0.867851 0.142383
0.343616 0.867178 0.141706
0.403713 0.866511 0.141035
0.463809 0.865849 0.140370
0.523656 0.865191 0.139710
0.583009 0.864537 0.139054
0.641621 0.863887 0.138403
0.699249 0.863239 0.137755
0.755652 0.862595 0.137111
0.810592 0.861953 0.136469
0.863831 0.861314 0.135831
0.915138 0.860677 0.135195
0.000000 0.926125 0.143580
0.048757 0.925402 0.142820
0.105576 0.924710 0.142095
0.163304 0.924036 0.141388
0.221911 0.923374 0.140694
0.281230 0.922720 0.140010
0.341042 0.922072 0.139334
0.401111 0.921431 0.138664
0.461192 0.920794 0.138000
0.521038 0.920162 0.137341
0.580401 0.919533 0.136686
0.639037 0.918908 0.136036
0.696701 0.918286 0.135389
0.753152 0.917666 0.134745
0.808152 0.917049 0.134105
0.861464 0.916434 0.133467
0.912854 0.915821 0.132833
0.000000 0.978445 0.141208
0.046549 0.977756 0.140449
0.103263 0.977097 0.139725
0.160904 0.976454 0.139019
0.219440 0.975822 0.138326
0.278702 0.975199 0.137643
0.338471 0.974582 0.136967
0.398512 0.973970 0.136299
0.458578 0.973363 0.135636
0.518421 0.972760 0.134977
0.577795 0.972160 0.134324
0.636454 0.971564 0.133674
0.694154 0.970970 0.133028
0.750653 0.970378 0.132386
0.805712 0.969789 0.131746
0.859095 0.969202 0.131110
0.910569 0.968617 0.130476
0.024295 0.031054 0.245332
0.082627 0.030358 0.244532
0.140952 0.029694 0.243769
0.199923 0.029048 0.243026
0.259536 0.028413 0.242296
0.319636 0.027787 0.241576
0.380016 0.027169 0.240864
0.440446 0.026556 0.240159
0.500688 0.025949 0.239460
0.560499 0.025347 0.238766
0.619635 0.024749 0.238076
0.677854 0.024154 0.237391
0.734917 0.023563 0.236710
0.790583 0.022976 0.236032
0.844616 0.022391 0.235357
0.896783 0.021809 0.234685
0.946851 0.021230 0.234016
