assets/luts/nile_indigo.cube
# Индиго над рекой — самая ночная из семьи
TITLE "nile_indigo"
LUT_3D_SIZE 9
DOMAIN_MIN 0.0 0.0 0.0
DOMAIN_MAX 1.0 1.0 1.0
0.024986 0.031750 0.060021
0.141711 0.030389 0.058624
0.260339 0.029107 0.057308
0.380845 0.027861 0.056029
0.501525 0.026641 0.054776
0.620464 0.025440 0.053542
0.735721 0.024254 0.052323
0.845381 0.023080 0.051118
0.947561 0.021918 0.049924
0.020518 0.143766 0.055401
0.136802 0.142280 0.054010
0.255138 0.140879 0.052699
0.375475 0.139519 0.051426
0.496100 0.138185 0.050178
0.615090 0.136871 0.048949
0.730504 0.135573 0.047735
0.840419 0.134289 0.046535
0.942954 0.133016 0.045346
0.016127 0.262507 0.050861
0.131972 0.260934 0.049475
0.250015 0.259451 0.048169
0.370181 0.258010 0.046901
0.490746 0.256596 0.045658
0.609783 0.255204 0.044434
0.725345 0.253828 0.043226
0.835509 0.252466 0.042031
0.938388 0.251116 0.040847
0.011787 0.385717 0.046369
0.127190 0.384094 0.044989
0.244937 0.382563 0.043688
0.364927 0.381074 0.042426
0.485428 0.379614 0.041188
0.604507 0.378175 0.039969
0.720212 0.376753 0.038766
0.830617 0.375345 0.037576
0.933835 0.373949 0.036397
0.007486 0.510845 0.041916
0.122444 0.509207 0.040542
0.239892 0.507661 0.039247
0.359703 0.506158 0.037989
0.480135 0.504683 0.036757
0.599251 0.503230 0.035543
0.715094 0.501793 0.034345
0.825736 0.500370 0.033160
0.929285 0.498958 0.031986
0.003221 0.635302 0.037497
0.117730 0.633685 0.036129
0.234874 0.632158 0.034840
0.354502 0.630673 0.033587
0.474862 0.629215 0.032360
0.594009 0.627778 0.031152
0.709985 0.626357 0.029959
0.820858 0.624950 0.028779
0.924734 0.623554 0.027610
0.000000 0.756508 0.033110
0.113044 0.754946 0.031748
0.229881 0.753471 0.030463
0.349322 0.752036 0.029217
0.469605 0.750627 0.027995
0.588780 0.749237 0.026792
0.704884 0.747863 0.025604
0.815982 0.746501 0.024429
0.920179 0.745150 0.023265
0.000000 0.871892 0.028752
0.108385 0.870420 0.027395
0.224911 0.869029 0.026117
0.344160 0.867676 0.024875
0.464361 0.866347 0.023659
0.583559 0.865036 0.022461
0.699786 0.863738 0.021278
0.811106 0.862453 0.020109
0.915619 0.861177 0.018950
0.000000 0.978900 0.024421
0.103751 0.977552 0.023071
0.219961 0.976278 0.021798
0.339014 0.975038 0.020562
0.459129 0.973820 0.019350
0.578346 0.972617 0.018158
0.694692 0.971427 0.016981
0.806227 0.970248 0.015816
0.911051 0.969076 0.014663
0.024530 0.031291 0.180068
0.141210 0.029931 0.178552
0.259809 0.028649 0.177122
0.380298 0.027404 0.175732
0.500973 0.026184 0.174370
0.619917 0.024984 0.173028
0.735190 0.023798 0.171703
0.844876 0.022625 0.170391
0.947093 0.021464 0.169091
0.020064 0.143265 0.175050
0.136303 0.141779 0.173538
0.254609 0.140379 0.172111
0.374929 0.139019 0.170726
0.495548 0.137685 0.169367
0.614543 0.136372 0.168029
0.729972 0.135074 0.166707
0.839913 0.133791 0.165399
0.942483 0.132519 0.164103
0.015675 0.261976 0.170111
0.131475 0.260404 0.168602
0.249487 0.258921 0.167180
0.369635 0.257480 0.165798
0.490193 0.256067 0.164443
0.609235 0.254675 0.163108
0.724812 0.253299 0.161790
0.835001 0.251937 0.160486
0.937916 0.250588 0.159193
0.011337 0.385170 0.165218
0.126694 0.383547 0.163713
0.244410 0.382016 0.162294
0.364382 0.380527 0.160916
0.484876 0.379067 0.159565
0.603958 0.377629 0.158234
0.719678 0.376207 0.156920
0.830109 0.374799 0.155619
0.933361 0.373403 0.154330
0.007038 0.510292 0.160360
0.121950 0.508654 0.158860
0.239366 0.507109 0.157445
0.359158 0.505606 0.156071
0.479583 0.504131 0.154723
0.598702 0.502677 0.153396
0.714559 0.501240 0.152085
0.825226 0.499817 0.150788
0.928809 0.498406 0.149503
0.002775 0.634757 0.155533
0.117237 0.633139 0.154037
0.234349 0.631612 0.152626
0.353958 0.630127 0.151256
0.474310 0.628669 0.149912
0.593460 0.627232 0.148589
0.709450 0.625811 0.147282
0.820347 0.624403 0.145988
0.924257 0.623007 0.144707
0.000000 0.755981 0.150733
0.112553 0.754419 0.149242
0.229358 0.752943 0.147835
0.348778 0.751508 0.146468
0.469053 0.750099 0.145129
0.588230 0.748709 0.143809
0.704347 0.747334 0.142506
0.815470 0.745972 0.141216
0.919700 0.744621 0.139938
0.000000 0.871396 0.145959
0.107896 0.869923 0.144471
0.224388 0.868532 0.143069
0.343616 0.867178 0.141706
0.463809 0.865849 0.140370
0.583009 0.864537 0.139054
0.699249 0.863239 0.137755
0.810592 0.861953 0.136469
0.915138 0.860677 0.135195
0.000000 0.978445 0.141208
0.103263 0.977097 0.139725
0.219440 0.975822 0.138326
0.338471 0.974582 0.136967
0.458578 0.973363 0.135636
0.577795 0.972160 0.134324
0.694154 0.970970 0.133028
0.805712 0.969789 0.131746
0.910569 0.968617 0.130476
0.024057 0.030815 0.313202
0.140691 0.029455 0.311604
0.259259 0.028174 0.310097
0.379730 0.026930 0.308632
0.500399 0.025711 0.307195
0.619349 0.024511 0.305779
0.734639 0.023325 0.304381
0.844353 0.022153 0.302996
0.946607 0.020992 0.301623
0.019593 0.142745 0.307913
0.135786 0.141260 0.306317
0.254061 0.139860 0.304812
0.374362 0.138500 0.303349
0.494974 0.137167 0.301915
0.613975 0.135854 0.300501
0.729420 0.134557 0.299105
0.839388 0.133274 0.297722
0.941995 0.132002 0.296351
0.015207 0.261426 0.302700
0.130959 0.259854 0.301107
0.248940 0.258371 0.299604
0.369068 0.256931 0.298144
0.489620 0.255518 0.296711
0.608667 0.254126 0.295300
0.724259 0.252750 0.293905
0.834475 0.251389 0.292525
0.937426 0.250040 0.291156
0.010871 0.384602 0.297530
0.126179 0.382979 0.295939
0.243863 0.381448 0.294439
0.363816 0.379960 0.292981
0.484303 0.378500 0.291551
0.603389 0.377061 0.290141
0.719124 0.375640 0.288749
0.829581 0.374232 0.287371
0.932869 0.372836 0.286005
0.006574 0.509719 0.292392
0.121437 0.508081 0.290804
0.238820 0.506535 0.289306
0.358592 0.505032 0.287850
0.479010 0.503558 0.286422
0.598133 0.502104 0.285015
0.714004 0.500667 0.283625
0.824696 0.499244 0.282249
0.928315 0.497833 0.280885
0.002313 0.634191 0.287280
0.116726 0.632573 0.285694
0.233805 0.631046 0.284198
0.353393 0.629560 0.282745
0.473737 0.628103 0.281319
0.592891 0.626665 0.279915
0.708894 0.625244 0.278527
0.819816 0.623836 0.277153
0.923761 0.622440 0.275791
0.000000 0.755435 0.282191
0.112044 0.753872 0.280608
0.228814 0.752396 0.279114
0.348214 0.750960 0.277663
0.468480 0.749551 0.276240
0.587660 0.748161 0.274838
0.703791 0.746786 0.273452
0.814937 0.745424 0.272081
0.919203 0.744072 0.270721
0.000000 0.870881 0.277122
0.107388 0.869408 0.275541
0.223846 0.868016 0.274050
0.343053 0.866662 0.272602
0.463236 0.865332 0.271181
0.582439 0.864020 0.269781
0.698692 0.862722 0.268398
0.810058 0.861435 0.267029
0.914638 0.860158 0.265672
0.000000 0.977974 0.272072
0.102757 0.976624 0.270494
0.218899 0.975349 0.269006
0.337909 0.974108 0.267560
0.458005 0.972889 0.266141
0.577225 0.971685 0.264744
0.693596 0.970494 0.263363
0.805177 0.969314 0.261997
0.910067 0.968141 0.260642
0.023574 0.030328 0.454429
0.140161 0.028970 0.452794
0.258697 0.027689 0.451250
0.379150 0.026446 0.449750
0.499814 0.025227 0.448278
0.618769 0.024027 0.446827
0.734076 0.022843 0.445393
0.843817 0.021671 0.443973
0.946110 0.020511 0.442565
0.019112 0.142214 0.449013
0.135257 0.140730 0.447378
0.253500 0.139330 0.445835
0.373783 0.137971 0.444335
0.494389 0.136638 0.442864
0.613395 0.135325 0.441414
0.728856 0.134029 0.439980
0.838851 0.132746 0.438561
0.941496 0.131475 0.437153
0.014728 0.260864 0.443669
0.130432 0.259292 0.442035
0.248380 0.257810 0.440493
0.368490 0.256369 0.438994
0.489035 0.254957 0.437523
0.608086 0.253565 0.436073
0.723694 0.252190 0.434640
0.833936 0.250829 0.433221
0.936925 0.249480 0.431815
0.010394 0.384022 0.438364
0.125654 0.382399 0.436730
0.243305 0.380868 0.435189
0.363238 0.379380 0.433690
0.483717 0.377920 0.432220
0.602808 0.376482 0.430771
0.718558 0.375060 0.429339
0.829041 0.373653 0.427921
0.932366 0.372257 0.426515
0.006100 0.509134 0.433085
0.120913 0.507496 0.431452
0.238263 0.505950 0.429911
0.358015 0.504447 0.428414
0.478425 0.502972 0.426944
0.597551 0.501518 0.425496
0.713437 0.500081 0.424065
0.824155 0.498658 0.422647
0.927811 0.497247 0.421242
0.001841 0.633613 0.427827
0.116204 0.631994 0.426195
0.233249 0.630467 0.424655
0.352816 0.628981 0.423158
0.473152 0.627524 0.421690
0.592308 0.626086 0.420242
0.708327 0.624665 0.418812
0.819273 0.623257 0.417395
0.923254 0.621860 0.415991
0.000000 0.754876 0.422587
0.111523 0.753313 0.420956
0.228259 0.751837 0.419417
0.347638 0.750401 0.417921
0.467894 0.748991 0.416453
0.587077 0.747600 0.415007
0.703222 0.746225 0.413577
0.814393 0.744863 0.412161
0.918694 0.743511 0.410758
0.000000 0.870354 0.417363
0.106869 0.868880 0.415733
0.223292 0.867488 0.414195
0.342477 0.866133 0.412699
0.462651 0.864803 0.411232
0.581856 0.863491 0.409787
0.698122 0.862192 0.408358
0.809513 0.860905 0.406943
0.914128 0.859628 0.405541
0.000000 0.977491 0.412152
0.102240 0.976142 0.410523
0.218346 0.974866 0.408986
0.337334 0.973624 0.407492
0.457420 0.972404 0.406026
0.576641 0.971200 0.404581
0.693025 0.970009 0.403153
0.804630 0.968827 0.401740
0.909555 0.967654 0.400338
0.023084 0.029835 0.599141
0.139622 0.028477 0.597513
0.258127 0.027197 0.595977
0.378562 0.025954 0.594484
0.499219 0.024736 0.593018
0.618180 0.023537 0.591573
0.733504 0.022353 0.590144
0.843274 0.021182 0.588729
0.945605 0.020022 0.587325
0.018624 0.141675 0.593750
0.134720 0.140191 0.592122
0.252931 0.138792 0.590585
0.373194 0.137433 0.589090
0.493794 0.136101 0.587624
0.612805 0.134789 0.586177
0.728283 0.133493 0.584748
0.838306 0.132210 0.583332
0.940989 0.130939 0.581927
0.014243 0.260293 0.588427
0.129897 0.258722 0.586797
0.247812 0.257240 0.585259
0.367902 0.255800 0.583764
0.488440 0.254387 0.582296
0.607496 0.252996 0.580849
0.723120 0.251621 0.579418
0.833389 0.250260 0.578001
0.936416 0.248912 0.576596
0.009911 0.383432 0.583135
0.125120 0.381810 0.581505
0.242738 0.380279 0.579966
0.362650 0.378791 0.578469
0.483122 0.377332 0.577001
0.602218 0.375893 0.575553
0.717983 0.374472 0.574121
0.828492 0.373064 0.572704
0.931855 0.371669 0.571298
0.005619 0.508539 0.577865
0.120381 0.506901 0.576234
0.237697 0.505355 0.574694
0.357428 0.503852 0.573196
0.477830 0.502377 0.571727
0.596960 0.500924 0.570278
0.712862 0.499487 0.568846
0.823605 0.498064 0.567428
0.927298 0.496652 0.566021
0.001362 0.633025 0.572610
0.115674 0.631407 0.570978
0.232684 0.629879 0.569437
0.352230 0.628393 0.567939
0.472557 0.626935 0.566469
0.591717 0.625498 0.565020
0.707750 0.624076 0.563587
0.818722 0.622668 0.562168
0.922739 0.621271 0.560760
0.000000 0.754308 0.567368
0.110995 0.752745 0.565735
0.227696 0.751268 0.564193
0.347052 0.749832 0.562695
0.467300 0.748422 0.561224
0.586486 0.747031 0.559774
0.702644 0.745656 0.558340
0.813841 0.744293 0.556920
0.918177 0.742941 0.555512
0.000000 0.869819 0.562135
0.106343 0.868345 0.560502
0.222730 0.866952 0.558959
0.341893 0.865597 0.557460
0.462057 0.864266 0.555989
0.581263 0.862953 0.554538
0.697544 0.861654 0.553104
0.808959 0.860367 0.551684
0.913609 0.859089 0.550275
0.000000 0.977001 0.556911
0.101715 0.975651 0.555277
0.217785 0.974375 0.553734
0.336750 0.973132 0.552234
0.456826 0.971912 0.550762
0.576049 0.970707 0.549311
0.692446 0.969515 0.547876
0.804075 0.968333 0.546455
0.909035 0.967159 0.545046
0.022588 0.029335 0.742672
0.139077 0.027978 0.741102
0.257550 0.026699 0.739619
0.377966 0.025456 0.738176
0.498617 0.024239 0.736760
0.617584 0.023041 0.735364
0.732925 0.021857 0.733982
0.842723 0.020687 0.732614
0.945093 0.019528 0.731256
0.018131 0.141129 0.737468
0.134177 0.139646 0.735894
0.252355 0.138247 0.734408
0.372599 0.136889 0.732963
0.493192 0.135557 0.731544
0.612208 0.134245 0.730145
0.727703 0.132950 0.728762
0.837754 0.131668 0.727391
0.940476 0.130398 0.726030
0.013751 0.259715 0.732321
0.129355 0.258144 0.730745
0.247237 0.256663 0.729257
0.367307 0.255223 0.727809
0.487838 0.253811 0.726387
0.606898 0.252420 0.724986
0.722539 0.251045 0.723600
0.832836 0.249685 0.722226
0.935900 0.248337 0.720864
0.009422 0.382836 0.727200
0.124581 0.381214 0.725621
0.242164 0.379683 0.724130
0.362056 0.378195 0.722680
0.482520 0.376736 0.721256
0.601620 0.375298 0.719852
0.717401 0.373876 0.718464
0.827937 0.372469 0.717088
0.931337 0.371074 0.715723
0.005132 0.507937 0.722094
0.119843 0.506299 0.720512
0.237124 0.504753 0.719019
0.356835 0.503250 0.717566
0.477228 0.501775 0.716140
0.596362 0.500322 0.714734
0.712279 0.498885 0.713343
0.823048 0.497462 0.711965
0.926778 0.496050 0.710598
0.000878 0.632430 0.716997
0.115138 0.630812 0.715413
0.232113 0.629284 0.713917
0.351637 0.627798 0.712462
0.471955 0.626340 0.711033
0.591118 0.624902 0.709625
0.707166 0.623481 0.708232
0.818164 0.622072 0.706852
0.922218 0.620675 0.705482
0.000000 0.753734 0.711907
0.110461 0.752170 0.710320
0.227125 0.750693 0.708821
0.346460 0.749256 0.707364
0.466698 0.747846 0.705933
0.585887 0.746455 0.704522
0.702060 0.745079 0.703127
0.813281 0.743716 0.701745
0.917654 0.742364 0.700374
0.000000 0.869277 0.706820
0.105810 0.867803 0.705231
0.222161 0.866409 0.703730
0.341301 0.865054 0.702270
0.461456 0.863723 0.700837
0.580664 0.862409 0.699424
0.696958 0.861110 0.698027
0.808398 0.859822 0.696643
0.913084 0.858544 0.695269
0.000000 0.976505 0.701736
0.101184 0.975154 0.700144
0.217217 0.973877 0.698641
0.336159 0.972634 0.697179
0.456225 0.971413 0.695744
0.575449 0.970208 0.694329
0.691859 0.969015 0.692930
0.803513 0.967832 0.691544
0.908508 0.966658 0.690168
0.022088 0.028831 0.880241
0.138527 0.027475 0.878777
0.256967 0.026196 0.877393
0.377364 0.024954 0.876048
0.498009 0.023738 0.874726
0.616982 0.022540 0.873422
0.732341 0.021357 0.872131
0.842167 0.020187 0.870853
0.944577 0.019029 0.869583
0.017632 0.140578 0.875386
0.133629 0.139096 0.873917
0.251773 0.137698 0.872529
0.371998 0.136340 0.871179
0.492584 0.135008 0.869853
0.611605 0.133697 0.868545
0.727117 0.132402 0.867251
0.837196 0.131121 0.865968
0.939957 0.129851 0.864695
0.013255 0.259132 0.870579
0.128809 0.257562 0.869106
0.246657 0.256080 0.867714
0.366707 0.254641 0.866359
0.487230 0.253229 0.865029
0.606295 0.251838 0.863717
0.721952 0.250464 0.862418
0.832276 0.249104 0.861132
0.935379 0.247756 0.859854
0.008928 0.382234 0.865790
0.124036 0.380612 0.864312
0.241585 0.379081 0.862915
0.361456 0.377593 0.861557
0.481913 0.376134 0.860222
0.601016 0.374696 0.858906
0.716813 0.373275 0.857604
0.827376 0.371868 0.856313
0.930815 0.370473 0.855032
0.004641 0.507329 0.861008
0.119300 0.505691 0.859525
0.236546 0.504145 0.858125
0.356236 0.502642 0.856762
0.476620 0.501167 0.855424
0.595758 0.499714 0.854104
0.711690 0.498277 0.852798
0.822486 0.496854 0.851503
0.926254 0.495442 0.850219
0.000389 0.631830 0.856228
0.114596 0.630211 0.854741
0.231536 0.628683 0.853337
0.351039 0.627197 0.851970
0.471348 0.625739 0.850628
0.590514 0.624301 0.849304
0.706576 0.622879 0.847994
0.817600 0.621471 0.846696
0.921691 0.620074 0.845408
0.000000 0.753153 0.851449
0.109921 0.751589 0.849957
0.226550 0.750112 0.848549
0.345862 0.748675 0.847178
0.466091 0.747264 0.845832
0.585282 0.745873 0.844504
0.701469 0.744497 0.843191
0.812716 0.743134 0.841889
0.917125 0.741781 0.840597
0.000000 0.868730 0.846667
0.105272 0.867255 0.845171
0.221586 0.865861 0.843758
0.340704 0.864505 0.842384
0.460848 0.863173 0.841034
0.580059 0.861859 0.839703
0.696366 0.860560 0.838386
0.807831 0.859271 0.837080
0.912554 0.857993 0.835785
0.000000 0.976004 0.841881
0.100648 0.974652 0.840381
0.216644 0.973374 0.838965
0.335562 0.972131 0.837586
0.455618 0.970909 0.836233
0.574844 0.969703 0.834898
0.691267 0.968510 0.833577
0.802945 0.967327 0.832269
0.907975 0.966152 0.830970
0.021583 0.028323 1.000000
0.137973 0.026967 1.000000
0.256380 0.025689 1.000000
0.376757 0.024448 1.000000
0.497396 0.023232 1.000000
0.616374 0.022035 1.000000
0.731751 0.020853 0.999684
0.841606 0.019684 0.998539
0.944056 0.018526 0.997402
0.017130 0.140023 1.000000
0.133076 0.138541 1.000000
0.251187 0.137144 1.000000
0.371392 0.135786 0.998832
0.491971 0.134455 0.997644
0.610998 0.133144 0.996472
0.726526 0.131850 0.995312
0.836633 0.130569 0.994161
0.939434 0.129299 0.993019
0.012755 0.258544 0.998294
0.128258 0.256974 0.996974
0.246071 0.255493 0.995727
0.366101 0.254054 0.994512
0.486617 0.252642 0.993319
0.605687 0.251252 0.992141
0.721360 0.249878 0.990975
0.831712 0.248518 0.989819
0.934854 0.247170 0.988671
0.008430 0.381627 0.994001
0.123487 0.380005 0.992675
0.241001 0.378474 0.991421
0.360851 0.376987 0.990201
0.481300 0.375528 0.989002
0.600407 0.374090 0.987819
0.716220 0.372669 0.986647
0.826811 0.371262 0.985486
0.930287 0.369867 0.984333
0.004145 0.506716 0.989708
0.118753 0.505078 0.988375
0.235963 0.503532 0.987116
0.355631 0.502029 0.985890
0.476007 0.500554 0.984685
0.595148 0.499100 0.983496
0.711096 0.497663 0.982319
0.821919 0.496240 0.981153
0.925724 0.494829 0.979994
0.000000 0.631224 0.985409
0.114051 0.629605 0.984070
0.230954 0.628077 0.982805
0.350435 0.626591 0.981574
0.470735 0.625132 0.980363
0.589904 0.623694 0.979169
0.705981 0.622272 0.977987
0.817032 0.620864 0.976815
0.921160 0.619466 0.975652
0.000000 0.752568 0.981103
0.109377 0.751003 0.979759
0.225969 0.749526 0.978488
0.345259 0.748089 0.977250
0.465478 0.746678 0.976035
0.584672 0.745286 0.974835
0.700873 0.743910 0.973648
0.812146 0.742546 0.972471
0.916592 0.741193 0.971302
0.000000 0.868178 0.976788
0.104730 0.866702 0.975438
0.221007 0.865308 0.974161
0.340102 0.863952 0.972918
0.460236 0.862619 0.971697
0.579448 0.861305 0.970493
0.695770 0.860005 0.969300
0.807260 0.858716 0.968118
0.912019 0.857437 0.966944
0.000000 0.975498 0.972463
0.100108 0.974146 0.971106
0.216066 0.972867 0.969824
0.334961 0.971623 0.968576
0.455005 0.970401 0.967350
0.574233 0.969194 0.966140
0.690669 0.968000 0.964943
0.802372 0.966816 0.963755
0.907438 0.965641 0.962576
0.021418 0.028157 1.000000
0.137792 0.026801 1.000000
0.256188 0.025524 1.000000
0.376559 0.024283 1.000000
0.497195 0.023067 1.000000
0.616176 0.021870 1.000000
0.731558 0.020688 1.000000
0.841422 0.019519 1.000000
0.943885 0.018361 1.000000
0.016966 0.139842 1.000000
0.132895 0.138360 1.000000
0.250995 0.136963 1.000000
0.371194 0.135605 1.000000
0.491770 0.134274 1.000000
0.610799 0.132964 1.000000
0.726333 0.131669 1.000000
0.836449 0.130388 1.000000
0.939263 0.129119 1.000000
0.012592 0.258352 1.000000
0.128078 0.256782 1.000000
0.245880 0.255301 1.000000
0.365903 0.253862 1.000000
0.486416 0.252450 1.000000
0.605488 0.251060 1.000000
0.721166 0.249686 1.000000
0.831528 0.248327 1.000000
0.934682 0.246979 1.000000
0.008268 0.381428 1.000000
0.123307 0.379806 1.000000
0.240810 0.378276 1.000000
0.360654 0.376788 1.000000
0.481099 0.375329 1.000000
0.600208 0.373891 1.000000
0.716026 0.372471 1.000000
0.826626 0.371064 1.000000
0.930115 0.369669 1.000000
0.003984 0.506515 1.000000
0.118574 0.504877 1.000000
0.235773 0.503331 1.000000
0.355434 0.501828 1.000000
0.475807 0.500354 1.000000
0.594949 0.498900 1.000000
0.710902 0.497463 1.000000
0.821733 0.496040 1.000000
0.925551 0.494629 1.000000
0.000000 0.631026 1.000000
0.113872 0.629407 1.000000
0.230764 0.627879 1.000000
0.350238 0.626393 1.000000
0.470534 0.624934 1.000000
0.589705 0.623496 1.000000
0.705787 0.622074 1.000000
0.816846 0.620665 1.000000
0.920986 0.619268 1.000000
0.000000 0.752377 1.000000
0.109199 0.750812 1.000000
0.225779 0.749334 1.000000
0.345062 0.747897 1.000000
0.465278 0.746486 1.000000
0.584472 0.745094 1.000000
0.700678 0.743718 1.000000
0.811960 0.742354 1.000000
0.916418 0.741001 1.000000
0.000000 0.867998 1.000000
0.104553 0.866522 1.000000
0.220818 0.865127 1.000000
0.339905 0.863771 1.000000
0.460035 0.862438 1.000000
0.579249 0.861124 1.000000
0.695575 0.859823 1.000000
0.807073 0.858534 1.000000
0.911844 0.857255 1.000000
0.000000 0.975333 1.000000
0.099931 0.973980 1.000000
0.215877 0.972701 1.000000
0.334764 0.971457 1.000000
0.454805 0.970234 1.000000
0.574033 0.969028 1.000000
0.690474 0.967834 1.000000
0.802185 0.966650 1.000000
0.907263 0.965474 1.000000
