assets/luts/starlit_lapis.cube
# Звёздный лазурит — самый глубокий синий
TITLE "starlit_lapis"
LUT_3D_SIZE 9
DOMAIN_MIN 0.0 0.0 0.0
DOMAIN_MAX 1.0 1.0 1.0
0.018592 0.026284 0.068325
0.141253 0.023172 0.065068
0.266116 0.020287 0.062046
0.393108 0.017508 0.059134
0.519968 0.014800 0.056294
0.644229 0.012146 0.053511
0.763434 0.009537 0.050773
0.875180 0.006966 0.048074
0.977129 0.004429 0.045409
0.008414 0.139957 0.057561
0.129797 0.136497 0.054339
0.253841 0.133285 0.051350
0.380378 0.130187 0.048470
0.507113 0.127164 0.045662
0.631560 0.124200 0.042910
0.751249 0.121281 0.040204
0.863767 0.118403 0.037536
0.966767 0.115559 0.034902
0.000000 0.260857 0.047157
0.118697 0.257158 0.043970
0.241908 0.253721 0.041015
0.367968 0.250403 0.038167
0.494550 0.247163 0.035391
0.619149 0.243982 0.032670
0.739280 0.240849 0.029995
0.852523 0.237755 0.027358
0.956521 0.234696 0.024755
0.000000 0.386576 0.036985
0.107819 0.382739 0.033834
0.230173 0.379172 0.030913
0.355731 0.375725 0.028098
0.482132 0.372357 0.025354
0.606852 0.369048 0.022666
0.727392 0.365786 0.020022
0.841321 0.362564 0.017417
0.946277 0.359375 0.014845
0.000000 0.514174 0.027008
0.097120 0.510298 0.023894
0.218594 0.506692 0.021006
0.343623 0.503205 0.018224
0.469816 0.499795 0.015514
0.594625 0.496444 0.012858
0.715542 0.493137 0.010246
0.830125 0.489868 0.007673
0.936003 0.486631 0.005134
0.000000 0.640672 0.017206
0.086582 0.636853 0.014129
0.207149 0.633297 0.011276
0.331624 0.629857 0.008528
0.457579 0.626490 0.005851
0.582449 0.623178 0.003228
0.703713 0.619909 0.000649
0.818917 0.616675 0.000000
0.925684 0.613471 0.000000
0.000000 0.763107 0.007568
0.076192 0.759440 0.004529
0.195827 0.756023 0.001712
0.319720 0.752714 0.000000
0.445410 0.749474 0.000000
0.570313 0.746284 0.000000
0.691893 0.743133 0.000000
0.807688 0.740014 0.000000
0.915313 0.736921 0.000000
0.000000 0.878547 0.000000
0.065945 0.875125 0.000000
0.184621 0.871934 0.000000
0.307905 0.868840 0.000000
0.433302 0.865809 0.000000
0.558209 0.862822 0.000000
0.680077 0.859869 0.000000
0.796433 0.856944 0.000000
0.904885 0.854041 0.000000
0.000000 0.984090 0.000000
0.055835 0.981006 0.000000
0.173525 0.978126 0.000000
0.296174 0.975332 0.000000
0.421251 0.972590 0.000000
0.546135 0.969887 0.000000
0.668261 0.967211 0.000000
0.785150 0.964558 0.000000
0.894398 0.961922 0.000000
0.017560 0.025242 0.196844
0.140093 0.022134 0.193256
0.264876 0.019253 0.189925
0.391823 0.016477 0.186710
0.518672 0.013772 0.183573
0.642953 0.011122 0.180493
0.762208 0.008516 0.177462
0.874034 0.005949 0.174470
0.976090 0.003415 0.171512
0.007395 0.138799 0.184972
0.128647 0.135341 0.181410
0.252607 0.132132 0.178101
0.379096 0.129037 0.174908
0.505817 0.126017 0.171793
0.630281 0.123055 0.168736
0.750017 0.120139 0.165726
0.862611 0.117263 0.162755
0.965715 0.114422 0.159820
0.000000 0.259619 0.173452
0.117557 0.255922 0.169913
0.240680 0.252487 0.166628
0.366689 0.249170 0.163458
0.493254 0.245932 0.160365
0.617866 0.242753 0.157330
0.738042 0.239621 0.154342
0.851357 0.236530 0.151394
0.955457 0.233472 0.148480
0.000000 0.385292 0.162142
0.106689 0.381456 0.158629
0.228952 0.377890 0.155368
0.354455 0.374444 0.152221
0.480836 0.371077 0.149151
0.605566 0.367769 0.146138
0.726147 0.364508 0.143173
0.840147 0.361286 0.140247
0.945201 0.358098 0.137356
0.000000 0.512877 0.151002
0.096000 0.509002 0.147515
0.217379 0.505395 0.144278
0.342351 0.501908 0.141155
0.468520 0.498499 0.138108
0.593337 0.495147 0.135119
0.714292 0.491841 0.132177
0.828942 0.488572 0.129275
0.934916 0.485335 0.126407
0.000000 0.639395 0.140010
0.085472 0.635575 0.136550
0.205941 0.632018 0.133338
0.330356 0.628577 0.130240
0.456284 0.625209 0.127217
0.581159 0.621897 0.124252
0.702458 0.618627 0.121334
0.817726 0.615392 0.118455
0.924586 0.612187 0.115611
0.000000 0.761881 0.129156
0.075093 0.758212 0.125723
0.194627 0.754793 0.122537
0.318456 0.751482 0.119464
0.444116 0.748240 0.116466
0.569021 0.745049 0.113526
0.690633 0.741896 0.110632
0.806490 0.738776 0.107778
0.914204 0.735681 0.104958
0.000000 0.877404 0.118432
0.064856 0.873979 0.115028
0.183428 0.870784 0.111868
0.306645 0.867688 0.108820
0.432010 0.864654 0.105848
0.556916 0.861665 0.102933
0.678813 0.858709 0.100065
0.795227 0.855782 0.097235
0.903765 0.852877 0.094441
0.000000 0.983060 0.107834
0.054758 0.979972 0.104459
0.172341 0.977088 0.101326
0.294919 0.974290 0.098305
0.419961 0.971546 0.095359
0.544840 0.968838 0.092470
0.666993 0.966159 0.089627
0.783936 0.963503 0.086824
0.893268 0.960864 0.084055
0.016482 0.024153 0.341781
0.138882 0.021050 0.337982
0.263579 0.018172 0.334450
0.390480 0.015400 0.331038
0.517317 0.012699 0.327706
0.641619 0.010052 0.324432
0.760926 0.007451 0.321206
0.872834 0.004887 0.318019
0.975002 0.002357 0.314867
0.006330 0.137589 0.329193
0.127446 0.134134 0.325406
0.251317 0.130928 0.321887
0.377755 0.127835 0.318487
0.504461 0.124818 0.315166
0.628943 0.121858 0.311905
0.748727 0.118946 0.308691
0.861401 0.116072 0.305516
0.964614 0.113234 0.302376
0.000000 0.258325 0.316935
0.116366 0.254630 0.313161
0.239396 0.251197 0.309654
0.365352 0.247882 0.306267
0.491898 0.244646 0.302959
0.616525 0.241469 0.299710
0.736746 0.238339 0.296508
0.850138 0.235249 0.293346
0.954343 0.232193 0.290219
0.000000 0.383950 0.304860
0.105508 0.380115 0.301101
0.227675 0.376550 0.297608
0.353122 0.373105 0.294234
0.479481 0.369739 0.290939
0.604222 0.366432 0.287703
0.724846 0.363172 0.284514
0.838918 0.359951 0.281366
0.944075 0.356764 0.278251
0.000000 0.511522 0.292926
0.094830 0.507646 0.289182
0.216110 0.504040 0.285702
0.341022 0.500553 0.282342
0.467165 0.497143 0.279061
0.591990 0.493791 0.275839
0.712985 0.490485 0.272664
0.827705 0.487216 0.269530
0.933777 0.483980 0.266429
0.000000 0.638059 0.281110
0.084313 0.634238 0.277382
0.204680 0.630681 0.273917
0.329030 0.627238 0.270572
0.454930 0.623870 0.267305
0.579810 0.620556 0.264098
0.701145 0.617286 0.260938
0.816480 0.614050 0.257817
0.923436 0.610845 0.254731
0.000000 0.760598 0.269401
0.073945 0.756927 0.265690
0.193373 0.753506 0.262241
0.317135 0.750193 0.258911
0.442764 0.746950 0.255659
0.567670 0.743757 0.252467
0.689315 0.740603 0.249322
0.805236 0.737480 0.246217
0.913043 0.734385 0.243146
0.000000 0.876207 0.257792
0.063720 0.872779 0.254098
0.182182 0.869581 0.250665
0.305329 0.866482 0.247351
0.430659 0.863446 0.244116
0.555564 0.860454 0.240939
0.677490 0.857496 0.237810
0.793966 0.854566 0.234721
0.902594 0.851658 0.231666
0.000000 0.981981 0.246278
0.053633 0.978889 0.242602
0.171103 0.976002 0.239187
0.293608 0.973200 0.235889
0.418612 0.970452 0.232670
0.543487 0.967741 0.229510
0.665666 0.965059 0.226398
0.782667 0.962399 0.223325
0.892087 0.959757 0.220287
0.015376 0.023037 0.496404
0.137639 0.019938 0.492528
0.262248 0.017064 0.488921
0.389100 0.014296 0.485435
0.515925 0.011599 0.482026
0.640248 0.008956 0.478675
0.759608 0.006358 0.475370
0.871600 0.003798 0.472103
0.973883 0.001271 0.468868
0.005239 0.136347 0.483548
0.126214 0.132895 0.479673
0.249993 0.129692 0.476067
0.376379 0.126602 0.472582
0.503069 0.123588 0.469175
0.627568 0.120631 0.465826
0.747402 0.117721 0.462522
0.860157 0.114850 0.459257
0.963481 0.112014 0.456024
0.000000 0.256997 0.470990
0.115144 0.253304 0.467116
0.238079 0.249873 0.463513
0.363979 0.246560 0.460030
0.490506 0.243325 0.456625
0.615147 0.240150 0.453278
0.735415 0.237022 0.449978
0.848884 0.233934 0.446715
0.953197 0.230880 0.443486
0.000000 0.382572 0.458582
0.104296 0.378739 0.454712
0.226365 0.375174 0.451111
0.351753 0.371730 0.447631
0.478089 0.368365 0.444229
0.602841 0.365058 0.440886
0.723508 0.361799 0.437588
0.837655 0.358580 0.434330
0.942916 0.355393 0.431104
0.000000 0.510130 0.446281
0.093630 0.506254 0.442414
0.214807 0.502647 0.438818
0.339657 0.499160 0.435341
0.465774 0.495751 0.431943
0.590607 0.492399 0.428604
0.711641 0.489093 0.425310
0.826433 0.485824 0.422056
0.932607 0.482587 0.418834
0.000000 0.636687 0.434065
0.083123 0.632865 0.430203
0.203385 0.629306 0.426611
0.327670 0.625863 0.423139
0.453540 0.622494 0.419745
0.578425 0.619179 0.416410
0.699796 0.615908 0.413122
0.815200 0.612672 0.409873
0.922254 0.609465 0.406657
0.000000 0.759280 0.421923
0.072767 0.755607 0.418066
0.192086 0.752184 0.414479
0.315779 0.748869 0.411012
0.441375 0.745624 0.407624
0.566283 0.742429 0.404295
0.687961 0.739273 0.401012
0.803947 0.736149 0.397769
0.911850 0.733052 0.394558
0.000000 0.874976 0.409847
0.062554 0.871545 0.405996
0.180904 0.868345 0.402415
0.303978 0.865243 0.398954
0.429272 0.862204 0.395572
0.554174 0.859209 0.392249
0.676132 0.856249 0.388973
0.792669 0.853316 0.385736
0.901389 0.850406 0.382532
0.000000 0.980872 0.397833
0.052479 0.977776 0.393989
0.169833 0.974884 0.390414
0.292262 0.972079 0.386961
0.417227 0.969327 0.383586
0.542096 0.966613 0.380269
0.664303 0.963927 0.377000
0.781363 0.961263 0.373770
0.890872 0.958618 0.370574
0.014250 0.021901 0.654133
0.136372 0.018805 0.650327
0.260892 0.015936 0.646781
0.387695 0.013172 0.643351
0.514506 0.010478 0.639994
0.638849 0.007839 0.636692
0.758263 0.005245 0.633431
0.870342 0.002689 0.630206
0.972741 0.000166 0.627010
0.004128 0.135082 0.641493
0.124958 0.131634 0.637675
0.248643 0.128433 0.634120
0.374977 0.125346 0.630680
0.501649 0.122335 0.627314
0.626166 0.119381 0.624003
0.746051 0.116474 0.620734
0.858888 0.113606 0.617501
0.962325 0.110773 0.614297
0.000000 0.255644 0.629107
0.113899 0.251953 0.625279
0.236737 0.248524 0.621715
0.362580 0.245213 0.618266
0.489086 0.241980 0.614892
0.613742 0.238807 0.611573
0.734057 0.235681 0.608297
0.847605 0.232594 0.605057
0.952028 0.229543 0.601846
0.000000 0.381168 0.616832
0.103063 0.377335 0.612995
0.225030 0.373772 0.609423
0.350358 0.370328 0.605967
0.476670 0.366964 0.602586
0.601433 0.363659 0.599260
0.722144 0.360401 0.595978
0.836366 0.357182 0.592731
0.941734 0.353997 0.589514
0.000000 0.508710 0.604625
0.092407 0.504834 0.600781
0.213480 0.501228 0.597201
0.338266 0.497741 0.593739
0.464356 0.494331 0.590351
0.589196 0.490980 0.587019
0.710271 0.487673 0.583731
0.825135 0.484405 0.580479
0.931413 0.481168 0.577257
0.000000 0.635288 0.592467
0.081912 0.631465 0.588616
0.202066 0.627905 0.585030
0.326283 0.624460 0.581561
0.452123 0.621090 0.578169
0.577012 0.617775 0.574832
0.698420 0.614503 0.571539
0.813893 0.611266 0.568282
0.921048 0.608058 0.565056
0.000000 0.757936 0.580346
0.071568 0.754260 0.576488
0.190775 0.750835 0.572897
0.314397 0.747519 0.569424
0.439959 0.744271 0.566026
0.564868 0.741075 0.562685
0.686581 0.737917 0.559388
0.802632 0.734791 0.556127
0.910632 0.731692 0.552897
0.000000 0.873721 0.568256
0.061367 0.870286 0.564393
0.179601 0.867083 0.560797
0.302601 0.863978 0.557319
0.427858 0.860936 0.553918
0.552758 0.857939 0.550573
0.674746 0.854976 0.547272
0.791346 0.852041 0.544008
0.900160 0.849128 0.540776
0.000000 0.979739 0.556192
0.051304 0.976639 0.552324
0.168539 0.973743 0.548725
0.290891 0.970934 0.545244
0.415815 0.968178 0.541839
0.540678 0.965461 0.538491
0.662913 0.962771 0.535188
0.780032 0.960104 0.531922
0.889632 0.957456 0.528687
0.013109 0.020748 0.808140
0.135088 0.017658 0.804556
0.259516 0.014793 0.801214
0.386268 0.012032 0.797978
0.513065 0.009343 0.794808
0.637429 0.006707 0.791686
0.756898 0.004117 0.788601
0.869063 0.001565 0.785547
0.971580 0.000000 0.782517
0.003002 0.133799 0.796223
0.123685 0.130354 0.792616
0.247274 0.127157 0.789253
0.373553 0.124072 0.785995
0.500208 0.121064 0.782805
0.624742 0.118113 0.779664
0.744678 0.115209 0.776561
0.857598 0.112344 0.773488
0.961150 0.109514 0.770441
0.000000 0.254271 0.784505
0.112637 0.250582 0.780875
0.235375 0.247155 0.777492
0.361160 0.243846 0.774216
0.487645 0.240615 0.771007
0.612315 0.237444 0.767848
0.732677 0.234320 0.764727
0.846305 0.231235 0.761637
0.950839 0.228186 0.758573
0.000000 0.379743 0.772852
0.101812 0.375911 0.769202
0.223676 0.372348 0.765800
0.348942 0.368906 0.762505
0.475230 0.365543 0.759279
0.600003 0.362239 0.756103
0.720758 0.358982 0.752965
0.835057 0.355764 0.749859
0.940533 0.352580 0.746779
0.000000 0.507269 0.761226
0.091167 0.503393 0.757555
0.212134 0.499787 0.754135
0.336854 0.496300 0.750823
0.462916 0.492890 0.747581
0.587764 0.489539 0.744388
0.708879 0.486232 0.741235
0.823816 0.482964 0.738114
0.930199 0.479728 0.735019
0.000000 0.633867 0.749607
0.080684 0.630042 0.745918
0.200727 0.626482 0.742481
0.324876 0.623036 0.739152
0.450684 0.619665 0.735894
0.575577 0.616349 0.732686
0.697023 0.613076 0.729518
0.812566 0.609838 0.726382
0.919822 0.606630 0.723273
0.000000 0.756570 0.737986
0.070352 0.752892 0.734279
0.189445 0.749465 0.730826
0.312995 0.746147 0.727482
0.438522 0.742898 0.724209
0.563431 0.739699 0.720987
0.685178 0.736540 0.717805
0.801296 0.733412 0.714655
0.909394 0.730312 0.711533
0.000000 0.872445 0.726357
0.060163 0.869007 0.722634
0.178280 0.865801 0.719165
0.301204 0.862693 0.715807
0.426423 0.859648 0.712520
0.551320 0.856648 0.709284
0.673339 0.853683 0.706089
0.790002 0.850745 0.702926
0.898911 0.847829 0.699791
0.000000 0.978588 0.714717
0.050113 0.975483 0.710978
0.167227 0.972583 0.707495
0.289499 0.969770 0.704123
0.414381 0.967011 0.700822
0.539239 0.964289 0.697574
0.661501 0.961597 0.694366
0.778681 0.958926 0.691192
0.888372 0.956274 0.688045
0.011956 0.019584 0.951301
0.133789 0.016497 0.948098
0.258124 0.013636 0.945108
0.384823 0.010880 0.942208
0.511606 0.008194 0.939364
0.635991 0.005563 0.936561
0.755514 0.002977 0.933787
0.867766 0.000428 0.931037
0.970403 0.000000 0.928307
0.001863 0.132501 0.940635
0.122397 0.129059 0.937396
0.245889 0.125865 0.934373
0.372112 0.122784 0.931441
0.498749 0.119779 0.928567
0.623300 0.116831 0.925733
0.743287 0.113929 0.922930
0.856291 0.111067 0.920152
0.959959 0.108240 0.917393
0.000000 0.252882 0.930099
0.111360 0.249195 0.926826
0.233997 0.245770 0.923772
0.359723 0.242463 0.920810
0.486186 0.239234 0.917906
0.610870 0.236065 0.915044
0.731279 0.232942 0.912213
0.844988 0.229860 0.909407
0.949634 0.226812 0.906622
0.000000 0.378300 0.919576
0.100546 0.374469 0.916271
0.222306 0.370908 0.913186
0.347509 0.367467 0.910195
0.473771 0.364104 0.907264
0.598555 0.360801 0.904374
0.719354 0.357545 0.901516
0.833730 0.354328 0.898684
0.939315 0.351145 0.895873
0.000000 0.505810 0.909033
0.089913 0.501934 0.905696
0.210771 0.498328 0.902582
0.335425 0.494841 0.899564
0.461459 0.491431 0.896605
0.586313 0.488080 0.893689
0.707470 0.484774 0.890805
0.822480 0.481505 0.887948
0.928968 0.478269 0.885111
0.000000 0.632427 0.898454
0.079442 0.628602 0.895086
0.199373 0.625040 0.891944
0.323452 0.621594 0.888899
0.449228 0.618222 0.885914
0.574124 0.614905 0.882972
0.695608 0.611631 0.880064
0.811220 0.608392 0.877182
0.918579 0.605184 0.874322
0.000000 0.755186 0.887831
0.069122 0.751506 0.884434
0.188099 0.748077 0.881265
0.311576 0.744757 0.878193
0.437067 0.741506 0.875183
0.561977 0.738305 0.872217
0.683758 0.735144 0.869284
0.799942 0.732015 0.866379
0.908139 0.728913 0.863496
0.000000 0.871152 0.877159
0.058945 0.867711 0.873734
0.176943 0.864501 0.870538
0.299791 0.861391 0.867442
0.424970 0.858343 0.864407
0.549864 0.855340 0.861417
0.671913 0.852372 0.858462
0.788640 0.849431 0.855533
0.897645 0.846514 0.852628
0.000000 0.977420 0.866436
0.048908 0.974311 0.862983
0.165899 0.971407 0.859763
0.288091 0.968591 0.856642
0.412931 0.965827 0.853584
0.537782 0.963102 0.850571
0.660071 0.960406 0.847593
0.777311 0.957732 0.844643
0.887094 0.955076 0.841716
0.010791 0.018408 1.000000
0.132478 0.015326 1.000000
0.256717 0.012470 1.000000
0.383364 0.009717 1.000000
0.510131 0.007036 1.000000
0.634538 0.004409 1.000000
0.754115 0.001826 1.000000
0.866455 0.000000 1.000000
0.969211 0.000000 1.000000
0.000714 0.131191 1.000000
0.121097 0.127753 1.000000
0.244490 0.124562 1.000000
0.370656 0.121483 1.000000
0.497275 0.118481 1.000000
0.621843 0.115536 1.000000
0.741881 0.112638 1.000000
0.854969 0.109779 1.000000
0.958753 0.106954 1.000000
0.000000 0.251478 1.000000
0.110071 0.247794 1.000000
0.232606 0.244371 1.000000
0.358271 0.241066 1.000000
0.484712 0.237839 1.000000
0.609409 0.234672 1.000000
0.729866 0.231552 1.000000
0.843655 0.228471 1.000000
0.948415 0.225426 1.000000
0.000000 0.376842 1.000000
0.099269 0.373013 1.000000
0.220922 0.369452 1.000000
0.346061 0.366012 1.000000
0.472297 0.362651 1.000000
0.597091 0.359349 1.000000
0.717934 0.356094 1.000000
0.832388 0.352878 1.000000
0.938082 0.349696 1.000000
0.000000 0.504336 1.000000
0.088648 0.500460 1.000000
0.209396 0.496853 1.000000
0.333982 0.493366 1.000000
0.459986 0.489957 1.000000
0.584847 0.486605 1.000000
0.706044 0.483299 1.000000
0.821129 0.480031 1.000000
0.927723 0.476795 1.000000
0.000000 0.630973 1.000000
0.078189 0.627146 1.000000
0.198006 0.623583 1.000000
0.322013 0.620136 1.000000
0.447757 0.616763 1.000000
0.572656 0.613445 1.000000
0.694177 0.610170 1.000000
0.809860 0.606931 1.000000
0.917321 0.603721 1.000000
0.000000 0.753787 1.000000
0.067881 0.750105 1.000000
0.186741 0.746674 1.000000
0.310142 0.743351 1.000000
0.435598 0.740098 1.000000
0.560506 0.736896 1.000000
0.682321 0.733733 1.000000
0.798573 0.730602 1.000000
0.906870 0.727498 1.000000
0.000000 0.869844 1.000000
0.057716 0.866400 1.000000
0.175593 0.863187 1.000000
0.298362 0.860074 1.000000
0.423502 0.857023 1.000000
0.548392 0.854018 0.999699
0.670472 0.851046 0.997121
0.787263 0.848103 0.994565
0.896364 0.845183 0.992024
0.000000 0.976239 1.000000
0.047692 0.973125 1.000000
0.164559 0.970217 0.998257
0.286669 0.967397 0.995533
0.411465 0.964630 0.992861
0.536309 0.961901 0.990224
0.658626 0.959200 0.987614
0.775926 0.956523 0.985026
0.885803 0.953864 0.982454
0.010565 0.018179 1.000000
0.132223 0.015098 1.000000
0.256444 0.012243 1.000000
0.383080 0.009491 1.000000
0.509844 0.006810 1.000000
0.634254 0.004184 1.000000
0.753843 0.001602 1.000000
0.866199 0.000000 1.000000
0.968979 0.000000 1.000000
0.000491 0.130936 1.000000
0.120843 0.127498 1.000000
0.244218 0.124308 1.000000
0.370373 0.121230 1.000000
0.496987 0.118228 1.000000
0.621559 0.115284 1.000000
0.741607 0.112386 1.000000
0.854711 0.109528 1.000000
0.958518 0.106704 1.000000
0.000000 0.251205 1.000000
0.109820 0.247521 1.000000
0.232335 0.244098 1.000000
0.357988 0.240794 1.000000
0.484425 0.237568 1.000000
0.609124 0.234401 1.000000
0.729591 0.231281 1.000000
0.843396 0.228201 1.000000
0.948177 0.225156 1.000000
0.000000 0.376559 1.000000
0.099020 0.372729 1.000000
0.220653 0.369169 1.000000
0.345779 0.365729 1.000000
0.472010 0.362368 1.000000
0.596806 0.359066 1.000000
0.717658 0.355811 1.000000
0.832126 0.352596 1.000000
0.937842 0.349414 1.000000
0.000000 0.504048 1.000000
0.088401 0.500172 1.000000
0.209128 0.496566 1.000000
0.333701 0.493079 1.000000
0.459699 0.489670 1.000000
0.584561 0.486318 1.000000
0.705767 0.483012 1.000000
0.820865 0.479744 1.000000
0.927480 0.476508 1.000000
0.000000 0.630689 1.000000
0.077945 0.626862 1.000000
0.197740 0.623299 1.000000
0.321733 0.619852 1.000000
0.447470 0.616479 1.000000
0.572370 0.613161 1.000000
0.693898 0.609886 1.000000
0.809595 0.606646 1.000000
0.917076 0.603436 1.000000
0.000000 0.753514 1.000000
0.067639 0.749832 1.000000
0.186476 0.746400 1.000000
0.309863 0.743077 1.000000
0.435311 0.739824 1.000000
0.560220 0.736622 1.000000
0.682042 0.733458 1.000000
0.798307 0.730327 1.000000
0.906623 0.727223 1.000000
0.000000 0.869589 1.000000
0.057477 0.866144 1.000000
0.175330 0.862931 1.000000
0.298084 0.859817 1.000000
0.423216 0.856766 1.000000
0.548105 0.853760 1.000000
0.670191 0.850788 1.000000
0.786995 0.847844 1.000000
0.896115 0.844923 1.000000
0.000000 0.976009 1.000000
0.047456 0.972894 1.000000
0.164298 0.969985 1.000000
0.286392 0.967164 1.000000
0.411179 0.964396 1.000000
0.536022 0.961666 1.000000
0.658344 0.958966 1.000000
0.775656 0.956287 1.000000
0.885551 0.953627 1.000000
