assets/luts/starlit_lapis.cube
# Звёздный лазурит — самый глубокий синий
TITLE "starlit_lapis"
LUT_3D_SIZE 17
DOMAIN_MIN 0.0 0.0 0.0
DOMAIN_MAX 1.0 1.0 1.0
0.018592 0.026284 0.068325
0.079990 0.024680 0.066646
0.141253 0.023172 0.065068
0.203303 0.021713 0.063540
0.266116 0.020287 0.062046
0.329477 0.018887 0.060579
0.393108 0.017508 0.059134
0.456708 0.016146 0.057706
0.519968 0.014800 0.056294
0.582578 0.013467 0.054896
0.644229 0.012146 0.053511
0.704615 0.010836 0.052137
0.763434 0.009537 0.050773
0.820387 0.008247 0.049419
0.875180 0.006966 0.048074
0.927523 0.005694 0.046738
0.977129 0.004429 0.045409
0.013440 0.082146 0.062879
0.074483 0.080446 0.061210
0.135461 0.078846 0.059639
0.197282 0.077297 0.058120
0.259915 0.075784 0.056635
0.323142 0.074297 0.055176
0.386681 0.072832 0.053738
0.450232 0.071384 0.052319
0.513482 0.069953 0.050915
0.576122 0.068536 0.049525
0.637841 0.067131 0.048147
0.698333 0.065738 0.046781
0.757294 0.064355 0.045425
0.814426 0.062982 0.044079
0.869434 0.061618 0.042742
0.922026 0.060262 0.041413
0.971917 0.058915 0.040092
0.008414 0.139957 0.057561
0.069103 0.138174 0.055900
0.129797 0.136497 0.054339
0.191389 0.134873 0.052827
0.253841 0.133285 0.051350
0.316932 0.131725 0.049900
0.380378 0.130187 0.048470
0.443876 0.128668 0.047058
0.507113 0.127164 0.045662
0.569778 0.125676 0.044280
0.631560 0.124200 0.042910
0.692152 0.122735 0.041552
0.751249 0.121281 0.040204
0.808553 0.119838 0.038865
0.863767 0.118403 0.037536
0.916601 0.116977 0.036215
0.966767 0.115559 0.034902
0.003471 0.199628 0.052326
0.063806 0.197777 0.050674
0.124215 0.196035 0.049121
0.185576 0.194348 0.047618
0.247845 0.192699 0.046149
0.310797 0.191077 0.044707
0.374146 0.189479 0.043285
0.437588 0.187899 0.041881
0.500809 0.186336 0.040493
0.563495 0.184788 0.039119
0.625336 0.183252 0.037757
0.686022 0.181728 0.036406
0.745251 0.180215 0.035066
0.802720 0.178712 0.033735
0.858136 0.177218 0.032414
0.911205 0.175733 0.031100
0.961640 0.174256 0.029795
0.000000 0.260857 0.047157
0.058575 0.258952 0.045514
0.118697 0.257158 0.043970
0.179825 0.255421 0.042475
0.241908 0.253721 0.041015
0.304718 0.252051 0.039580
0.367968 0.250403 0.038167
0.431350 0.248775 0.036771
0.494550 0.247163 0.035391
0.557254 0.245566 0.034024
0.619149 0.243982 0.032670
0.679926 0.242410 0.031327
0.739280 0.240849 0.029995
0.796912 0.239298 0.028672
0.852523 0.237755 0.027358
0.905822 0.236222 0.026053
0.956521 0.234696 0.024755
0.000000 0.323295 0.042045
0.053401 0.321348 0.040412
0.113234 0.319515 0.038876
0.174125 0.317739 0.037390
0.236019 0.316001 0.035938
0.298684 0.314293 0.034511
0.361831 0.312608 0.033106
0.425151 0.310942 0.031718
0.488327 0.309293 0.030346
0.551044 0.307658 0.028988
0.612990 0.306037 0.027642
0.673853 0.304428 0.026307
0.733329 0.302829 0.024982
0.791117 0.301240 0.023667
0.846920 0.299660 0.022361
0.900444 0.298089 0.021064
0.951401 0.296526 0.019774
0.000000 0.386576 0.036985
0.048279 0.384600 0.035361
0.107819 0.382739 0.033834
0.168470 0.380936 0.032357
0.230173 0.379172 0.030913
0.292690 0.377437 0.029495
0.355731 0.375725 0.028098
0.418984 0.374033 0.026718
0.482132 0.372357 0.025354
0.544860 0.370696 0.024004
0.606852 0.369048 0.022666
0.667798 0.367412 0.021339
0.727392 0.365786 0.020022
0.785332 0.364170 0.018715
0.841321 0.362564 0.017417
0.895066 0.360965 0.016127
0.946277 0.359375 0.014845
0.000000 0.450326 0.031974
0.043204 0.448334 0.030359
0.102448 0.446458 0.028841
0.162858 0.444639 0.027372
0.224366 0.442860 0.025937
0.286732 0.441109 0.024527
0.349663 0.439382 0.023138
0.412846 0.437674 0.021767
0.475963 0.435983 0.020411
0.538696 0.434306 0.019069
0.600731 0.432642 0.017738
0.661756 0.430989 0.016420
0.721463 0.429347 0.015111
0.779552 0.427715 0.013812
0.835724 0.426091 0.012522
0.889684 0.424476 0.011240
0.941145 0.422868 0.009966
0.000000 0.514174 0.027008
0.038174 0.512178 0.025403
0.097120 0.510298 0.023894
0.157284 0.508476 0.022433
0.218594 0.506692 0.021006
0.280805 0.504937 0.019605
0.343623 0.503205 0.018224
0.406733 0.501492 0.016861
0.469816 0.499795 0.015514
0.532551 0.498113 0.014180
0.594625 0.496444 0.012858
0.655724 0.494785 0.011547
0.715542 0.493137 0.010246
0.773775 0.491498 0.008955
0.830125 0.489868 0.007673
0.884297 0.488246 0.006400
0.936003 0.486631 0.005134
0.000000 0.577746 0.022086
0.033187 0.575759 0.020490
0.091832 0.573887 0.018990
0.151747 0.572072 0.017538
0.212855 0.570295 0.016120
0.274909 0.568546 0.014727
0.337611 0.566820 0.013355
0.400644 0.565113 0.012000
0.463688 0.563422 0.010661
0.526423 0.561745 0.009335
0.588532 0.560080 0.008021
0.649702 0.558426 0.006719
0.709626 0.556782 0.005426
0.767999 0.555147 0.004143
0.824523 0.553520 0.002869
0.878903 0.551902 0.001604
0.930850 0.550290 0.000346
0.000000 0.640672 0.017206
0.028242 0.638706 0.015620
0.086582 0.636853 0.014129
0.146246 0.635056 0.012686
0.207149 0.633297 0.011276
0.269042 0.631566 0.009892
0.331624 0.629857 0.008528
0.394577 0.628166 0.007182
0.457579 0.626490 0.005851
0.520309 0.624828 0.004533
0.582449 0.623178 0.003228
0.643687 0.621539 0.001934
0.703713 0.619909 0.000649
0.762222 0.618288 0.000000
0.818917 0.616675 0.000000
0.873501 0.615070 0.000000
0.925684 0.613471 0.000000
0.000000 0.702581 0.012367
0.023337 0.700648 0.010791
0.081369 0.698827 0.009309
0.140778 0.697060 0.007875
0.201473 0.695329 0.006474
0.263202 0.693626 0.005098
0.325660 0.691944 0.003743
0.388530 0.690279 0.002405
0.451486 0.688630 0.001083
0.514208 0.686994 0.000000
0.576377 0.685369 0.000000
0.637678 0.683754 0.000000
0.697802 0.682149 0.000000
0.756444 0.680552 0.000000
0.813306 0.678963 0.000000
0.868089 0.677380 0.000000
0.920505 0.675804 0.000000
0.000000 0.763107 0.007568
0.018472 0.761219 0.006002
0.076192 0.759440 0.004529
0.135343 0.757714 0.003104
0.195827 0.756023 0.001712
0.257388 0.754358 0.000345
0.319720 0.752714 0.000000
0.382502 0.751086 0.000000
0.445410 0.749474 0.000000
0.508120 0.747873 0.000000
0.570313 0.746284 0.000000
0.631674 0.744704 0.000000
0.691893 0.743133 0.000000
0.750664 0.741570 0.000000
0.807688 0.740014 0.000000
0.862668 0.738464 0.000000
0.915313 0.736921 0.000000
0.000000 0.821884 0.002809
0.013645 0.820053 0.001252
0.071051 0.818328 0.000000
0.129940 0.816653 0.000000
0.190210 0.815012 0.000000
0.251599 0.813396 0.000000
0.313801 0.811800 0.000000
0.376493 0.810221 0.000000
0.439349 0.808654 0.000000
0.502043 0.807100 0.000000
0.564257 0.805556 0.000000
0.625675 0.804021 0.000000
0.685985 0.802494 0.000000
0.744882 0.800975 0.000000
0.802064 0.799462 0.000000
0.857236 0.797956 0.000000
0.910106 0.796455 0.000000
0.000000 0.878547 0.000000
0.008857 0.876786 0.000000
0.065945 0.875125 0.000000
0.124569 0.873513 0.000000
0.184621 0.871934 0.000000
0.245836 0.870377 0.000000
0.307905 0.868840 0.000000
0.370502 0.867318 0.000000
0.433302 0.865809 0.000000
0.495978 0.864310 0.000000
0.558209 0.862822 0.000000
0.619679 0.861342 0.000000
0.680077 0.859869 0.000000
0.739095 0.858403 0.000000
0.796433 0.856944 0.000000
0.851794 0.855490 0.000000
0.904885 0.854041 0.000000
0.000000 0.932736 0.000000
0.004107 0.931056 0.000000
0.060873 0.929472 0.000000
0.119229 0.927933 0.000000
0.179059 0.926425 0.000000
0.240097 0.924939 0.000000
0.302029 0.923471 0.000000
0.364529 0.922016 0.000000
0.427270 0.920574 0.000000
0.489923 0.919142 0.000000
0.552169 0.917719 0.000000
0.613688 0.916303 0.000000
0.674169 0.914895 0.000000
0.733306 0.913492 0.000000
0.790795 0.912096 0.000000
0.846340 0.910704 0.000000
0.899649 0.909317 0.000000
0.000000 0.984090 0.000000
0.000000 0.982504 0.000000
0.055835 0.981006 0.000000
0.113920 0.979552 0.000000
0.173525 0.978126 0.000000
0.234382 0.976721 0.000000
0.296174 0.975332 0.000000
0.358573 0.973956 0.000000
0.421251 0.972590 0.000000
0.483879 0.971235 0.000000
0.546135 0.969887 0.000000
0.607700 0.968546 0.000000
0.668261 0.967211 0.000000
0.727512 0.965882 0.000000
0.785150 0.964558 0.000000
0.840876 0.963238 0.000000
0.894398 0.961922 0.000000
0.018084 0.025770 0.130064
0.079447 0.024168 0.128294
0.140682 0.022661 0.126629
0.202710 0.021203 0.125017
0.265505 0.019778 0.123440
0.328854 0.018379 0.121892
0.392476 0.017000 0.120365
0.456071 0.015639 0.118857
0.519330 0.014293 0.117365
0.581943 0.012961 0.115888
0.643601 0.011641 0.114423
0.703998 0.010333 0.112969
0.762830 0.009034 0.111527
0.819801 0.007745 0.110094
0.874616 0.006465 0.108671
0.926984 0.005194 0.107256
0.976618 0.003930 0.105849
0.012935 0.081602 0.124319
0.073942 0.079902 0.122557
0.134892 0.078303 0.120899
0.196690 0.076755 0.119294
0.259306 0.075243 0.117725
0.322519 0.073757 0.116183
0.386049 0.072292 0.114663
0.449595 0.070846 0.113162
0.512844 0.069415 0.111677
0.575487 0.067999 0.110206
0.637212 0.066595 0.108748
0.697714 0.065202 0.107301
0.756689 0.063820 0.105865
0.813838 0.062448 0.104439
0.868867 0.061084 0.103022
0.921484 0.059729 0.101614
0.971402 0.058383 0.100213
0.007912 0.139387 0.118703
0.068565 0.137605 0.116949
0.129231 0.135928 0.115298
0.190800 0.134305 0.113700
0.253234 0.132717 0.112138
0.316310 0.131158 0.110603
0.379747 0.129620 0.109089
0.443239 0.128102 0.107595
0.506475 0.126599 0.106117
0.569142 0.125111 0.104652
0.630931 0.123636 0.103201
0.691532 0.122172 0.101761
0.750642 0.120719 0.100332
0.807963 0.119276 0.098912
0.863198 0.117842 0.097502
0.916056 0.116416 0.096100
0.966250 0.114999 0.094706
0.002972 0.199036 0.113169
0.063271 0.197185 0.111422
0.123652 0.195444 0.109779
0.184989 0.193758 0.108188
0.247239 0.192109 0.106632
0.310176 0.190488 0.105104
0.373516 0.188890 0.103598
0.436952 0.187311 0.102110
0.500171 0.185748 0.100639
0.562859 0.184200 0.099181
0.624705 0.182665 0.097736
0.685401 0.181142 0.096303
0.744642 0.179629 0.094881
0.802129 0.178127 0.093468
0.857564 0.176634 0.092064
0.910657 0.175149 0.090669
0.961119 0.173672 0.089282
0.000000 0.260248 0.107699
0.058043 0.258343 0.105960
0.118136 0.256549 0.104324
0.179239 0.254812 0.102740
0.241303 0.253113 0.101192
0.304098 0.251443 0.099670
0.367338 0.249796 0.098171
0.430714 0.248168 0.096690
0.493912 0.246557 0.095225
0.556617 0.244960 0.093775
0.618518 0.243377 0.092337
0.679304 0.241805 0.090910
0.738671 0.240244 0.089494
0.796318 0.238694 0.088088
0.851949 0.237152 0.086691
0.905272 0.235619 0.085303
0.955997 0.234094 0.083922
0.000000 0.322672 0.102284
0.052872 0.320726 0.100552
0.112675 0.318893 0.098924
0.173541 0.317117 0.097347
0.235416 0.315380 0.095806
0.298066 0.313672 0.094292
0.361202 0.311987 0.092799
0.424515 0.310321 0.091325
0.487688 0.308673 0.089867
0.550407 0.307038 0.088424
0.612357 0.305418 0.086992
0.673230 0.303808 0.085573
0.732718 0.302210 0.084163
0.790522 0.300621 0.082764
0.846344 0.299042 0.081374
0.899891 0.297471 0.079992
0.950874 0.295908 0.078619
0.000000 0.385943 0.096918
0.047752 0.383968 0.095194
0.107262 0.382107 0.093573
0.167889 0.380305 0.092004
0.229572 0.378541 0.090470
0.292073 0.376806 0.088963
0.355103 0.375094 0.087477
0.418349 0.373402 0.086010
0.481494 0.371727 0.084559
0.544222 0.370066 0.083122
0.606219 0.368418 0.081698
0.667173 0.366782 0.080285
0.726779 0.365157 0.078883
0.784735 0.363541 0.077490
0.840743 0.361935 0.076107
0.894510 0.360336 0.074732
0.945747 0.358746 0.073365
0.000000 0.449689 0.091597
0.042680 0.447697 0.089881
0.101894 0.445821 0.088268
0.162279 0.444003 0.086706
0.223766 0.442223 0.085179
0.286116 0.440473 0.083679
0.349035 0.438745 0.082201
0.412211 0.437038 0.080741
0.475325 0.435346 0.079297
0.538059 0.433670 0.077867
0.600098 0.432006 0.076449
0.661130 0.430353 0.075044
0.720849 0.428711 0.073648
0.778953 0.427079 0.072262
0.835143 0.425456 0.070886
0.889126 0.423840 0.069518
0.940612 0.422233 0.068158
0.000000 0.513536 0.086319
0.037653 0.511540 0.084611
0.096568 0.509660 0.083005
0.156707 0.507837 0.081451
0.217996 0.506054 0.079931
0.280191 0.504299 0.078439
0.342997 0.502567 0.076968
0.406099 0.500854 0.075515
0.469178 0.499157 0.074078
0.531914 0.497475 0.072655
0.593991 0.495805 0.071244
0.655098 0.494147 0.069845
0.714927 0.492499 0.068457
0.773175 0.490860 0.067078
0.829543 0.489230 0.065709
0.883737 0.487608 0.064348
0.935468 0.485993 0.062995
0.000000 0.577111 0.081081
0.032670 0.575124 0.079382
0.091283 0.573251 0.077783
0.151172 0.571436 0.076236
0.212259 0.569659 0.074724
0.274296 0.567910 0.073239
0.336986 0.566184 0.071775
0.400010 0.564477 0.070329
0.463050 0.562786 0.068900
0.525785 0.561108 0.067484
0.587897 0.559443 0.066081
0.649075 0.557789 0.064689
0.709009 0.556145 0.063307
0.767397 0.554510 0.061936
0.823939 0.552883 0.060573
0.878341 0.551265 0.059219
0.930312 0.549653 0.057873
0.000000 0.640043 0.075882
0.027727 0.638077 0.074191
0.086035 0.636224 0.072601
0.145673 0.634427 0.071061
0.206554 0.632668 0.069557
0.268430 0.630936 0.068079
0.330999 0.629226 0.066622
0.393944 0.627535 0.065184
0.456941 0.625860 0.063761
0.519671 0.624198 0.062353
0.581814 0.622547 0.060956
0.643059 0.620908 0.059572
0.703095 0.619278 0.058197
0.761619 0.617657 0.056833
0.818331 0.616044 0.055477
0.872936 0.614438 0.054130
0.925143 0.612839 0.052792
0.000000 0.701963 0.070721
0.022825 0.700030 0.069038
0.080825 0.698208 0.067456
0.140207 0.696441 0.065924
0.200880 0.694710 0.064427
0.262591 0.693006 0.062957
0.325037 0.691323 0.061508
0.387897 0.689659 0.060077
0.450849 0.688009 0.058661
0.513570 0.686373 0.057260
0.575741 0.684748 0.055871
0.637049 0.683133 0.054493
0.697183 0.681527 0.053126
0.755839 0.679930 0.051769
0.812717 0.678340 0.050421
0.867522 0.676757 0.049081
0.919962 0.675181 0.047749
0.000000 0.762503 0.065597
0.017963 0.760615 0.063922
0.075651 0.758836 0.062348
0.134774 0.757109 0.060824
0.195236 0.755417 0.059335
0.256779 0.753752 0.057872
0.319098 0.752107 0.056430
0.381870 0.750480 0.055007
0.444773 0.748866 0.053599
0.507482 0.747266 0.052205
0.569677 0.745676 0.050823
0.631044 0.744096 0.049453
0.691273 0.742524 0.048093
0.750058 0.740961 0.046743
0.807098 0.739404 0.045402
0.862098 0.737855 0.044070
0.914767 0.736311 0.042745
0.000000 0.821298 0.060508
0.013140 0.819468 0.058843
0.070512 0.817741 0.057276
0.129374 0.816066 0.055761
0.189621 0.814425 0.054279
0.250992 0.812808 0.052824
0.313180 0.811212 0.051390
0.375862 0.809631 0.049974
0.438712 0.808065 0.048573
0.501405 0.806510 0.047187
0.563621 0.804965 0.045812
0.625044 0.803430 0.044450
0.685363 0.801903 0.043097
0.744273 0.800383 0.041754
0.801472 0.798870 0.040421
0.856664 0.797363 0.039095
0.909557 0.795861 0.037778
0.000000 0.877984 0.055456
0.008355 0.876223 0.053799
0.065409 0.874561 0.052241
0.124005 0.872948 0.050733
0.184033 0.871368 0.049259
0.245230 0.869811 0.047811
0.307285 0.868273 0.046385
0.369872 0.866750 0.044977
0.432666 0.865240 0.043584
0.495340 0.863741 0.042205
0.557573 0.862252 0.040838
0.619048 0.860771 0.039483
0.679455 0.859298 0.038138
0.738486 0.857832 0.036802
0.795840 0.856372 0.035476
0.851220 0.854917 0.034158
0.904334 0.853468 0.032848
0.000000 0.932199 0.050438
0.003608 0.930519 0.048790
0.060340 0.928933 0.047240
0.118667 0.927394 0.045740
0.178474 0.925885 0.044274
0.239492 0.924398 0.042835
0.301410 0.922929 0.041416
0.363900 0.921474 0.040015
0.426634 0.920031 0.038630
0.489285 0.918598 0.037259
0.551532 0.917174 0.035899
0.613056 0.915758 0.034552
0.673546 0.914349 0.033214
0.732694 0.912946 0.031886
0.790200 0.911548 0.030568
0.845764 0.910156 0.029257
0.899095 0.908768 0.027955
0.000000 0.983583 0.045455
0.000000 0.981996 0.043816
0.055305 0.980497 0.042274
0.113360 0.979042 0.040783
0.172942 0.977615 0.039325
0.233779 0.976209 0.037893
0.295556 0.974819 0.036482
0.357945 0.973442 0.035089
0.420616 0.972076 0.033712
0.483241 0.970719 0.032348
0.545497 0.969371 0.030996
0.607067 0.968029 0.029656
0.667637 0.966693 0.028326
0.726900 0.965363 0.027006
0.784552 0.964038 0.025695
0.840298 0.962718 0.024392
0.893842 0.961401 0.023097
0.017560 0.025242 0.196844
0.078887 0.023640 0.194995
0.140093 0.022134 0.193256
0.202098 0.020677 0.191572
0.264876 0.019253 0.189925
0.328210 0.017854 0.188306
0.391823 0.016477 0.186710
0.455414 0.015117 0.185133
0.518672 0.013772 0.183573
0.581288 0.012441 0.182027
0.642953 0.011122 0.180493
0.703361 0.009814 0.178972
0.762208 0.008516 0.177462
0.819197 0.007228 0.175961
0.874034 0.005949 0.174470
0.926427 0.004678 0.172987
0.976090 0.003415 0.171512
0.012414 0.081041 0.190844
0.073385 0.079342 0.189002
0.134306 0.077744 0.187269
0.196081 0.076197 0.185590
0.258677 0.074685 0.183949
0.321877 0.073200 0.182336
0.385398 0.071736 0.180745
0.448938 0.070290 0.179174
0.512186 0.068861 0.177618
0.574831 0.067445 0.176078
0.636563 0.066042 0.174550
0.697076 0.064650 0.173034
0.756065 0.063268 0.171529
0.813232 0.061897 0.170034
0.868282 0.060534 0.168548
0.920924 0.059180 0.167071
0.970871 0.057834 0.165602
0.007395 0.138799 0.184972
0.068011 0.137017 0.183137
0.128647 0.135341 0.181410
0.190192 0.133719 0.179737
0.252607 0.132132 0.178101
0.315669 0.130573 0.176493
0.379096 0.129037 0.174908
0.442582 0.127519 0.173343
0.505817 0.126017 0.171793
0.568487 0.124529 0.170258
0.630281 0.123055 0.168736
0.690892 0.121591 0.167225
0.750017 0.120139 0.165726
0.807355 0.118696 0.164236
0.862611 0.117263 0.162755
0.915494 0.115838 0.161284
0.965715 0.114422 0.159820
0.002459 0.198425 0.179181
0.062720 0.196576 0.177352
0.123070 0.194835 0.175630
0.184383 0.193149 0.173964
0.246614 0.191501 0.172334
0.309537 0.189880 0.170732
0.372866 0.188283 0.169152
0.436295 0.186704 0.167592
0.499512 0.185142 0.166048
0.562203 0.183595 0.164518
0.624055 0.182060 0.163002
0.684760 0.180538 0.161497
0.744015 0.179026 0.160003
0.801518 0.177524 0.158518
0.856975 0.176031 0.157043
0.910092 0.174547 0.155577
0.960582 0.173071 0.154119
0.000000 0.259619 0.173452
0.057495 0.257715 0.171629
0.117557 0.255922 0.169913
0.178635 0.254185 0.168252
0.240680 0.252487 0.166628
0.303460 0.250817 0.165032
0.366689 0.249170 0.163458
0.430058 0.247543 0.161903
0.493254 0.245932 0.160365
0.555961 0.244336 0.158841
0.617866 0.242753 0.157330
0.678662 0.241182 0.155830
0.738042 0.239621 0.154342
0.795706 0.238071 0.152863
0.851357 0.236530 0.151394
0.904704 0.234997 0.149933
0.955457 0.233472 0.148480
0.000000 0.322030 0.167774
0.052327 0.320084 0.165957
0.112099 0.318251 0.164248
0.172940 0.316476 0.162593
0.234794 0.314739 0.160975
0.297429 0.313031 0.159384
0.360554 0.311347 0.157816
0.423860 0.309681 0.156267
0.487030 0.308033 0.154734
0.549750 0.306399 0.153216
0.611705 0.304779 0.151711
0.672587 0.303170 0.150217
0.732088 0.301572 0.148734
0.789908 0.299984 0.147261
0.845750 0.298405 0.145797
0.899320 0.296834 0.144342
0.950331 0.295271 0.142895
0.000000 0.385292 0.162142
0.047210 0.383316 0.160332
0.106689 0.381456 0.158629
0.167290 0.379654 0.156980
0.228952 0.377890 0.155368
0.291437 0.376155 0.153783
0.354455 0.374444 0.152221
0.417694 0.372752 0.150677
0.480836 0.371077 0.149151
0.543565 0.369416 0.147638
0.605566 0.367769 0.146138
0.666529 0.366133 0.144650
0.726147 0.364508 0.143173
0.784119 0.362892 0.141706
0.840147 0.361286 0.140247
0.893937 0.359688 0.138798
0.945201 0.358098 0.137356
0.000000 0.449032 0.156552
0.042141 0.447040 0.154749
0.101323 0.445164 0.153052
0.161681 0.443346 0.151409
0.223147 0.441567 0.149803
0.285481 0.439816 0.148224
0.348389 0.438089 0.146668
0.411557 0.436381 0.145130
0.474667 0.434690 0.143609
0.537401 0.433014 0.142103
0.599444 0.431350 0.140609
0.660485 0.429697 0.139126
0.720216 0.428056 0.137655
0.778336 0.426424 0.136193
0.834545 0.424800 0.134741
0.888551 0.423185 0.133297
0.940063 0.421578 0.131861
0.000000 0.512877 0.151002
0.037117 0.510882 0.149205
0.096000 0.509002 0.147515
0.156112 0.507179 0.145878
0.217379 0.505395 0.144278
0.279558 0.503640 0.142705
0.342351 0.501908 0.141155
0.405445 0.500195 0.139623
0.468520 0.498499 0.138108
0.531256 0.496817 0.136607
0.593337 0.495147 0.135119
0.654452 0.493489 0.133643
0.714292 0.491841 0.132177
0.772555 0.490202 0.130721
0.828942 0.488572 0.129275
0.883159 0.486950 0.127837
0.934916 0.485335 0.126407
0.000000 0.576455 0.145488
0.032136 0.574468 0.143698
0.090717 0.572596 0.142014
0.150579 0.570780 0.140384
0.211644 0.569003 0.138790
0.273665 0.567254 0.137223
0.336341 0.565528 0.135679
0.399357 0.563821 0.134154
0.462393 0.562129 0.132644
0.525127 0.560452 0.131149
0.587243 0.558787 0.129667
0.648428 0.557133 0.128197
0.708373 0.555488 0.126737
0.766776 0.553853 0.125287
0.823336 0.552227 0.123847
0.877760 0.550608 0.122414
0.929757 0.548996 0.120990
0.000000 0.639395 0.140010
0.027197 0.637428 0.138227
0.085472 0.635575 0.136550
0.145082 0.633778 0.134926
0.205941 0.632018 0.133338
0.267800 0.630286 0.131778
0.330356 0.628577 0.130240
0.393291 0.626885 0.128720
0.456284 0.625209 0.127217
0.519012 0.623547 0.125728
0.581159 0.621897 0.124252
0.642411 0.620257 0.122788
0.702458 0.618627 0.121334
0.760996 0.617006 0.119890
0.817726 0.615392 0.118455
0.872353 0.613786 0.117029
0.924586 0.612187 0.115611
0.000000 0.701326 0.134567
0.022298 0.699392 0.132791
0.080264 0.697570 0.131120
0.139619 0.695802 0.129502
0.200269 0.694071 0.127921
0.261962 0.692367 0.126367
0.324394 0.690684 0.124835
0.387245 0.689019 0.123322
0.450192 0.687369 0.121825
0.512912 0.685732 0.120342
0.575086 0.684107 0.118872
0.636400 0.682492 0.117413
0.696545 0.680886 0.115966
0.755215 0.679288 0.114528
0.812111 0.677698 0.113099
0.866937 0.676115 0.111679
0.919401 0.674539 0.110267
0.000000 0.761881 0.129156
0.017439 0.759992 0.127387
0.075093 0.758212 0.125723
0.134188 0.756485 0.124112
0.194627 0.754793 0.122537
0.256151 0.753127 0.120989
0.318456 0.751482 0.119464
0.381219 0.749854 0.117957
0.444116 0.748240 0.116466
0.506823 0.746639 0.114989
0.569021 0.745049 0.113526
0.630394 0.743468 0.112074
0.690633 0.741896 0.110632
0.749432 0.740332 0.109200
0.806490 0.738776 0.107778
0.861511 0.737225 0.106364
0.914204 0.735681 0.104958
0.000000 0.820695 0.123778
0.012619 0.818863 0.122017
0.069957 0.817136 0.120359
0.128790 0.815461 0.118755
0.189013 0.813819 0.117186
0.250366 0.812202 0.115645
0.312540 0.810605 0.114126
0.375212 0.809024 0.112625
0.438056 0.807457 0.111141
0.500747 0.805901 0.109671
0.562965 0.804356 0.108213
0.624394 0.802820 0.106767
0.684723 0.801292 0.105332
0.743646 0.799772 0.103906
0.800862 0.798258 0.102490
0.856075 0.796751 0.101082
0.908992 0.795249 0.099683
0.000000 0.877404 0.118432
0.007837 0.875641 0.116678
0.064856 0.873979 0.115028
0.123423 0.872365 0.113430
0.183428 0.870784 0.111868
0.244606 0.869227 0.110333
0.306645 0.867688 0.108820
0.369223 0.866165 0.107326
0.432010 0.864654 0.105848
0.494682 0.863155 0.104384
0.556916 0.861665 0.102933
0.618397 0.860183 0.101494
0.678813 0.858709 0.100065
0.737857 0.857243 0.098645
0.795227 0.855782 0.097235
0.850628 0.854327 0.095834
0.903765 0.852877 0.094441
0.000000 0.931645 0.113118
0.003093 0.929964 0.111371
0.059790 0.928377 0.109727
0.118088 0.926837 0.108136
0.177871 0.925327 0.106581
0.238870 0.923840 0.105053
0.300772 0.922370 0.103547
0.363251 0.920914 0.102059
0.425978 0.919471 0.100588
0.488627 0.918037 0.099130
0.550875 0.916612 0.097686
0.612404 0.915195 0.096252
0.672903 0.913785 0.094830
0.732064 0.912382 0.093417
0.789586 0.910983 0.092014
0.845170 0.909590 0.090618
0.898524 0.908202 0.089231
0.000000 0.983060 0.107834
0.000000 0.981471 0.106095
0.054758 0.979972 0.104459
0.112784 0.978516 0.102875
0.172341 0.977088 0.101326
0.233158 0.975681 0.099805
0.294919 0.974290 0.098305
0.357297 0.972912 0.096824
0.419961 0.971546 0.095359
0.482583 0.970188 0.093908
0.544840 0.968838 0.092470
0.606414 0.967496 0.091043
0.666993 0.966159 0.089627
0.726268 0.964829 0.088221
0.783936 0.963503 0.086824
0.839701 0.962181 0.085435
0.893268 0.960864 0.084055
0.017025 0.024702 0.267696
0.078316 0.023101 0.265785
0.139492 0.021596 0.263986
0.201473 0.020140 0.262244
0.264233 0.018717 0.260540
0.327553 0.017319 0.258864
0.391157 0.015943 0.257212
0.454742 0.014584 0.255579
0.518000 0.013240 0.253963
0.580619 0.011909 0.252361
0.642291 0.010591 0.250773
0.702710 0.009284 0.249196
0.761572 0.007988 0.247630
0.818580 0.006700 0.246074
0.873439 0.005422 0.244527
0.925858 0.004152 0.242989
0.975551 0.002890 0.241459
