assets/luts/starlit_lapis.cube
# Звёздный лазурит — самый глубокий синий
TITLE "starlit_lapis"
LUT_3D_SIZE 5
DOMAIN_MIN 0.0 0.0 0.0
DOMAIN_MAX 1.0 1.0 1.0
0.018592 0.026284 0.068325
0.266116 0.020287 0.062046
0.519968 0.014800 0.056294
0.763434 0.009537 0.050773
0.977129 0.004429 0.045409
0.000000 0.260857 0.047157
0.241908 0.253721 0.041015
0.494550 0.247163 0.035391
0.739280 0.240849 0.029995
0.956521 0.234696 0.024755
0.000000 0.514174 0.027008
0.218594 0.506692 0.021006
0.469816 0.499795 0.015514
0.715542 0.493137 0.010246
0.936003 0.486631 0.005134
0.000000 0.763107 0.007568
0.195827 0.756023 0.001712
0.445410 0.749474 0.000000
0.691893 0.743133 0.000000
0.915313 0.736921 0.000000
0.000000 0.984090 0.000000
0.173525 0.978126 0.000000
0.421251 0.972590 0.000000
0.668261 0.967211 0.000000
0.894398 0.961922 0.000000
0.016482 0.024153 0.341781
0.263579 0.018172 0.334450
0.517317 0.012699 0.327706
0.760926 0.007451 0.321206
0.975002 0.002357 0.314867
0.000000 0.258325 0.316935
0.239396 0.251197 0.309654
0.491898 0.244646 0.302959
0.736746 0.238339 0.296508
0.954343 0.232193 0.290219
0.000000 0.511522 0.292926
0.216110 0.504040 0.285702
0.467165 0.497143 0.279061
0.712985 0.490485 0.272664
0.933777 0.483980 0.266429
0.000000 0.760598 0.269401
0.193373 0.753506 0.262241
0.442764 0.746950 0.255659
0.689315 0.740603 0.249322
0.913043 0.734385 0.243146
0.000000 0.981981 0.246278
0.171103 0.976002 0.239187
0.418612 0.970452 0.232670
0.665666 0.965059 0.226398
0.892087 0.959757 0.220287
0.014250 0.021901 0.654133
0.260892 0.015936 0.646781
0.514506 0.010478 0.639994
0.758263 0.005245 0.633431
0.972741 0.000166 0.627010
0.000000 0.255644 0.629107
0.236737 0.248524 0.621715
0.489086 0.241980 0.614892
0.734057 0.235681 0.608297
0.952028 0.229543 0.601846
0.000000 0.508710 0.604625
0.213480 0.501228 0.597201
0.464356 0.494331 0.590351
0.710271 0.487673 0.583731
0.931413 0.481168 0.577257
0.000000 0.757936 0.580346
0.190775 0.750835 0.572897
0.439959 0.744271 0.566026
0.686581 0.737917 0.559388
0.910632 0.731692 0.552897
0.000000 0.979739 0.556192
0.168539 0.973743 0.548725
0.415815 0.968178 0.541839
0.662913 0.962771 0.535188
0.889632 0.957456 0.528687
0.011956 0.019584 0.951301
0.258124 0.013636 0.945108
0.511606 0.008194 0.939364
0.755514 0.002977 0.933787
0.970403 0.000000 0.928307
0.000000 0.252882 0.930099
0.233997 0.245770 0.923772
0.486186 0.239234 0.917906
0.731279 0.232942 0.912213
0.949634 0.226812 0.906622
0.000000 0.505810 0.909033
0.210771 0.498328 0.902582
0.461459 0.491431 0.896605
0.707470 0.484774 0.890805
0.928968 0.478269 0.885111
0.000000 0.755186 0.887831
0.188099 0.748077 0.881265
0.437067 0.741506 0.875183
0.683758 0.735144 0.869284
0.908139 0.728913 0.863496
0.000000 0.977420 0.866436
0.165899 0.971407 0.859763
0.412931 0.965827 0.853584
0.660071 0.960406 0.847593
0.887094 0.955076 0.841716
0.010565 0.018179 1.000000
0.256444 0.012243 1.000000
0.509844 0.006810 1.000000
0.753843 0.001602 1.000000
0.968979 0.000000 1.000000
0.000000 0.251205 1.000000
0.232335 0.244098 1.000000
0.484425 0.237568 1.000000
0.729591 0.231281 1.000000
0.948177 0.225156 1.000000
0.000000 0.504048 1.000000
0.209128 0.496566 1.000000
0.459699 0.489670 1.000000
0.705767 0.483012 1.000000
0.927480 0.476508 1.000000
0.000000 0.753514 1.000000
0.186476 0.746400 1.000000
0.435311 0.739824 1.000000
0.682042 0.733458 1.000000
0.906623 0.727223 1.000000
0.000000 0.976009 1.000000
0.164298 0.969985 1.000000
0.411179 0.964396 1.000000
0.658344 0.958966 1.000000
0.885551 0.953627 1.000000
