assets/luts/temple_ash.cube
# Храмовый пепел — известняк, камень, пустыня
TITLE "temple_ash"
LUT_3D_SIZE 5
DOMAIN_MIN 0.0 0.0 0.0
DOMAIN_MAX 1.0 1.0 1.0
0.045034 0.047511 0.054589
0.239060 0.055826 0.062937
0.440845 0.064057 0.071199
0.643548 0.072266 0.079437
0.839712 0.080469 0.087669
0.073183 0.263495 0.082880
0.269370 0.272515 0.091348
0.472037 0.281421 0.099726
0.674391 0.290282 0.108078
0.868997 0.299117 0.116420
0.101602 0.490343 0.111430
0.299748 0.499602 0.120009
0.503105 0.508727 0.128495
0.704927 0.517786 0.136951
0.897797 0.526802 0.145394
0.130327 0.717147 0.140276
0.330239 0.726188 0.148958
0.534099 0.735079 0.157543
0.735204 0.743889 0.166094
0.926158 0.752638 0.174631
0.159349 0.932818 0.169411
0.360836 0.941184 0.178187
0.565013 0.949392 0.186862
0.765218 0.957506 0.195500
0.954075 0.965545 0.204122
0.047908 0.050389 0.247473
0.242165 0.058717 0.256457
0.444049 0.066961 0.265331
0.646725 0.075181 0.274160
0.842738 0.083397 0.282965
0.076100 0.266619 0.277845
0.272498 0.275645 0.286893
0.475245 0.284558 0.295828
0.677553 0.293425 0.304715
0.871988 0.302265 0.313575
0.104559 0.493552 0.308278
0.302896 0.502811 0.317381
0.506315 0.511936 0.326368
0.708071 0.520995 0.335304
0.900751 0.530010 0.344211
0.133321 0.720283 0.338815
0.333405 0.729317 0.347966
0.537306 0.738201 0.356996
0.738327 0.747005 0.365973
0.929071 0.755747 0.374919
0.162377 0.935722 0.369451
0.364017 0.944075 0.378640
0.568215 0.952270 0.387705
0.768317 0.960371 0.396716
0.956946 0.968397 0.405692
0.050826 0.053310 0.453381
0.245315 0.061652 0.462633
0.447298 0.069908 0.471753
0.649944 0.078141 0.480811
0.845801 0.086368 0.489827
0.079062 0.269788 0.484587
0.275671 0.278821 0.493845
0.478497 0.287739 0.502970
0.680756 0.296612 0.512030
0.875016 0.305458 0.521046
0.107560 0.496805 0.515658
0.306090 0.506064 0.524915
0.509568 0.515188 0.534036
0.711255 0.524247 0.543090
0.903741 0.533261 0.552098
0.136359 0.723459 0.546642
0.336615 0.732486 0.555890
0.540557 0.741364 0.564999
0.741490 0.750161 0.574038
0.932021 0.758896 0.583029
0.165450 0.938660 0.577535
0.367242 0.947001 0.586765
0.571461 0.955183 0.595853
0.771455 0.963271 0.604871
0.959851 0.971283 0.613837
0.053769 0.056257 0.662625
0.248489 0.064612 0.671760
0.450569 0.072881 0.680750
0.653184 0.081126 0.689662
0.848882 0.089365 0.698516
0.082048 0.272981 0.693372
0.278868 0.282020 0.702457
0.481772 0.290945 0.711394
0.683980 0.299824 0.720252
0.878061 0.308676 0.729050
0.110586 0.500081 0.723794
0.309307 0.509340 0.732821
0.512843 0.518464 0.741698
0.714460 0.527522 0.750494
0.906747 0.536535 0.759228
0.139422 0.726655 0.753940
0.339850 0.735676 0.762900
0.543830 0.744547 0.771709
0.744672 0.753336 0.780434
0.934985 0.762064 0.789096
0.168547 0.941615 0.783805
0.370490 0.949942 0.792690
0.574728 0.958111 0.801423
0.774612 0.966186 0.810070
0.962772 0.974184 0.818652
0.056485 0.058977 0.849665
0.251417 0.067344 0.858352
0.453585 0.075624 0.866883
0.656169 0.083881 0.875325
0.851718 0.092131 0.883698
0.084804 0.275927 0.878835
0.281818 0.284971 0.887419
0.484791 0.293902 0.895846
0.686949 0.302786 0.904183
0.880864 0.311643 0.912447
0.113379 0.503100 0.907511
0.312275 0.512359 0.915984
0.515862 0.521482 0.924299
0.717411 0.530540 0.932522
0.909515 0.539552 0.940671
0.142249 0.729598 0.935739
0.342833 0.738613 0.944092
0.546846 0.747478 0.952287
0.747603 0.756260 0.960389
0.937714 0.764982 0.968414
0.171405 0.944334 0.963514
0.373486 0.952649 0.971739
0.577739 0.960806 0.979806
0.777520 0.968868 0.987778
0.965459 0.976854 0.995672
