assets/luts/temple_ash.cube
# Храмовый пепел — известняк, камень, пустыня
TITLE "temple_ash"
LUT_3D_SIZE 17
DOMAIN_MIN 0.0 0.0 0.0
DOMAIN_MAX 1.0 1.0 1.0
0.045034 0.047511 0.054589
0.092561 0.049608 0.056694
0.140748 0.051688 0.058783
0.189605 0.053760 0.060863
0.239060 0.055826 0.062937
0.289020 0.057888 0.065006
0.339379 0.059946 0.067072
0.390025 0.062003 0.069136
0.440845 0.064057 0.071199
0.491724 0.066111 0.073259
0.542546 0.068163 0.075319
0.593193 0.070214 0.077378
0.643548 0.072266 0.079437
0.693495 0.074317 0.081495
0.742916 0.076367 0.083553
0.791694 0.078418 0.085611
0.839712 0.080469 0.087669
0.052055 0.099931 0.061647
0.099753 0.102084 0.063760
0.148091 0.104220 0.065856
0.197076 0.106347 0.067944
0.246641 0.108467 0.070025
0.296690 0.110582 0.072102
0.347118 0.112694 0.074176
0.397814 0.114803 0.076247
0.448665 0.116910 0.078317
0.499555 0.119016 0.080385
0.550369 0.121120 0.082452
0.600989 0.123223 0.084519
0.651298 0.125325 0.086584
0.701180 0.127427 0.088650
0.750517 0.129528 0.090715
0.799192 0.131629 0.092780
0.847089 0.133729 0.094845
0.059083 0.153495 0.068711
0.106949 0.155697 0.070831
0.155433 0.157881 0.072935
0.204545 0.160054 0.075030
0.254215 0.162221 0.077119
0.304350 0.164383 0.079204
0.354844 0.166541 0.081285
0.405587 0.168696 0.083364
0.456466 0.170848 0.085441
0.507364 0.172998 0.087516
0.558167 0.175147 0.089590
0.608757 0.177294 0.091664
0.659018 0.179440 0.093736
0.708832 0.181585 0.095809
0.758082 0.183729 0.097881
0.806652 0.185873 0.099953
0.854424 0.188016 0.102025
0.066125 0.208070 0.075788
0.114156 0.210312 0.077916
0.162783 0.212536 0.080027
0.212017 0.214750 0.082130
0.261791 0.216957 0.084226
0.312008 0.219158 0.086318
0.362566 0.221354 0.088406
0.413352 0.223547 0.090492
0.464255 0.225738 0.092576
0.515159 0.227925 0.094658
0.565948 0.230111 0.096740
0.616505 0.232295 0.098820
0.666714 0.234478 0.100900
0.716458 0.236660 0.102979
0.765619 0.238840 0.105058
0.814081 0.241019 0.107137
0.861726 0.243198 0.109216
0.073183 0.263495 0.082880
0.121376 0.265772 0.085016
0.170143 0.268029 0.087135
0.219497 0.270276 0.089245
0.269370 0.272515 0.091348
0.319667 0.274747 0.093447
0.370285 0.276976 0.095542
0.421112 0.279200 0.097635
0.472037 0.281421 0.099726
0.522943 0.283640 0.101816
0.573715 0.285856 0.103904
0.624237 0.288070 0.105991
0.674391 0.290282 0.108078
0.724061 0.292493 0.110164
0.773130 0.294702 0.112249
0.821481 0.296910 0.114335
0.868997 0.299117 0.116420
0.080260 0.319607 0.089990
0.128610 0.321909 0.092133
0.177515 0.324193 0.094260
0.226985 0.326465 0.096376
0.276954 0.328729 0.098487
0.327328 0.330987 0.100593
0.378003 0.333239 0.102695
0.428869 0.335488 0.104795
0.479812 0.337733 0.106893
0.530717 0.339974 0.108989
0.581470 0.342214 0.111084
0.631953 0.344451 0.113178
0.682050 0.346685 0.115271
0.731644 0.348918 0.117363
0.780618 0.351150 0.119456
0.828855 0.353379 0.121548
0.876239 0.355608 0.123640
0.087355 0.376233 0.097119
0.135860 0.378555 0.099269
0.184899 0.380857 0.101402
0.234483 0.383148 0.103526
0.284545 0.385429 0.105643
0.334993 0.387705 0.107756
0.385722 0.389975 0.109865
0.436622 0.392240 0.111972
0.487581 0.394502 0.114076
0.538483 0.396760 0.116179
0.589214 0.399015 0.118280
0.639656 0.401268 0.120381
0.689692 0.403518 0.122481
0.739207 0.405766 0.124580
0.788083 0.408013 0.126678
0.836204 0.410257 0.128777
0.883453 0.412500 0.130875
0.094469 0.433202 0.104265
0.143126 0.435536 0.106422
0.192296 0.437850 0.108562
0.241990 0.440152 0.110693
0.292143 0.442445 0.112817
0.342662 0.444730 0.114937
0.393442 0.447011 0.117053
0.444374 0.449286 0.119166
0.495346 0.451557 0.121277
0.546242 0.453825 0.123386
0.596947 0.456089 0.125494
0.647344 0.458351 0.127601
0.697318 0.460609 0.129707
0.746751 0.462866 0.131812
0.795527 0.465120 0.133917
0.843528 0.467372 0.136022
0.890638 0.469622 0.138126
0.101602 0.490343 0.111430
0.150409 0.492682 0.113594
0.199706 0.495000 0.115741
0.249507 0.497305 0.117879
0.299748 0.499602 0.120009
0.350334 0.501891 0.122135
0.401163 0.504174 0.124258
0.452124 0.506453 0.126378
0.503105 0.508727 0.128495
0.553992 0.510996 0.130611
0.604669 0.513263 0.132725
0.655020 0.515526 0.134838
0.704927 0.517786 0.136951
0.754276 0.520044 0.139062
0.802948 0.522299 0.141173
0.850827 0.524551 0.143284
0.897797 0.526802 0.145394
0.108754 0.547481 0.118614
0.157707 0.549817 0.120785
0.207129 0.552132 0.122938
0.257035 0.554435 0.125082
0.307360 0.556728 0.127220
0.358011 0.559014 0.129352
0.408885 0.561293 0.131481
0.459873 0.563567 0.133607
0.510861 0.565837 0.135731
0.561735 0.568102 0.137853
0.612381 0.570363 0.139973
0.662682 0.572621 0.142093
0.712521 0.574876 0.144211
0.761781 0.577128 0.146329
0.810347 0.579376 0.148446
0.858102 0.581623 0.150563
0.904928 0.583866 0.152679
0.115926 0.604443 0.125816
0.165022 0.606770 0.127994
0.214565 0.609075 0.130154
0.264573 0.611367 0.132304
0.314979 0.613650 0.134448
0.365692 0.615925 0.136587
0.416609 0.618193 0.138722
0.467619 0.620456 0.140854
0.518612 0.622714 0.142984
0.569471 0.624968 0.145112
0.620083 0.627217 0.147239
0.670331 0.629463 0.149364
0.720098 0.631705 0.151489
0.769268 0.633944 0.153612
0.817725 0.636180 0.155735
0.865352 0.638413 0.157858
0.912032 0.640643 0.159980
0.123117 0.661057 0.133037
0.172353 0.663366 0.135221
0.222015 0.665654 0.137388
0.272121 0.667929 0.139544
0.322605 0.670194 0.141694
0.373378 0.672452 0.143839
0.424333 0.674702 0.145981
0.475364 0.676947 0.148119
0.526358 0.679186 0.150255
0.577199 0.681421 0.152389
0.627774 0.683651 0.154522
0.677966 0.685878 0.156653
0.727659 0.688100 0.158783
0.776736 0.690320 0.160912
0.825081 0.692535 0.163041
0.872578 0.694748 0.165169
0.919109 0.696958 0.167297
0.130327 0.717147 0.140276
0.179699 0.719432 0.142467
0.229477 0.721697 0.144639
0.279678 0.723947 0.146802
0.330239 0.726188 0.148958
0.381067 0.728420 0.151110
0.432059 0.730645 0.153257
0.483107 0.732865 0.155401
0.534099 0.735079 0.157543
0.584920 0.737288 0.159683
0.635455 0.739492 0.161821
0.685589 0.741693 0.163958
0.735204 0.743889 0.166094
0.784185 0.746081 0.168229
0.832416 0.748270 0.170364
0.879779 0.750456 0.172497
0.926158 0.752638 0.174631
0.137555 0.772542 0.147534
0.187061 0.774796 0.149730
0.236952 0.777029 0.151909
0.287246 0.779248 0.154078
0.337879 0.781457 0.156240
0.388760 0.783657 0.158397
0.439786 0.785850 0.160550
0.490848 0.788037 0.162700
0.541835 0.790219 0.164848
0.592633 0.792395 0.166993
0.643125 0.794567 0.169137
0.693197 0.796734 0.171280
0.742733 0.798897 0.173422
0.791615 0.801056 0.175562
0.839728 0.803211 0.177702
0.886955 0.805362 0.179841
0.933179 0.807510 0.181980
0.144802 0.827068 0.154808
0.194439 0.829283 0.157011
0.244439 0.831477 0.159196
0.294822 0.833657 0.161371
0.345525 0.835828 0.163539
0.396456 0.837989 0.165702
0.447513 0.840143 0.167860
0.498587 0.842291 0.170016
0.549567 0.844433 0.172169
0.600337 0.846570 0.174321
0.650785 0.848702 0.176470
0.700792 0.850829 0.178618
0.750245 0.852951 0.180765
0.799025 0.855069 0.182911
0.847018 0.857184 0.185057
0.894106 0.859294 0.187201
0.940173 0.861400 0.189345
0.152067 0.880551 0.162101
0.201831 0.882720 0.164309
0.251938 0.884869 0.166500
0.302408 0.887003 0.168681
0.353178 0.889128 0.170854
0.404156 0.891243 0.173023
0.455241 0.893352 0.175187
0.506324 0.895453 0.177349
0.557293 0.897549 0.179507
0.608034 0.899639 0.181664
0.658433 0.901723 0.183819
0.708373 0.903803 0.185973
0.757740 0.905878 0.188125
0.806416 0.907949 0.190276
0.854285 0.910016 0.192427
0.901231 0.912078 0.194577
0.947138 0.914136 0.196726
0.159349 0.932818 0.169411
0.209239 0.934934 0.171625
0.259450 0.937030 0.173821
0.310003 0.939112 0.176008
0.360836 0.941184 0.178187
0.411859 0.943246 0.180361
0.462969 0.945301 0.182531
0.514057 0.947350 0.184698
0.565013 0.949392 0.186862
0.615722 0.951428 0.189024
0.666069 0.953459 0.191184
0.715940 0.955485 0.193343
0.765218 0.957506 0.195500
0.813787 0.959522 0.197657
0.861530 0.961534 0.199812
0.908331 0.963542 0.201967
0.954075 0.965545 0.204122
0.045746 0.048223 0.100971
0.093290 0.050321 0.103124
0.141493 0.052403 0.105262
0.190362 0.054475 0.107389
0.239829 0.056542 0.109510
0.289798 0.058604 0.111626
0.340164 0.060664 0.113739
0.390815 0.062721 0.115849
0.441639 0.064776 0.117958
0.492519 0.066830 0.120064
0.543340 0.068883 0.122169
0.593984 0.070936 0.124273
0.644335 0.072988 0.126376
0.694276 0.075039 0.128478
0.743688 0.077091 0.130580
0.792456 0.079142 0.132682
0.840462 0.081194 0.134784
0.052769 0.100663 0.108191
0.100485 0.102816 0.110352
0.148837 0.104953 0.112496
0.197836 0.107080 0.114630
0.247412 0.109201 0.116758
0.297469 0.111317 0.118881
0.347904 0.113430 0.121001
0.398605 0.115540 0.123117
0.449459 0.117647 0.125232
0.500350 0.119754 0.127345
0.551163 0.121858 0.129456
0.601780 0.123962 0.131567
0.652085 0.126065 0.133676
0.701960 0.128167 0.135785
0.751288 0.130269 0.137893
0.799953 0.132370 0.140001
0.847836 0.134472 0.142109
0.059800 0.154243 0.115414
0.107683 0.156445 0.117582
0.156182 0.158630 0.119733
0.205306 0.160804 0.121874
0.254987 0.162972 0.124008
0.305131 0.165134 0.126138
0.355631 0.167293 0.128264
0.406379 0.169448 0.130387
0.457260 0.171601 0.132508
0.508159 0.173752 0.134627
0.558961 0.175901 0.136745
0.609548 0.178048 0.138862
0.659803 0.180195 0.140977
0.709610 0.182341 0.143092
0.758852 0.184486 0.145207
0.807411 0.186630 0.147321
0.855170 0.188773 0.149435
0.066845 0.208832 0.122647
0.114892 0.211075 0.124822
0.163534 0.213300 0.126979
0.212781 0.215514 0.129127
0.262564 0.217721 0.131268
0.312790 0.219922 0.133404
0.363353 0.222119 0.135536
0.414145 0.224313 0.137666
0.465050 0.226504 0.139793
0.515954 0.228692 0.141918
0.566741 0.230878 0.144042
0.617295 0.233063 0.146165
0.667499 0.235246 0.148287
0.717235 0.237428 0.150408
0.766387 0.239609 0.152528
0.814837 0.241789 0.154648
0.862469 0.243968 0.156768
0.073906 0.264269 0.129893
0.122114 0.266546 0.132074
0.170896 0.268804 0.134238
0.220262 0.271051 0.136392
0.270144 0.273290 0.138540
0.320450 0.275523 0.140682
0.371073 0.277752 0.142821
0.421905 0.279976 0.144956
0.472831 0.282198 0.147090
0.523738 0.284417 0.149221
0.574508 0.286633 0.151351
0.625026 0.288848 0.153480
0.675175 0.291060 0.155607
0.724837 0.293271 0.157734
0.773897 0.295481 0.159861
0.822236 0.297690 0.161986
0.869738 0.299897 0.164112
0.080984 0.320389 0.137154
0.129351 0.322692 0.139341
0.178269 0.324976 0.141511
0.227751 0.327249 0.143672
0.277730 0.329513 0.145825
0.328112 0.331771 0.147973
0.378793 0.334024 0.150118
0.429662 0.336272 0.152260
0.480606 0.338518 0.154399
0.531512 0.340760 0.156537
0.582263 0.342999 0.158672
0.632742 0.345236 0.160807
0.682833 0.347472 0.162941
0.732419 0.349705 0.165073
0.781383 0.351936 0.167205
0.829608 0.354166 0.169337
0.876978 0.356395 0.171468
0.088082 0.377022 0.144429
0.136603 0.379344 0.146623
0.185655 0.381647 0.148799
0.235251 0.383937 0.150965
0.285322 0.386220 0.153125
0.335778 0.388495 0.155279
0.386512 0.390765 0.157430
0.437416 0.393031 0.159578
0.488376 0.395293 0.161723
0.539278 0.397551 0.163866
0.590006 0.399807 0.166008
0.640443 0.402059 0.168148
0.690474 0.404310 0.170287
0.739980 0.406558 0.172425
0.788846 0.408804 0.174563
0.836955 0.411049 0.176700
0.884189 0.413292 0.178836
0.095198 0.433996 0.151719
0.143872 0.436330 0.153919
0.193054 0.438644 0.156102
0.242759 0.440946 0.158274
0.292922 0.443238 0.160440
0.343447 0.445524 0.162600
0.394233 0.447805 0.164756
0.445168 0.450080 0.166910
0.496141 0.452351 0.169061
0.547036 0.454619 0.171210
0.597738 0.456884 0.173357
0.648131 0.459145 0.175503
0.698098 0.461404 0.177647
0.747523 0.463660 0.179791
0.796288 0.465914 0.181934
0.844277 0.468166 0.184076
0.891373 0.470416 0.186218
0.102334 0.491138 0.159026
0.151156 0.493477 0.161232
0.200466 0.495795 0.163420
0.250278 0.498100 0.165598
0.300528 0.500397 0.167769
0.351121 0.502686 0.169935
0.401954 0.504969 0.172098
0.452918 0.507248 0.174257
0.503900 0.509522 0.176413
0.554786 0.511791 0.178568
0.605460 0.514058 0.180720
0.655805 0.516321 0.182871
0.705706 0.518581 0.185022
0.755046 0.520839 0.187171
0.803707 0.523094 0.189319
0.851574 0.525346 0.191467
0.898529 0.527596 0.193614
0.109489 0.548275 0.166348
0.158457 0.550611 0.168559
0.207891 0.552926 0.170754
0.257808 0.555229 0.172937
0.308141 0.557522 0.175114
0.358799 0.559807 0.177286
0.409677 0.562087 0.179454
0.460667 0.564361 0.181618
0.511656 0.566630 0.183780
0.562529 0.568895 0.185940
0.613171 0.571156 0.188098
0.663467 0.573414 0.190255
0.713298 0.575669 0.192410
0.762550 0.577920 0.194564
0.811105 0.580169 0.196718
0.858846 0.582415 0.198871
0.905658 0.584659 0.201023
0.116663 0.605234 0.173685
0.165773 0.607560 0.175903
0.215329 0.609866 0.178102
0.265347 0.612158 0.180292
0.315761 0.614440 0.182474
0.366480 0.616715 0.184652
0.417401 0.618983 0.186825
0.468414 0.621246 0.188994
0.519406 0.623504 0.191162
0.570264 0.625757 0.193327
0.620872 0.628006 0.195490
0.671115 0.630251 0.197652
0.720874 0.632493 0.199812
0.770035 0.634732 0.201972
0.818481 0.636968 0.204130
0.866094 0.639200 0.206288
0.912759 0.641430 0.208445
0.123856 0.661842 0.181038
0.173106 0.664151 0.183261
0.222780 0.666439 0.185467
0.272896 0.668714 0.187662
0.323389 0.670978 0.189849
0.374166 0.673235 0.192032
0.425126 0.675485 0.194210
0.476159 0.677730 0.196385
0.527152 0.679969 0.198558
0.577992 0.682203 0.200728
0.628563 0.684433 0.202896
0.678749 0.686660 0.205063
0.728434 0.688882 0.207229
0.777502 0.691101 0.209393
0.825835 0.693316 0.211557
0.873318 0.695529 0.213719
0.919833 0.697738 0.215881
0.131068 0.717924 0.188406
0.180454 0.720209 0.190635
0.230244 0.722473 0.192846
0.280455 0.724723 0.195046
0.331023 0.726963 0.197239
0.381856 0.729195 0.199427
0.432853 0.731420 0.201610
0.483902 0.733639 0.203791
0.534894 0.735853 0.205968
0.585712 0.738061 0.208143
0.636243 0.740265 0.210317
0.686370 0.742465 0.212488
0.735978 0.744661 0.214659
0.784949 0.746853 0.216828
0.833168 0.749041 0.218996
0.880517 0.751226 0.221164
0.926880 0.753408 0.223330
0.138298 0.773308 0.195790
0.187818 0.775562 0.198024
0.237720 0.777794 0.200240
0.288023 0.780013 0.202445
0.338664 0.782221 0.204643
0.389550 0.784421 0.206836
0.440580 0.786614 0.209025
0.491643 0.788800 0.211210
0.542630 0.790981 0.213392
0.593424 0.793157 0.215572
0.643913 0.795328 0.217751
0.693978 0.797495 0.219927
0.743505 0.799657 0.222102
0.792377 0.801815 0.224276
0.840478 0.803970 0.226449
0.887690 0.806121 0.228621
0.933899 0.808268 0.230792
0.145547 0.827821 0.203188
0.195198 0.830035 0.205427
0.245209 0.832229 0.207648
0.295601 0.834409 0.209859
0.346311 0.836578 0.212062
0.397247 0.838739 0.214260
0.448307 0.840893 0.216453
0.499382 0.843040 0.218643
0.550361 0.845182 0.220830
0.601129 0.847318 0.223015
0.651571 0.849449 0.225198
0.701572 0.851575 0.227379
0.751016 0.853697 0.229559
0.799786 0.855815 0.231738
0.847766 0.857928 0.233915
0.894839 0.860038 0.236092
0.940890 0.862144 0.238267
0.152814 0.881288 0.210601
0.202592 0.883457 0.212845
0.252710 0.885605 0.215071
0.303188 0.887739 0.217287
0.353965 0.889863 0.219495
0.404948 0.891978 0.221697
0.456035 0.894085 0.223895
0.507119 0.896186 0.226090
0.558086 0.898281 0.228282
0.608824 0.900370 0.230472
0.659218 0.902454 0.232659
0.709152 0.904533 0.234845
0.758509 0.906608 0.237029
0.807174 0.908678 0.239212
0.855031 0.910744 0.241394
0.901962 0.912805 0.243575
0.947852 0.914863 0.245755
0.160099 0.933537 0.218028
0.210001 0.935653 0.220277
0.260222 0.937748 0.222508
0.310784 0.939829 0.224728
0.361624 0.941900 0.226941
0.412651 0.943962 0.229148
0.463763 0.946016 0.231351
0.514852 0.948064 0.233551
0.565806 0.950105 0.235747
0.616512 0.952141 0.237941
0.666854 0.954171 0.240133
0.716717 0.956196 0.242323
0.765986 0.958216 0.244511
0.814543 0.960232 0.246699
0.862273 0.962243 0.248885
0.909060 0.964249 0.251070
0.954787 0.966252 0.253254
0.046463 0.048941 0.148724
0.094025 0.051040 0.150922
0.142243 0.053122 0.153102
0.191126 0.055196 0.155272
0.240604 0.057263 0.157435
0.290582 0.059327 0.159593
0.340955 0.061387 0.161747
0.391612 0.063445 0.163898
0.442439 0.065501 0.166046
0.493320 0.067556 0.168193
0.544140 0.069609 0.170338
0.594782 0.071663 0.172481
0.645128 0.073715 0.174624
0.695062 0.075768 0.176765
0.744466 0.077820 0.178906
0.793224 0.079872 0.181046
0.841217 0.081924 0.183186
0.053489 0.101400 0.156089
0.101222 0.103555 0.158293
0.149590 0.105692 0.160479
0.198601 0.107820 0.162655
0.248188 0.109941 0.164824
0.298255 0.112058 0.166988
0.348696 0.114172 0.169147
0.399402 0.116282 0.171304
0.450259 0.118390 0.173458
0.501151 0.120497 0.175611
0.551963 0.122603 0.177761
0.602577 0.124707 0.179910
0.652877 0.126810 0.182058
0.702745 0.128913 0.184205
0.752065 0.131016 0.186351
0.800718 0.133118 0.188497
0.848590 0.135220 0.190642
0.060523 0.154997 0.163454
0.108423 0.157200 0.165664
0.156936 0.159385 0.167855
0.206074 0.161560 0.170037
0.255765 0.163728 0.172212
0.305917 0.165891 0.174381
0.356425 0.168050 0.176547
0.407177 0.170206 0.178709
0.458060 0.172360 0.180869
0.508960 0.174511 0.183027
0.559760 0.176661 0.185183
0.610344 0.178809 0.187337
0.660594 0.180956 0.189490
0.710394 0.183102 0.191643
0.759627 0.185248 0.193794
0.808175 0.187392 0.195945
0.855921 0.189537 0.198095
0.067570 0.209600 0.170825
0.115634 0.211843 0.173041
0.164290 0.214069 0.175238
0.213550 0.216284 0.177426
0.263343 0.218491 0.179606
0.313578 0.220693 0.181781
0.364147 0.222890 0.183952
0.414943 0.225084 0.186120
0.465850 0.227276 0.188285
0.516755 0.229465 0.190448
0.567541 0.231651 0.192609
0.618091 0.233836 0.194769
0.668289 0.236020 0.196928
0.718018 0.238202 0.199085
0.767160 0.240384 0.201242
0.815599 0.242564 0.203398
0.863218 0.244744 0.205553
0.074633 0.265049 0.178206
0.122859 0.267326 0.180427
0.171654 0.269584 0.182631
0.221032 0.271832 0.184824
0.270925 0.274071 0.187009
0.321239 0.276305 0.189190
0.371868 0.278534 0.191366
0.422704 0.280759 0.193539
0.473632 0.282981 0.195710
0.524539 0.285200 0.197878
0.575307 0.287417 0.200044
0.625821 0.289632 0.202209
0.675964 0.291845 0.204373
0.725619 0.294056 0.206535
0.774668 0.296266 0.208697
0.822996 0.298475 0.210858
0.870485 0.300683 0.213018
0.081715 0.321178 0.185599
0.130098 0.323482 0.187825
0.179030 0.325766 0.190034
0.228524 0.328038 0.192232
0.278512 0.330303 0.194423
0.328902 0.332561 0.196609
0.379588 0.334814 0.198790
0.430461 0.337063 0.200969
0.481407 0.339309 0.203144
0.532313 0.341551 0.205318
0.583061 0.343791 0.207489
0.633536 0.346028 0.209659
0.683621 0.348264 0.211827
0.733199 0.350497 0.213995
0.782153 0.352729 0.216161
0.830366 0.354959 0.218327
0.877722 0.357188 0.220492
0.088815 0.377817 0.193003
0.137352 0.380140 0.195235
0.186418 0.382443 0.197449
0.236025 0.384733 0.199652
0.286106 0.387016 0.201848
0.336569 0.389291 0.204039
0.387308 0.391562 0.206226
0.438216 0.393828 0.208409
0.489177 0.396090 0.210590
0.540078 0.398348 0.212768
0.590804 0.400604 0.214944
0.641237 0.402857 0.217119
0.691261 0.405107 0.219293
0.740759 0.407356 0.221465
0.789615 0.409602 0.223636
0.837711 0.411847 0.225806
0.884931 0.414090 0.227976
0.095934 0.434795 0.200419
0.144623 0.437129 0.202656
0.193818 0.439444 0.204876
0.243535 0.441745 0.207084
0.293706 0.444038 0.209285
0.344239 0.446324 0.211481
0.395029 0.448605 0.213673
0.445968 0.450880 0.215861
0.496942 0.453152 0.218047
0.547836 0.455419 0.220230
0.598535 0.457684 0.222411
0.648924 0.459946 0.224590
0.698884 0.462204 0.226768
0.748300 0.464461 0.228945
0.797054 0.466715 0.231121
0.845031 0.468967 0.233296
0.892113 0.471217 0.235470
0.103072 0.491939 0.207848
0.151909 0.494278 0.210091
0.201232 0.496596 0.212315
0.251055 0.498901 0.214528
0.301313 0.501198 0.216735
0.351913 0.503487 0.218935
0.402752 0.505771 0.221132
0.453719 0.508049 0.223325
0.504702 0.510323 0.225515
0.555586 0.512592 0.227703
0.606257 0.514859 0.229888
0.656597 0.517122 0.232073
0.706491 0.519382 0.234255
0.755822 0.521640 0.236436
0.804472 0.523894 0.238617
0.852326 0.526147 0.240796
0.899266 0.528397 0.242974
0.110229 0.549075 0.215290
0.159212 0.551411 0.217537
0.208659 0.553726 0.219766
0.258586 0.556029 0.221985
0.308928 0.558322 0.224196
0.359592 0.560607 0.226401
0.410475 0.562886 0.228603
0.461467 0.565160 0.230800
0.512457 0.567429 0.232995
0.563329 0.569694 0.235187
0.613967 0.571955 0.237378
0.664257 0.574213 0.239566
0.714082 0.576468 0.241753
0.763324 0.578719 0.243939
0.811868 0.580968 0.246123
0.859596 0.583214 0.248307
0.906393 0.585457 0.250490
0.117406 0.606031 0.222744
0.166530 0.608357 0.224997
0.216098 0.610662 0.227231
0.266127 0.612954 0.229454
0.316549 0.615236 0.231669
0.367275 0.617511 0.233879
0.418200 0.619779 0.236085
0.469215 0.622041 0.238287
0.520207 0.624299 0.240487
0.571064 0.626552 0.242683
0.621668 0.628801 0.244878
0.671904 0.631046 0.247071
0.721657 0.633288 0.249262
0.770808 0.635526 0.251452
0.819242 0.637762 0.253641
0.866842 0.639994 0.255828
0.913492 0.642224 0.258015
0.124601 0.662633 0.230211
0.173865 0.664941 0.232468
0.223551 0.667229 0.234707
0.273677 0.669504 0.236935
0.324178 0.671768 0.239155
0.374962 0.674025 0.241369
0.425925 0.676275 0.243579
0.476960 0.678519 0.245786
0.527953 0.680757 0.247990
0.578791 0.682992 0.250191
0.629358 0.685221 0.252389
0.679538 0.687447 0.254586
0.729215 0.689669 0.256782
0.778273 0.691888 0.258976
0.826594 0.694103 0.261169
0.874064 0.696315 0.263360
0.920563 0.698524 0.265551
0.131815 0.718707 0.237691
0.181215 0.720991 0.239952
0.231017 0.723255 0.242195
0.281237 0.725504 0.244427
0.331813 0.727744 0.246652
0.382652 0.729976 0.248871
0.433652 0.732200 0.251085
0.484703 0.734419 0.253296
0.535694 0.736632 0.255504
0.586511 0.738840 0.257709
0.637037 0.741044 0.259912
0.687158 0.743243 0.262113
0.736757 0.745439 0.264312
0.785718 0.747630 0.266510
0.833925 0.749818 0.268707
0.881260 0.752003 0.270903
0.927607 0.754184 0.273098
0.139048 0.774080 0.245182
0.188581 0.776333 0.247448
0.238495 0.778565 0.249695
0.288807 0.780783 0.251932
0.339455 0.782991 0.254161
0.390347 0.785190 0.256384
0.441379 0.787383 0.258603
0.492445 0.789569 0.260817
0.543430 0.791749 0.263029
0.594222 0.793925 0.265238
0.644706 0.796095 0.267445
0.694765 0.798261 0.269650
0.744283 0.800423 0.271854
0.793145 0.802581 0.274056
0.841233 0.804735 0.276256
0.888431 0.806885 0.278456
0.934624 0.809032 0.280654
0.146299 0.828580 0.252685
0.195963 0.830794 0.254956
0.245985 0.832987 0.257207
0.296386 0.835166 0.259448
0.347103 0.837335 0.261681
0.398044 0.839495 0.263908
0.449107 0.841648 0.266131
0.500183 0.843795 0.268350
0.551161 0.845936 0.270565
0.601926 0.848071 0.272779
0.652363 0.850202 0.274989
0.702357 0.852327 0.277198
0.751792 0.854449 0.279405
0.800552 0.856566 0.281611
0.848519 0.858679 0.283815
0.895578 0.860788 0.286018
0.941612 0.862893 0.288220
0.153568 0.882031 0.260200
0.203359 0.884199 0.262475
0.253487 0.886347 0.264731
0.303975 0.888480 0.266975
0.354758 0.890603 0.269212
0.405745 0.892717 0.271444
0.456835 0.894824 0.273670
0.507920 0.896924 0.275893
0.558886 0.899018 0.278112
0.609621 0.901107 0.280329
0.660010 0.903190 0.282544
0.709936 0.905269 0.284756
0.759284 0.907342 0.286967
0.807939 0.909412 0.289176
0.855782 0.911477 0.291384
0.902699 0.913538 0.293590
0.948572 0.915595 0.295796
0.160855 0.934262 0.267726
0.210770 0.936377 0.270005
0.261001 0.938472 0.272265
0.311572 0.940552 0.274514
0.362418 0.942622 0.276754
0.413449 0.944683 0.278989
0.464564 0.946737 0.281220
0.515653 0.948783 0.283446
0.566606 0.950824 0.285669
0.617308 0.952859 0.287890
0.667644 0.954888 0.290108
0.717500 0.956912 0.292324
0.766759 0.958932 0.294538
0.815306 0.960946 0.296751
0.863022 0.962956 0.298962
0.909794 0.964962 0.301172
0.955503 0.966964 0.303381
0.047184 0.049664 0.197618
0.094763 0.051763 0.199854
0.142997 0.053846 0.202071
0.191894 0.055920 0.204278
0.241383 0.057989 0.206477
0.291371 0.060053 0.208671
0.341751 0.062114 0.210861
0.392413 0.064172 0.213047
0.443242 0.066229 0.215231
0.494125 0.068285 0.217412
0.544945 0.070339 0.219591
0.595584 0.072393 0.221769
0.645925 0.074447 0.223945
0.695853 0.076500 0.226120
0.745248 0.078553 0.228295
0.793995 0.080606 0.230468
0.841976 0.082659 0.232640
