assets/luts/temple_ash.cube
# Храмовый пепел — известняк, камень, пустыня
TITLE "temple_ash"
LUT_3D_SIZE 9
DOMAIN_MIN 0.0 0.0 0.0
DOMAIN_MAX 1.0 1.0 1.0
0.045034 0.047511 0.054589
0.140748 0.051688 0.058783
0.239060 0.055826 0.062937
0.339379 0.059946 0.067072
0.440845 0.064057 0.071199
0.542546 0.068163 0.075319
0.643548 0.072266 0.079437
0.742916 0.076367 0.083553
0.839712 0.080469 0.087669
0.059083 0.153495 0.068711
0.155433 0.157881 0.072935
0.254215 0.162221 0.077119
0.354844 0.166541 0.081285
0.456466 0.170848 0.085441
0.558167 0.175147 0.089590
0.659018 0.179440 0.093736
0.758082 0.183729 0.097881
0.854424 0.188016 0.102025
0.073183 0.263495 0.082880
0.170143 0.268029 0.087135
0.269370 0.272515 0.091348
0.370285 0.276976 0.095542
0.472037 0.281421 0.099726
0.573715 0.285856 0.103904
0.674391 0.290282 0.108078
0.773130 0.294702 0.112249
0.868997 0.299117 0.116420
0.087355 0.376233 0.097119
0.184899 0.380857 0.101402
0.284545 0.385429 0.105643
0.385722 0.389975 0.109865
0.487581 0.394502 0.114076
0.589214 0.399015 0.118280
0.689692 0.403518 0.122481
0.788083 0.408013 0.126678
0.883453 0.412500 0.130875
0.101602 0.490343 0.111430
0.199706 0.495000 0.115741
0.299748 0.499602 0.120009
0.401163 0.504174 0.124258
0.503105 0.508727 0.128495
0.604669 0.513263 0.132725
0.704927 0.517786 0.136951
0.802948 0.522299 0.141173
0.897797 0.526802 0.145394
0.115926 0.604443 0.125816
0.214565 0.609075 0.130154
0.314979 0.613650 0.134448
0.416609 0.618193 0.138722
0.518612 0.622714 0.142984
0.620083 0.627217 0.147239
0.720098 0.631705 0.151489
0.817725 0.636180 0.155735
0.912032 0.640643 0.159980
0.130327 0.717147 0.140276
0.229477 0.721697 0.144639
0.330239 0.726188 0.148958
0.432059 0.730645 0.153257
0.534099 0.735079 0.157543
0.635455 0.739492 0.161821
0.735204 0.743889 0.166094
0.832416 0.748270 0.170364
0.926158 0.752638 0.174631
0.144802 0.827068 0.154808
0.244439 0.831477 0.159196
0.345525 0.835828 0.163539
0.447513 0.840143 0.167860
0.549567 0.844433 0.172169
0.650785 0.848702 0.176470
0.750245 0.852951 0.180765
0.847018 0.857184 0.185057
0.940173 0.861400 0.189345
0.159349 0.932818 0.169411
0.259450 0.937030 0.173821
0.360836 0.941184 0.178187
0.462969 0.945301 0.182531
0.565013 0.949392 0.186862
0.666069 0.953459 0.191184
0.765218 0.957506 0.195500
0.861530 0.961534 0.199812
0.954075 0.965545 0.204122
0.046463 0.048941 0.148724
0.142243 0.053122 0.153102
0.240604 0.057263 0.157435
0.340955 0.061387 0.161747
0.442439 0.065501 0.166046
0.544140 0.069609 0.170338
0.645128 0.073715 0.174624
0.744466 0.077820 0.178906
0.841217 0.081924 0.183186
0.060523 0.154997 0.163454
0.156936 0.159385 0.167855
0.255765 0.163728 0.172212
0.356425 0.168050 0.176547
0.458060 0.172360 0.180869
0.559760 0.176661 0.185183
0.660594 0.180956 0.189490
0.759627 0.185248 0.193794
0.855921 0.189537 0.198095
0.074633 0.265049 0.178206
0.171654 0.269584 0.182631
0.270925 0.274071 0.187009
0.371868 0.278534 0.191366
0.473632 0.282981 0.195710
0.575307 0.287417 0.200044
0.675964 0.291845 0.204373
0.774668 0.296266 0.208697
0.870485 0.300683 0.213018
0.088815 0.377817 0.193003
0.186418 0.382443 0.197449
0.286106 0.387016 0.201848
0.387308 0.391562 0.206226
0.489177 0.396090 0.210590
0.590804 0.400604 0.214944
0.691261 0.405107 0.219293
0.789615 0.409602 0.223636
0.884931 0.414090 0.227976
0.103072 0.491939 0.207848
0.201232 0.496596 0.212315
0.301313 0.501198 0.216735
0.402752 0.505771 0.221132
0.504702 0.510323 0.225515
0.606257 0.514859 0.229888
0.706491 0.519382 0.234255
0.804472 0.523894 0.238617
0.899266 0.528397 0.242974
0.117406 0.606031 0.222744
0.216098 0.610662 0.227231
0.316549 0.615236 0.231669
0.418200 0.619779 0.236085
0.520207 0.624299 0.240487
0.621668 0.628801 0.244878
0.721657 0.633288 0.249262
0.819242 0.637762 0.253641
0.913492 0.642224 0.258015
0.131815 0.718707 0.237691
0.231017 0.723255 0.242195
0.331813 0.727744 0.246652
0.433652 0.732200 0.251085
0.535694 0.736632 0.255504
0.637037 0.741044 0.259912
0.736757 0.745439 0.264312
0.833925 0.749818 0.268707
0.927607 0.754184 0.273098
0.146299 0.828580 0.252685
0.245985 0.832987 0.257207
0.347103 0.837335 0.261681
0.449107 0.841648 0.266131
0.551161 0.845936 0.270565
0.652363 0.850202 0.274989
0.751792 0.854449 0.279405
0.848519 0.858679 0.283815
0.941612 0.862893 0.288220
0.160855 0.934262 0.267726
0.261001 0.938472 0.272265
0.362418 0.942622 0.276754
0.464564 0.946737 0.281220
0.566606 0.950824 0.285669
0.667644 0.954888 0.290108
0.766759 0.958932 0.294538
0.863022 0.962956 0.298962
0.955503 0.966964 0.303381
0.047908 0.050389 0.247473
0.143755 0.054573 0.251989
0.242165 0.058717 0.256457
0.342549 0.062844 0.260901
0.444049 0.066961 0.265331
0.545752 0.071072 0.269749
0.646725 0.075181 0.274160
0.746033 0.079289 0.278565
0.842738 0.083397 0.282965
0.061979 0.156517 0.262660
0.158457 0.160907 0.267194
0.257332 0.165252 0.271678
0.358022 0.169577 0.276138
0.459672 0.173888 0.280583
0.561371 0.178192 0.285016
0.662187 0.182489 0.289442
0.761187 0.186783 0.293861
0.857433 0.191074 0.298276
0.076100 0.266619 0.277845
0.173183 0.271157 0.282394
0.272498 0.275645 0.286893
0.373469 0.280109 0.291368
0.475245 0.284558 0.295828
0.576916 0.288995 0.300275
0.677553 0.293425 0.304715
0.776222 0.297847 0.309147
0.871988 0.302265 0.313575
0.090292 0.379419 0.293049
0.187954 0.384045 0.297612
0.287684 0.388619 0.302126
0.388912 0.393166 0.306615
0.490790 0.397695 0.311087
0.592410 0.402210 0.315548
0.692845 0.406714 0.320000
0.791162 0.411209 0.324445
0.886425 0.415698 0.328885
0.104559 0.493552 0.308278
0.202775 0.498209 0.312855
0.302896 0.502811 0.317381
0.404358 0.507384 0.321883
0.506315 0.511936 0.326368
0.607861 0.516472 0.330841
0.708071 0.520995 0.335304
0.806012 0.525507 0.339761
0.900751 0.530010 0.344211
0.118902 0.607635 0.323533
0.217649 0.612266 0.328123
0.318137 0.616839 0.332661
0.419808 0.621381 0.337175
0.521820 0.625900 0.341671
0.623270 0.630401 0.346155
0.723231 0.634887 0.350629
0.820775 0.639360 0.355096
0.914966 0.643821 0.359556
0.133321 0.720283 0.338815
0.232574 0.724829 0.343416
0.333405 0.729317 0.347966
0.435262 0.733771 0.352489
0.537306 0.738201 0.356996
0.638636 0.742612 0.361489
0.738327 0.747005 0.365973
0.835449 0.751383 0.370449
0.929071 0.755747 0.374919
0.147813 0.830107 0.354121
0.247548 0.834512 0.358733
0.348699 0.838857 0.363292
0.450718 0.843169 0.367826
0.552772 0.847453 0.372341
0.653958 0.851717 0.376844
0.753356 0.855961 0.381336
0.850035 0.860189 0.385821
0.943065 0.864401 0.390298
0.162377 0.935722 0.369451
0.262570 0.939927 0.374071
0.364017 0.944075 0.378640
0.466176 0.948186 0.383182
0.568215 0.952270 0.387705
0.669236 0.956331 0.392216
0.768317 0.960371 0.396716
0.864530 0.964393 0.401207
0.956946 0.968397 0.405692
0.049363 0.051846 0.349429
0.145276 0.056033 0.354037
0.243736 0.060181 0.358594
0.344153 0.064311 0.363124
0.445670 0.068431 0.367637
0.547373 0.072546 0.372137
0.648332 0.076658 0.376627
0.747608 0.080768 0.381109
0.844266 0.084879 0.385584
0.063445 0.158046 0.364917
0.159987 0.162439 0.369535
0.258910 0.166786 0.374101
0.359630 0.171113 0.378641
0.461294 0.175427 0.383162
0.562991 0.179733 0.387670
0.663790 0.184033 0.392168
0.762756 0.188329 0.396658
0.858953 0.192622 0.401140
0.077577 0.268200 0.380377
0.174721 0.272739 0.385004
0.274081 0.277229 0.389578
0.375080 0.281695 0.394125
0.476867 0.286145 0.398654
0.578534 0.290584 0.403170
0.679151 0.295015 0.407674
0.777785 0.299439 0.412170
0.873499 0.303858 0.416659
0.091779 0.381031 0.395832
0.189500 0.385658 0.400466
0.289272 0.390233 0.405048
0.390526 0.394780 0.409602
0.492413 0.399310 0.414137
0.594027 0.403825 0.418659
0.694439 0.408330 0.423169
0.792718 0.412827 0.427670
0.887927 0.417315 0.432164
0.106056 0.495175 0.411288
0.204329 0.499832 0.415929
0.304489 0.504434 0.420516
0.405974 0.509007 0.425076
0.507938 0.513559 0.429617
0.609475 0.518095 0.434143
0.709660 0.522618 0.438659
0.807560 0.527130 0.443164
0.902243 0.531632 0.447662
0.120408 0.609249 0.426747
0.219209 0.613879 0.431393
0.319734 0.618451 0.435985
0.421426 0.622992 0.440550
0.523443 0.627511 0.445095
0.624881 0.632011 0.449625
0.724815 0.636496 0.454144
0.822315 0.640968 0.458654
0.916449 0.645428 0.463154
0.134836 0.721868 0.442208
0.234141 0.726412 0.446858
0.335006 0.730899 0.451455
0.436882 0.735351 0.456023
0.538928 0.739780 0.460571
0.640244 0.744188 0.465105
0.739905 0.748580 0.469626
0.836982 0.752956 0.474138
0.930543 0.757318 0.478641
0.149337 0.831643 0.457670
0.249122 0.836045 0.462324
0.350304 0.840388 0.466923
0.452340 0.844697 0.471493
0.554393 0.848980 0.476044
0.655563 0.853240 0.480580
0.754928 0.857482 0.485103
0.851560 0.861707 0.489616
0.944526 0.865917 0.494120
0.163910 0.937188 0.473131
0.264150 0.941391 0.477787
0.365626 0.945535 0.482388
0.467798 0.949643 0.486960
0.569835 0.953724 0.491512
0.670836 0.957782 0.496049
0.769883 0.961819 0.500573
0.866046 0.965837 0.505086
0.958396 0.969838 0.509590
0.050826 0.053310 0.453381
0.146806 0.057501 0.458034
0.245315 0.061652 0.462633
0.345765 0.065785 0.467203
0.447298 0.069908 0.471753
0.549002 0.074026 0.476288
0.649944 0.078141 0.480811
0.749190 0.082255 0.485323
0.845801 0.086368 0.489827
0.064919 0.159583 0.469010
0.161525 0.163978 0.473665
0.260494 0.168328 0.478266
0.361245 0.172657 0.482838
0.462923 0.176974 0.487390
0.564618 0.181281 0.491926
0.665399 0.185584 0.496450
0.764331 0.189882 0.500963
0.860479 0.194177 0.505467
0.079062 0.269788 0.484587
0.176267 0.274329 0.489243
0.275671 0.278821 0.493845
0.376698 0.283288 0.498418
0.478497 0.287739 0.502970
0.580159 0.292180 0.507506
0.680756 0.296612 0.512030
0.779354 0.301038 0.516543
0.875016 0.305458 0.521046
0.093274 0.382651 0.500134
0.191054 0.387278 0.504791
0.290868 0.391854 0.509393
0.392147 0.396402 0.513965
0.494043 0.400932 0.518517
0.595650 0.405448 0.523052
0.696040 0.409954 0.527575
0.794279 0.414451 0.532086
0.889435 0.418940 0.536588
0.107560 0.496805 0.515658
0.205890 0.501462 0.520314
0.306090 0.506064 0.524915
0.407597 0.510637 0.529486
0.509568 0.515188 0.534036
0.611096 0.519724 0.538570
0.711255 0.524247 0.543090
0.809115 0.528759 0.547599
0.903741 0.533261 0.552098
0.121922 0.610870 0.531161
0.220777 0.615499 0.535815
0.321339 0.620071 0.540414
0.423051 0.624611 0.544983
0.525072 0.629128 0.549530
0.626499 0.633627 0.554061
0.726405 0.638111 0.558578
0.823862 0.642582 0.563083
0.917936 0.647041 0.567578
0.136359 0.723459 0.546642
0.235715 0.728002 0.551294
0.336615 0.732486 0.555890
0.438509 0.736938 0.560455
0.540557 0.741364 0.564999
0.641858 0.745771 0.569525
0.741490 0.750161 0.574038
0.838521 0.754535 0.578539
0.932021 0.758896 0.583029
0.150869 0.833184 0.562101
0.250702 0.837584 0.566749
0.351917 0.841925 0.571340
0.453968 0.846231 0.575901
0.556021 0.850511 0.580440
0.657174 0.854770 0.584962
0.756507 0.859009 0.589470
0.853090 0.863232 0.593965
0.945993 0.867438 0.598449
0.165450 0.938660 0.577535
0.265736 0.942860 0.582178
0.367242 0.947001 0.586765
0.469427 0.951106 0.591320
0.571461 0.955183 0.595853
0.672443 0.959237 0.600369
0.771455 0.963271 0.604871
0.867567 0.967286 0.609359
0.959851 0.971283 0.613837
0.052295 0.054781 0.558164
0.148341 0.058975 0.562813
0.246900 0.063129 0.567406
0.347382 0.067265 0.571968
0.448931 0.071392 0.576509
0.550635 0.075513 0.581032
0.651562 0.079631 0.585541
0.750776 0.083748 0.590038
0.847340 0.087864 0.594524
0.066399 0.161125 0.573772
0.163069 0.165523 0.578416
0.262085 0.169876 0.583004
0.362865 0.174207 0.587561
0.464558 0.178526 0.592096
0.566250 0.182836 0.596613
0.667013 0.187141 0.601116
0.765911 0.191441 0.605607
0.862009 0.195739 0.610086
0.080552 0.271382 0.589303
0.177819 0.275925 0.593942
0.277267 0.280418 0.598524
0.378322 0.284887 0.603074
0.480132 0.289340 0.607603
0.581790 0.293782 0.612113
0.682366 0.298215 0.616609
0.780927 0.302643 0.621092
0.876537 0.307065 0.625563
0.094774 0.384276 0.604781
0.192613 0.388904 0.609413
0.292469 0.393480 0.613988
0.393773 0.398029 0.618531
0.495679 0.402560 0.623052
0.597278 0.407077 0.627554
0.697645 0.411583 0.632042
0.795845 0.416081 0.636517
0.890946 0.420571 0.640979
0.109071 0.498441 0.620213
0.207457 0.503098 0.624836
0.307696 0.507700 0.629403
0.409226 0.512272 0.633938
0.511203 0.516824 0.638450
0.612721 0.521360 0.642944
0.712856 0.525882 0.647422
0.810674 0.530394 0.651887
0.905242 0.534896 0.656340
0.123442 0.612496 0.635599
0.222351 0.617124 0.640214
0.322950 0.621695 0.644771
0.424682 0.626234 0.649297
0.526707 0.630750 0.653799
0.628121 0.635249 0.658283
0.728000 0.639732 0.662751
0.825413 0.644202 0.667206
0.919428 0.648660 0.671648
0.137888 0.725055 0.650940
0.237296 0.729596 0.655545
0.338230 0.734079 0.660092
0.440141 0.738529 0.664607
0.542191 0.742954 0.669099
0.643478 0.747359 0.673572
0.743079 0.751747 0.678029
0.840064 0.756119 0.682472
0.933502 0.760478 0.686903
0.152407 0.834730 0.666235
0.252289 0.839128 0.670829
0.353536 0.843466 0.675365
0.455602 0.847770 0.679868
0.557654 0.852047 0.684348
0.658790 0.856303 0.688809
0.758090 0.860540 0.693254
0.854624 0.864760 0.697685
0.947463 0.868964 0.702103
0.166996 0.940136 0.681481
0.267329 0.944333 0.686063
0.368864 0.948470 0.690587
0.471062 0.952572 0.695078
0.573092 0.956646 0.699546
0.674055 0.960697 0.703994
0.773032 0.964727 0.708425
0.869093 0.968738 0.712842
0.961310 0.972732 0.717246
0.053769 0.056257 0.662625
0.149881 0.060455 0.667222
0.248489 0.064612 0.671760
0.349004 0.068751 0.676267
0.450569 0.072881 0.680750
0.552273 0.077005 0.685214
0.653184 0.081126 0.689662
0.752366 0.085246 0.694095
0.848882 0.089365 0.698516
0.067884 0.162673 0.678048
0.164618 0.167073 0.682633
0.263680 0.171428 0.687160
0.364491 0.175762 0.691654
0.466197 0.180083 0.696124
0.567886 0.184396 0.700575
0.668631 0.188702 0.705010
0.767495 0.193005 0.709430
0.863542 0.197305 0.713837
0.082048 0.272981 0.693372
0.179376 0.277525 0.697943
0.278868 0.282020 0.702457
0.379950 0.286491 0.706938
0.481772 0.290945 0.711394
0.583425 0.295389 0.715831
0.683980 0.299824 0.720252
0.782504 0.304252 0.724658
0.878061 0.308676 0.729050
0.096280 0.385905 0.708618
0.194178 0.390535 0.713175
0.294075 0.395112 0.717675
0.395404 0.399661 0.722141
0.497319 0.404193 0.726583
0.598911 0.408710 0.731006
0.699254 0.413217 0.735411
0.797415 0.417715 0.739802
0.892461 0.422206 0.744178
0.110586 0.500081 0.723794
0.209029 0.504738 0.728336
0.309307 0.509340 0.732821
0.410860 0.513912 0.737272
0.512843 0.518464 0.741698
0.614351 0.522999 0.746104
0.714460 0.527522 0.750494
0.812236 0.532033 0.754868
0.906747 0.536535 0.759228
0.124967 0.614126 0.738901
0.223930 0.618753 0.743428
0.324566 0.623323 0.747896
0.426318 0.627861 0.752330
0.528347 0.632377 0.756740
0.629748 0.636874 0.761129
0.729599 0.641356 0.765501
0.826968 0.645825 0.769858
0.920922 0.650282 0.774201
0.139422 0.726655 0.753940
0.238882 0.731194 0.758449
0.339850 0.735676 0.762900
0.441779 0.740123 0.767317
0.543830 0.744547 0.771709
0.645102 0.748950 0.776080
0.744672 0.753336 0.780434
0.841610 0.757707 0.784772
0.934985 0.762064 0.789096
0.153949 0.836280 0.768908
0.253881 0.840675 0.773399
0.355159 0.845011 0.777832
0.457241 0.849312 0.782230
0.559291 0.853587 0.786604
0.660410 0.857840 0.790956
0.759677 0.862074 0.795291
0.856162 0.866291 0.799610
0.948936 0.870493 0.803914
0.168547 0.941615 0.783805
0.268926 0.945808 0.788277
0.370490 0.949942 0.792690
0.472702 0.954040 0.797069
0.574728 0.958111 0.801423
0.675671 0.962159 0.805755
0.774612 0.966186 0.810070
0.870622 0.970194 0.814368
0.962772 0.974184 0.818652
0.055247 0.057738 0.765612
0.151426 0.061938 0.770107
0.250083 0.066099 0.774544
0.350630 0.070241 0.778947
0.452211 0.074374 0.783324
0.553915 0.078501 0.787681
0.654809 0.082625 0.792020
0.753959 0.086748 0.796343
0.850426 0.090870 0.800652
0.069373 0.164225 0.780687
0.166171 0.168628 0.785162
0.265280 0.172986 0.789580
0.366120 0.177322 0.793963
0.467840 0.181645 0.798321
0.569527 0.185960 0.802658
0.670252 0.190269 0.806977
0.769081 0.194574 0.811279
0.865078 0.198876 0.815567
0.083548 0.274585 0.795638
0.180937 0.279130 0.800094
0.280474 0.283627 0.804491
0.381583 0.288099 0.808853
0.483416 0.292555 0.813190
0.585063 0.297000 0.817506
0.685597 0.301436 0.821804
0.784083 0.305866 0.826085
0.879588 0.310291 0.830352
0.097790 0.387539 0.810489
0.195747 0.392169 0.814923
0.295686 0.396747 0.819299
0.397040 0.401297 0.823640
0.498962 0.405829 0.827956
0.600547 0.410348 0.832250
0.700866 0.414855 0.836525
0.798988 0.419354 0.840784
0.893978 0.423845 0.845028
0.112106 0.501724 0.825246
0.210605 0.506381 0.829658
0.310923 0.510983 0.834012
0.412498 0.515556 0.838330
0.514487 0.520107 0.842623
0.615985 0.524642 0.846894
0.716067 0.529165 0.851147
0.813801 0.533676 0.855382
0.908254 0.538177 0.859602
0.126497 0.615759 0.839911
0.225514 0.620385 0.844300
0.326186 0.624955 0.848630
0.427958 0.629492 0.852925
0.529990 0.634007 0.857194
0.631379 0.638503 0.861442
0.731201 0.642984 0.865670
0.828525 0.647452 0.869881
0.922419 0.651908 0.874076
0.140961 0.728257 0.854484
0.240471 0.732795 0.858848
0.341474 0.737275 0.863154
0.443420 0.741721 0.867425
0.545472 0.746143 0.871669
0.646729 0.750544 0.875891
0.746268 0.754928 0.880094
0.843159 0.759298 0.884280
0.936472 0.763653 0.888450
0.155497 0.837832 0.868963
0.255477 0.842224 0.873302
0.356786 0.846558 0.877583
0.458883 0.850856 0.881828
0.560932 0.855129 0.886046
0.662033 0.859379 0.890243
0.761266 0.863611 0.894419
0.857703 0.867826 0.898579
0.950411 0.872024 0.902722
0.170103 0.943096 0.883347
0.270528 0.947286 0.887660
0.372121 0.951416 0.891914
0.474345 0.955511 0.896132
0.576367 0.959579 0.900324
0.677291 0.963623 0.904493
0.776195 0.967646 0.908643
0.872153 0.971651 0.912775
0.964235 0.975638 0.916890
0.056485 0.058977 0.849665
0.152720 0.063181 0.854038
0.251417 0.067344 0.858352
0.351991 0.071489 0.862631
0.453585 0.075624 0.866883
0.555288 0.079754 0.871114
0.656169 0.083881 0.875325
0.755291 0.088006 0.879520
0.851718 0.092131 0.883698
0.070621 0.165525 0.864321
0.167471 0.169930 0.868669
0.266619 0.174289 0.872957
0.367484 0.178627 0.877211
0.469214 0.182953 0.881438
0.570899 0.187269 0.885642
0.671608 0.191580 0.889828
0.770408 0.195887 0.893996
0.866363 0.200191 0.898147
0.084804 0.275927 0.878835
0.182245 0.280474 0.883156
0.281818 0.284971 0.887419
0.382949 0.289445 0.891646
0.484791 0.293902 0.895846
0.586433 0.298348 0.900024
0.686949 0.302786 0.904183
0.785404 0.307217 0.908323
0.880864 0.311643 0.912447
0.099055 0.388906 0.893230
0.197061 0.393537 0.897524
0.297034 0.398115 0.901759
0.398408 0.402667 0.905959
0.500338 0.407199 0.910131
0.601915 0.411718 0.914282
0.702215 0.416226 0.918412
0.800303 0.420725 0.922524
0.895246 0.425217 0.926620
0.113379 0.503100 0.907511
0.211925 0.507757 0.911777
0.312275 0.512359 0.915984
0.413868 0.516931 0.920155
0.515862 0.521482 0.924299
0.617351 0.526018 0.928421
0.717411 0.530540 0.932522
0.815110 0.535051 0.936605
0.909515 0.539552 0.940671
0.127777 0.617126 0.921681
0.226839 0.621751 0.925917
0.327541 0.626320 0.930095
0.429330 0.630856 0.934237
0.531365 0.635370 0.938351
0.632743 0.639866 0.942443
0.732541 0.644346 0.946514
0.829827 0.648813 0.950567
0.923671 0.653268 0.954603
0.142249 0.729598 0.935739
0.241802 0.734135 0.939945
0.342833 0.738613 0.944092
0.444793 0.743058 0.948204
0.546846 0.747478 0.952287
0.648090 0.751878 0.956348
0.747603 0.756260 0.960389
0.844455 0.760628 0.964410
0.937714 0.764982 0.968414
0.156792 0.839130 0.949684
0.256813 0.843520 0.953858
0.358149 0.847851 0.957974
0.460257 0.852148 0.962054
0.562305 0.856418 0.966106
0.663391 0.860667 0.970135
0.762596 0.864896 0.974144
0.858991 0.869109 0.978133
0.951644 0.873305 0.982105
0.171405 0.944334 0.963514
0.271869 0.948521 0.967656
0.373486 0.952649 0.971739
0.475720 0.956741 0.975787
0.577739 0.960806 0.979806
0.678645 0.964847 0.983803
0.777520 0.968868 0.987778
0.873434 0.972870 0.991734
0.965459 0.976854 0.995672
